; generated by PrusaSlicer 2.2.0+ on 2020-11-21 at 18:12:43 UTC

; 

; external perimeters extrusion width = 0.45mm
; perimeters extrusion width = 0.45mm
; infill extrusion width = 0.45mm
; solid infill extrusion width = 0.45mm
; top infill extrusion width = 0.40mm
; support material extrusion width = 0.38mm
; first layer extrusion width = 0.42mm

M201 X500 Y500 Z100 E5000 ; sets maximum accelerations, mm/sec^2
M203 X500 Y500 Z10 E60 ; sets maximum feedrates, mm/sec
M204 P500 R1000 T500 ; sets acceleration (P, T) and retract acceleration (R), mm/sec^2
M205 X8.00 Y8.00 Z0.40 E5.00 ; sets the jerk limits, mm/sec
M205 S0 T0 ; sets the minimum extruding and travel feed rate, mm/sec
M107
G90 ; use absolute coordinates
M83 ; extruder relative mode
M104 S200 ; set extruder temp
M140 S60 ; set bed temp
M190 S60 ; wait for bed temp
M109 S200 ; wait for extruder temp
G28 ; home all
G1 Z2 F240
G1 X2 Y10 F3000
G1 Z0.28 F240
G92 E0.0
G1 Y190 E15.0 F1500.0 ; intro line
G1 X2.3 F5000
G1 Y10 E30 F1200.0 ; intro line
G92 E0.0
G21 ; set units to millimeters
G90 ; use absolute coordinates
M83 ; use relative distances for extrusion
; Filament gcode
;BEFORE_LAYER_CHANGE
;0.2


G1 E-1.00000 F3600.00000
G1 Z0.200 F9000.000
;AFTER_LAYER_CHANGE
;0.2
G1 X89.221 Y107.679
G1 E1.00000 F2400.00000
G1 F1200.000
G1 X89.788 Y107.290 E0.02158
G1 X90.630 Y106.997 E0.02794
G1 X91.614 Y106.897 E0.03102
G1 X123.473 Y106.895 E0.99890
G1 X124.241 Y106.951 E0.02416
G1 X124.979 Y107.135 E0.02385
G1 X143.972 Y114.009 E0.63331
G1 X144.411 Y114.227 E0.01538
G1 X144.797 Y114.531 E0.01538
G1 X145.217 Y115.079 E0.02166
G1 X147.196 Y118.824 E0.13283
G1 X147.501 Y119.645 E0.02745
G1 X147.576 Y120.485 E0.02643
G1 X147.480 Y121.169 E0.02168
G1 X147.263 Y121.787 E0.02053
G1 X145.072 Y126.441 E0.16127
G1 X144.443 Y127.272 E0.03270
G1 X143.671 Y127.830 E0.02984
G1 X142.986 Y128.103 E0.02315
G1 X142.066 Y128.297 E0.02947
G1 X140.833 Y128.369 E0.03873
G1 X92.391 Y126.209 E1.52036
G1 X91.203 Y126.029 E0.03769
G1 X90.267 Y125.645 E0.03170
G1 X89.510 Y125.023 E0.03072
G1 X88.937 Y124.234 E0.03059
G1 X88.666 Y123.263 E0.03160
G1 X88.396 Y118.571 E0.14736
G1 X88.397 Y109.401 E0.28751
G1 X88.520 Y108.751 E0.02076
G1 X88.795 Y108.179 E0.01989
G1 X89.182 Y107.725 E0.01870
G1 E-0.70000 F3600.00000
G1 F7200.000
G1 X89.670 Y107.375 E-0.28500
G1 E-0.01500 F3600.00000
G1 X123.679 Y104.668 F9000.000
G1 E1.00000 F2400.00000
G1 F1200.000
G1 X124.669 Y104.777 E0.03123
G1 X125.642 Y105.063 E0.03177
G1 X126.724 Y105.663 E0.03880
G1 X127.298 Y106.198 E0.02461
G1 X136.729 Y109.819 E0.31676
G1 X140.546 Y111.507 E0.13085
G1 X140.922 Y111.424 E0.01208
G1 X141.599 Y111.424 E0.02121
G1 X141.821 Y111.391 E0.00706
G1 X143.656 Y111.344 E0.05753
G1 X145.098 Y111.721 E0.04675
G1 X146.321 Y112.487 E0.04524
G1 X147.241 Y113.514 E0.04323
G1 X147.825 Y114.714 E0.04183
G1 X148.019 Y115.627 E0.02928
G1 X148.031 Y115.820 E0.00607
G1 X148.585 Y116.554 E0.02885
G1 X148.976 Y117.181 E0.02316
G1 X149.313 Y117.835 E0.02307
G1 X149.735 Y118.954 E0.03750
G1 X149.874 Y119.667 E0.02276
G1 X149.917 Y120.387 E0.02262
G1 X149.786 Y121.565 E0.03717
G1 X149.421 Y122.683 E0.03687
G1 X148.796 Y123.755 E0.03889
G1 X148.028 Y124.610 E0.03606
G1 X148.018 Y124.782 E0.00540
G1 X147.887 Y125.429 E0.02069
G1 X147.694 Y125.925 E0.01669
G1 X147.624 Y126.291 E0.01169
G1 X147.247 Y127.308 E0.03400
G1 X146.735 Y128.177 E0.03160
G1 X146.060 Y128.959 E0.03241
G1 X145.179 Y129.654 E0.03519
G1 X144.097 Y130.203 E0.03804
G1 X143.402 Y130.411 E0.02274
G1 X142.696 Y130.564 E0.02266
G1 X141.517 Y130.701 E0.03721
G1 X140.304 Y130.674 E0.03804
G1 X139.075 Y130.484 E0.03898
G1 X137.878 Y130.123 E0.03920
G1 X137.568 Y129.988 E0.01061
G1 X136.523 Y129.990 E0.03277
G1 X135.796 Y129.896 E0.02297
G1 X134.166 Y129.137 E0.05637
G1 X133.213 Y128.218 E0.04151
G1 X132.946 Y127.829 F9000.000
G1 F1200.000
G1 X132.674 Y127.424 E0.01529
G1 X127.563 Y125.462 E0.17164
G1 X127.285 Y125.730 E0.01210
G1 X126.882 Y126.176 E0.01886
G1 X126.524 Y126.455 E0.01423
G1 X126.199 Y126.749 E0.01373
G1 X125.495 Y127.191 E0.02606
G1 X124.929 Y127.426 E0.01923
G1 X124.784 Y127.465 E0.00470
G1 X123.910 Y127.803 F9000.000
G1 F1200.000
G1 X123.394 Y127.985 E0.01716
G1 X122.724 Y128.100 E0.02131
G1 X122.423 Y128.108 E0.00945
G1 X121.241 Y128.294 E0.03749
G1 X110.667 Y128.290 E0.33155
G1 X109.961 Y128.329 E0.02216
G1 X99.092 Y128.325 E0.34082
G1 X92.167 Y128.361 E0.21710
G1 X91.415 Y128.262 E0.02380
G1 X90.687 Y128.056 E0.02373
G1 X90.439 Y128.007 E0.00792
G1 X89.040 Y127.384 E0.04800
G1 X87.958 Y126.462 E0.04459
G1 X87.178 Y125.258 E0.04498
G1 X86.759 Y124.137 E0.03753
G1 X86.632 Y122.935 E0.03790
G1 X86.908 Y121.270 E0.05291
G1 X87.075 Y120.840 E0.01448
G1 X86.949 Y120.641 E0.00739
G1 X86.660 Y119.926 E0.02418
G1 X86.449 Y118.840 E0.03468
G1 X86.440 Y109.259 E0.30038
G1 X86.664 Y108.065 E0.03810
G1 X87.197 Y106.937 E0.03912
G1 X87.984 Y106.006 E0.03821
G1 X88.977 Y105.300 E0.03820
G1 X90.245 Y104.829 E0.04241
G1 X91.538 Y104.667 E0.04085
G1 X123.679 Y104.668 E1.00778
G1 E-0.70000 F3600.00000
G1 F7200.000
G1 X123.079 Y104.668 E-0.28500
G1 E-0.01500 F3600.00000
G1 X123.854 Y127.423 F9000.000
G1 E1.00000 F2400.00000
G1 F1200.000
G1 X124.304 Y127.264 E0.01499
G1 X124.555 Y127.135 E0.00884
G1 X124.797 Y127.072 E0.00783
G1 X125.336 Y126.849 E0.01831
G1 X125.958 Y126.458 E0.02303
G1 X126.283 Y126.165 E0.01371
G1 X126.614 Y125.911 E0.01309
G1 X127.014 Y125.467 E0.01873
G1 X127.475 Y125.025 E0.02004
G1 X132.972 Y127.135 E0.18462
G1 X133.047 Y127.307 E0.00589
G1 X133.410 Y127.849 E0.02046
G1 X133.783 Y128.244 F9000.000
G1 F1200.000
G1 X134.405 Y128.844 E0.02712
G1 X135.874 Y129.526 E0.05076
G1 X136.535 Y129.613 E0.02090
G1 X137.647 Y129.611 E0.03489
G1 X137.999 Y129.765 E0.01205
G1 X139.146 Y130.114 E0.03760
G1 X140.325 Y130.298 E0.03741
G1 X141.487 Y130.325 E0.03642
G1 X142.625 Y130.194 E0.03592
G1 X143.315 Y130.044 E0.02214
G1 X143.972 Y129.847 E0.02151
G1 X144.990 Y129.327 E0.03585
G1 X145.811 Y128.675 E0.03288
G1 X146.420 Y127.970 E0.02920
G1 X146.899 Y127.161 E0.02949
G1 X147.264 Y126.176 E0.03292
G1 X147.329 Y125.821 E0.01133
G1 X147.521 Y125.337 E0.01631
G1 X147.645 Y124.724 E0.01961
G1 X147.656 Y124.416 E0.00967
G1 X147.881 Y124.226 E0.00924
G1 X148.480 Y123.548 E0.02835
G1 X149.070 Y122.545 E0.03648
G1 X149.413 Y121.503 E0.03442
G1 X149.540 Y120.393 E0.03502
G1 X149.498 Y119.702 E0.02169
G1 X149.368 Y119.043 E0.02107
G1 X148.973 Y117.998 E0.03502
G1 X148.651 Y117.374 E0.02202
G1 X148.269 Y116.760 E0.02268
G1 X147.815 Y116.152 E0.02380
G1 X147.659 Y115.980 E0.00727
G1 X147.647 Y115.686 E0.00923
G1 X147.475 Y114.857 E0.02655
G1 X146.914 Y113.703 E0.04022
G1 X146.060 Y112.761 E0.03989
G1 X144.925 Y112.057 E0.04187
G1 X143.589 Y111.715 E0.04324
G1 X141.845 Y111.767 E0.05469
G1 X141.629 Y111.801 E0.00688
G1 X140.946 Y111.801 E0.02141
G1 X140.511 Y111.904 E0.01401
G1 X136.590 Y110.169 E0.13444
G1 X127.092 Y106.523 E0.31898
G1 X126.519 Y105.980 E0.02477
G1 X125.514 Y105.418 E0.03609
G1 X124.611 Y105.150 E0.02954
G1 X123.669 Y105.045 E0.02972
G1 X91.549 Y105.044 E1.00710
G1 X90.353 Y105.190 E0.03776
G1 X89.173 Y105.623 E0.03943
G1 X88.256 Y106.269 E0.03515
G1 X87.502 Y107.161 E0.03664
G1 X87.016 Y108.202 E0.03600
G1 X86.814 Y109.310 E0.03531
G1 X86.826 Y118.821 E0.29823
G1 X87.016 Y119.801 E0.03129
G1 X87.290 Y120.479 E0.02293
G1 X87.501 Y120.794 E0.01187
G1 X87.276 Y121.355 E0.01895
G1 X87.010 Y122.923 E0.04989
G1 X87.121 Y124.029 E0.03486
G1 X87.507 Y125.073 E0.03488
G1 X88.225 Y126.195 E0.04179
G1 X89.220 Y127.052 E0.04117
G1 X90.533 Y127.641 E0.04511
G1 X90.775 Y127.689 E0.00775
G1 X91.479 Y127.890 E0.02295
G1 X92.179 Y127.984 E0.02214
G1 X99.091 Y127.948 E0.21672
G1 X109.956 Y127.952 E0.34069
G1 X110.657 Y127.913 E0.02200
G1 X121.197 Y127.919 E0.33049
G1 X122.368 Y127.734 E0.03717
G1 X122.347 Y127.356 F9000.000
G1 F1200.000
G1 X122.629 Y127.352 E0.00884
G1 X123.205 Y127.255 E0.01831
G1 X124.165 Y126.914 E0.03193
G1 X124.420 Y126.780 E0.00903
G1 X124.666 Y126.718 E0.00796
G1 X125.177 Y126.507 E0.01733
G1 X125.742 Y126.149 E0.02096
G1 X126.040 Y125.876 E0.01267
G1 X126.370 Y125.623 E0.01305
G1 X126.747 Y125.199 E0.01778
G1 X127.054 Y124.921 E0.01299
G1 X127.319 Y124.561 E0.01402
G1 X133.263 Y126.843 E0.19966
G1 X133.374 Y127.118 E0.00930
G1 X133.752 Y127.690 E0.02148
G1 X133.942 Y127.873 E0.00830
G1 X134.352 Y128.269 F9000.000
G1 F1200.000
G1 X134.644 Y128.551 E0.01272
G1 X135.952 Y129.156 E0.04517
G1 X136.547 Y129.235 E0.01883
G1 X137.728 Y129.233 E0.03702
G1 X138.121 Y129.408 E0.01349
G1 X139.218 Y129.743 E0.03597
G1 X140.371 Y129.923 E0.03660
G1 X141.457 Y129.949 E0.03404
G1 X142.554 Y129.823 E0.03464
G1 X143.228 Y129.677 E0.02161
G1 X143.847 Y129.491 E0.02026
G1 X144.800 Y129.001 E0.03363
G1 X145.561 Y128.392 E0.03055
G1 X146.123 Y127.737 E0.02704
G1 X146.551 Y127.013 E0.02637
G1 X146.904 Y126.062 E0.03182
G1 X146.965 Y125.717 E0.01097
G1 X147.155 Y125.245 E0.01596
G1 X147.271 Y124.667 E0.01850
G1 X147.283 Y124.235 E0.01356
G1 X147.609 Y123.964 E0.01329
G1 X148.185 Y123.313 E0.02727
G1 X148.733 Y122.373 E0.03410
G1 X149.049 Y121.405 E0.03194
G1 X149.162 Y120.399 E0.03174
G1 X149.125 Y119.762 E0.01999
G1 X149.001 Y119.132 E0.02016
G1 X148.633 Y118.161 E0.03254
G1 X148.327 Y117.567 E0.02097
G1 X147.953 Y116.966 E0.02218
G1 X147.519 Y116.386 E0.02273
G1 X147.286 Y116.131 E0.01083
G1 X147.274 Y115.745 E0.01211
G1 X147.111 Y114.957 E0.02524
G1 X146.588 Y113.895 E0.03712
G1 X145.800 Y113.035 E0.03655
G1 X144.753 Y112.394 E0.03850
G1 X143.524 Y112.088 E0.03972
G1 X141.871 Y112.144 E0.05186
G1 X141.660 Y112.178 E0.00672
G1 X140.970 Y112.178 E0.02162
G1 X140.478 Y112.302 E0.01590
G1 X136.450 Y110.519 E0.13811
G1 X126.885 Y106.847 E0.32124
G1 X126.312 Y106.296 E0.02495
G1 X125.385 Y105.773 E0.03337
G1 X124.551 Y105.523 E0.02729
G1 X123.658 Y105.422 E0.02818
G1 X91.560 Y105.421 E1.00642
G1 X90.461 Y105.553 E0.03471
G1 X89.367 Y105.948 E0.03645
G1 X88.526 Y106.533 E0.03212
G1 X87.831 Y107.346 E0.03354
G1 X87.382 Y108.295 E0.03293
G1 X87.191 Y109.327 E0.03290
G1 X87.203 Y118.803 E0.29711
G1 X87.372 Y119.677 E0.02790
G1 X87.632 Y120.317 E0.02166
G1 X87.929 Y120.747 E0.01638
G1 X87.644 Y121.441 E0.02352
G1 X87.387 Y122.913 E0.04687
G1 X87.484 Y123.923 E0.03182
G1 X87.837 Y124.889 E0.03224
G1 X88.494 Y125.930 E0.03860
G1 X89.402 Y126.720 E0.03773
G1 X90.627 Y127.275 E0.04218
G1 X90.864 Y127.322 E0.00758
G1 X91.544 Y127.519 E0.02219
G1 X92.190 Y127.607 E0.02044
G1 X99.090 Y127.571 E0.21633
G1 X109.951 Y127.575 E0.34056
G1 X110.647 Y127.536 E0.02183
G1 X118.050 Y127.542 E0.23214
G1 X118.059 Y127.165 F9000.000
G1 F1200.000
G1 X121.138 Y127.167 E0.09656
G1 X122.331 Y126.977 E0.03786
G1 X122.583 Y126.977 E0.00792
G1 X123.126 Y126.886 E0.01725
G1 X124.024 Y126.564 E0.02990
G1 X124.285 Y126.425 E0.00928
G1 X124.536 Y126.364 E0.00811
G1 X125.017 Y126.165 E0.01631
G1 X125.524 Y125.841 E0.01885
G1 X125.795 Y125.588 E0.01164
G1 X126.125 Y125.335 E0.01303
G1 X126.478 Y124.935 E0.01673
G1 X126.785 Y124.656 E0.01300
G1 X127.179 Y124.103 E0.02130
G1 X133.558 Y126.552 E0.21423
G1 X133.702 Y126.929 E0.01266
G1 X134.055 Y127.464 E0.02010
G1 X134.508 Y127.898 E0.01970
G1 X134.969 Y128.296 F9000.000
G1 F1200.000
G1 X136.030 Y128.787 E0.03665
G1 X136.559 Y128.858 E0.01674
G1 X137.808 Y128.856 E0.03917
G1 X138.243 Y129.051 E0.01494
G1 X139.289 Y129.373 E0.03432
G1 X140.417 Y129.549 E0.03579
G1 X141.427 Y129.573 E0.03167
G1 X142.484 Y129.453 E0.03334
G1 X143.140 Y129.310 E0.02107
G1 X143.721 Y129.135 E0.01900
G1 X144.610 Y128.675 E0.03139
G1 X145.311 Y128.110 E0.02824
G1 X145.807 Y127.530 E0.02393
G1 X146.204 Y126.866 E0.02425
G1 X146.544 Y125.949 E0.03067
G1 X146.599 Y125.614 E0.01063
G1 X146.789 Y125.152 E0.01566
G1 X146.898 Y124.610 E0.01735
G1 X146.908 Y124.053 E0.01747
G1 X147.337 Y123.703 E0.01737
G1 X147.891 Y123.077 E0.02619
G1 X148.382 Y122.236 E0.03053
G1 X148.677 Y121.342 E0.02952
G1 X148.785 Y120.404 E0.02960
G1 X148.750 Y119.797 E0.01905
G1 X148.635 Y119.221 E0.01842
G1 X148.293 Y118.324 E0.03009
G1 X148.003 Y117.759 E0.01991
G1 X147.638 Y117.173 E0.02167
G1 X147.223 Y116.620 E0.02165
G1 X146.911 Y116.282 E0.01444
G1 X146.901 Y115.804 E0.01498
G1 X146.747 Y115.058 E0.02389
G1 X146.263 Y114.088 E0.03397
G1 X145.543 Y113.312 E0.03320
G1 X144.584 Y112.732 E0.03514
G1 X143.462 Y112.461 E0.03620
G1 X141.899 Y112.520 E0.04904
G1 X141.692 Y112.555 E0.00657
G1 X140.996 Y112.555 E0.02183
G1 X140.715 Y112.630 E0.00913
G1 E-0.70000 F3600.00000
G1 F7200.000
G1 X140.996 Y112.555 E-0.13829
G1 X141.305 Y112.555 E-0.14671
G1 E-0.01500 F3600.00000
G1 X138.375 Y111.783 F9000.000
G1 E1.00000 F2400.00000
G1 F1200.000
G1 X136.311 Y110.870 E0.07077
G1 X126.677 Y107.171 E0.32356
G1 X126.103 Y106.611 E0.02515
G1 X125.254 Y106.127 E0.03063
G1 X124.491 Y105.895 E0.02502
G1 X123.647 Y105.799 E0.02662
G1 X91.570 Y105.798 E1.00575
G1 X90.566 Y105.915 E0.03170
G1 X89.560 Y106.273 E0.03349
G1 X88.795 Y106.798 E0.02909
G1 X88.160 Y107.533 E0.03045
G1 X87.748 Y108.390 E0.02982
G1 X87.568 Y109.344 E0.03045
G1 X87.581 Y118.785 E0.29599
G1 X87.729 Y119.552 E0.02451
G1 X87.972 Y120.154 E0.02036
G1 X88.327 Y120.655 E0.01925
G1 X88.333 Y120.758 F9000.000
G1 F1200.000
G1 X88.011 Y121.528 E0.02618
G1 X87.765 Y122.906 E0.04387
G1 X87.847 Y123.819 E0.02876
G1 X88.167 Y124.705 E0.02954
G1 X88.799 Y125.705 E0.03708
G1 X89.583 Y126.389 E0.03264
G1 X90.722 Y126.910 E0.03925
G1 X90.954 Y126.955 E0.00742
G1 X91.610 Y127.147 E0.02142
G1 X92.227 Y127.232 E0.01954
G1 X94.661 Y127.205 E0.07630
G1 X99.090 Y127.194 E0.13886
G1 X110.116 Y127.188 E0.34573
G1 X110.116 Y126.811 F9000.000
G1 F1200.000
G1 X110.626 Y126.782 E0.01601
G1 X121.123 Y126.790 E0.32914
G1 X122.304 Y126.599 E0.03749
G1 X122.539 Y126.602 E0.00737
G1 X123.046 Y126.517 E0.01615
G1 X123.881 Y126.214 E0.02784
G1 X124.150 Y126.069 E0.00960
G1 X124.407 Y126.009 E0.00827
G1 X124.856 Y125.823 E0.01524
G1 X125.303 Y125.535 E0.01668
G1 X125.550 Y125.302 E0.01063
G1 X125.880 Y125.048 E0.01304
G1 X126.209 Y124.668 E0.01577
G1 X126.491 Y124.419 E0.01180
G1 X126.871 Y123.885 E0.02055
G1 X126.991 Y123.627 E0.00893
G1 X133.855 Y126.262 E0.23054
G1 X134.029 Y126.741 E0.01598
G1 X134.357 Y127.238 E0.01867
G1 X135.080 Y127.924 E0.03123
G1 X135.942 Y128.340 F9000.000
G1 F1200.000
G1 X136.110 Y128.417 E0.00579
G1 X136.573 Y128.481 E0.01466
G1 X137.710 Y128.481 E0.03564
G1 X137.845 Y128.459 E0.00432
G1 X138.366 Y128.695 E0.01793
G1 X139.361 Y129.002 E0.03265
G1 X140.463 Y129.174 E0.03497
G1 X141.397 Y129.197 E0.02930
G1 X142.413 Y129.082 E0.03205
G1 X143.053 Y128.943 E0.02053
G1 X143.594 Y128.780 E0.01772
G1 X144.418 Y128.350 E0.02913
G1 X145.059 Y127.828 E0.02591
G1 X145.510 Y127.298 E0.02183
G1 X145.857 Y126.718 E0.02118
G1 X146.184 Y125.837 E0.02948
G1 X146.233 Y125.512 E0.01030
G1 X146.423 Y125.058 E0.01541
G1 X146.525 Y124.553 E0.01617
G1 X146.532 Y123.871 E0.02140
G1 X147.066 Y123.441 E0.02149
G1 X147.595 Y122.841 E0.02508
G1 X148.046 Y122.064 E0.02816
G1 X148.304 Y121.279 E0.02594
G1 X148.407 Y120.408 E0.02749
G1 X148.377 Y119.858 E0.01727
G1 X148.268 Y119.311 E0.01749
G1 X147.953 Y118.487 E0.02765
G1 X147.679 Y117.952 E0.01886
G1 X147.322 Y117.379 E0.02116
G1 X146.928 Y116.855 E0.02056
G1 X146.535 Y116.431 E0.01811
G1 X146.528 Y115.862 E0.01785
G1 X146.383 Y115.159 E0.02250
G1 X145.940 Y114.283 E0.03077
G1 X145.287 Y113.590 E0.02985
G1 X144.417 Y113.071 E0.03177
G1 X143.402 Y112.834 E0.03269
G1 X141.929 Y112.896 E0.04623
G1 X141.727 Y112.932 E0.00643
G1 X141.550 Y112.932 E0.00556
G1 X140.696 Y113.024 F9000.000
G1 F1200.000
G1 X140.421 Y113.101 E0.00894
G1 X138.236 Y112.134 E0.07495
G1 E-0.70000 F3600.00000
G1 F7200.000
G1 X138.784 Y112.377 E-0.28500
G1 E-0.01500 F3600.00000
G1 X126.434 Y107.461 F9000.000
G1 E1.00000 F2400.00000
G1 F1200.000
G1 X125.893 Y106.925 E0.02389
G1 X125.122 Y106.481 E0.02788
G1 X124.430 Y106.268 E0.02272
G1 X123.636 Y106.176 E0.02505
G1 X91.581 Y106.175 E1.00508
G1 X90.669 Y106.278 E0.02875
G1 X89.750 Y106.599 E0.03054
G1 X89.062 Y107.066 E0.02607
G1 X88.488 Y107.720 E0.02727
G1 X88.099 Y108.531 E0.02820
G1 X87.945 Y109.361 E0.02648
