; generated by PrusaSlicer 2.2.0+ on 2020-11-12 at 18:54:42 UTC

; 

; external perimeters extrusion width = 0.45mm
; perimeters extrusion width = 0.45mm
; infill extrusion width = 0.45mm
; solid infill extrusion width = 0.45mm
; top infill extrusion width = 0.40mm
; first layer extrusion width = 0.42mm

M201 X500 Y500 Z100 E5000 ; sets maximum accelerations, mm/sec^2
M203 X500 Y500 Z10 E60 ; sets maximum feedrates, mm/sec
M204 P500 R1000 T500 ; sets acceleration (P, T) and retract acceleration (R), mm/sec^2
M205 X8.00 Y8.00 Z0.40 E5.00 ; sets the jerk limits, mm/sec
M205 S0 T0 ; sets the minimum extruding and travel feed rate, mm/sec
M107
G90 ; use absolute coordinates
M83 ; extruder relative mode
M104 S200 ; set extruder temp
M140 S50 ; set bed temp
M190 S50 ; wait for bed temp
M109 S200 ; wait for extruder temp
G28 ; home all
G1 Z2 F240
G1 X2 Y10 F3000
G1 Z0.28 F240
G92 E0.0
G1 Y190 E15.0 F1500.0 ; intro line
G1 X2.3 F5000
G1 Y10 E30 F1200.0 ; intro line
G92 E0.0
G21 ; set units to millimeters
G90 ; use absolute coordinates
M83 ; use relative distances for extrusion
; Filament gcode
;BEFORE_LAYER_CHANGE
;0.2


G1 E-5.00000 F3600.00000
G1 Z0.200 F9000.000
;AFTER_LAYER_CHANGE
;0.2
G1 X98.896 Y108.381
G1 E5.00000 F2400.00000
G1 F1200.000
G1 X99.527 Y107.948 E0.02400
G1 X100.472 Y107.617 E0.03138
G1 X101.555 Y107.505 E0.03413
G1 X133.422 Y107.503 E0.99918
G1 X134.195 Y107.555 E0.02430
G1 X134.846 Y107.693 E0.02087
G1 X135.469 Y107.939 E0.02099
G1 X135.976 Y108.262 E0.01885
G1 X136.427 Y108.704 E0.01979
G1 X136.753 Y109.189 E0.01835
G1 X136.969 Y109.733 E0.01835
G1 X137.077 Y110.350 E0.01962
G1 X137.419 Y120.932 E0.33199
G1 X137.348 Y123.313 E0.07468
G1 X136.981 Y124.419 E0.03654
G1 X136.332 Y125.360 E0.03585
G1 X135.503 Y126.134 E0.03555
G1 X134.567 Y126.712 E0.03451
G1 X133.544 Y127.127 E0.03459
G1 X132.710 Y127.343 E0.02703
G1 X132.010 Y127.481 E0.02238
G1 X130.718 Y127.577 E0.04062
G1 X102.370 Y127.597 E0.88883
G1 X101.099 Y127.420 E0.04024
G1 X100.045 Y127.002 E0.03555
G1 X99.115 Y126.243 E0.03762
G1 X98.532 Y125.445 E0.03097
G1 X98.333 Y124.943 E0.01694
G1 X98.205 Y124.301 E0.02053
G1 X97.933 Y119.588 E0.14802
G1 X97.938 Y110.357 E0.28944
G1 X98.082 Y109.613 E0.02376
G1 X98.399 Y108.958 E0.02282
G1 X98.857 Y108.427 E0.02199
G1 X99.140 Y108.673 F9000.000
G1 F1200.000
G1 X99.719 Y108.274 E0.02205
G1 X100.563 Y107.983 E0.02800
G1 X101.561 Y107.882 E0.03145
G1 X133.422 Y107.880 E0.99896
G1 X134.722 Y108.049 E0.04112
G1 X135.284 Y108.268 E0.01889
G1 X135.729 Y108.548 E0.01651
G1 X136.131 Y108.938 E0.01756
G1 X136.419 Y109.364 E0.01609
G1 X136.608 Y109.841 E0.01609
G1 X136.701 Y110.391 E0.01749
G1 X137.042 Y120.938 E0.33089
G1 X136.978 Y123.240 E0.07219
G1 X136.640 Y124.258 E0.03362
G1 X136.033 Y125.130 E0.03333
G1 X135.261 Y125.844 E0.03295
G1 X134.372 Y126.388 E0.03268
G1 X133.417 Y126.772 E0.03229
G1 X132.621 Y126.977 E0.02576
G1 X131.964 Y127.107 E0.02099
G1 X130.704 Y127.200 E0.03963
G1 X102.392 Y127.220 E0.88769
G1 X101.199 Y127.056 E0.03777
G1 X100.236 Y126.676 E0.03246
G1 X99.382 Y125.976 E0.03460
G1 X98.857 Y125.252 E0.02807
G1 X98.579 Y124.250 E0.03260
G1 X98.309 Y119.566 E0.14709
G1 X98.313 Y110.395 E0.28756
G1 X98.439 Y109.733 E0.02111
G1 X98.718 Y109.159 E0.02000
G1 X99.101 Y108.719 E0.01831
G1 E-3.50000 F3600.00000
G1 F7200.000
G1 X99.719 Y108.274 E-0.36169
G1 X100.563 Y107.983 E-0.42419
G1 X101.561 Y107.882 E-0.47645
G1 X101.904 Y107.882 E-0.16268
G1 E-0.07500 F3600.00000
G1 X101.663 Y110.956 F9000.000
G1 E5.00000 F2400.00000
G1 F1200.000
G1 X133.362 Y110.951 E0.99389
G1 X133.367 Y119.309 E0.26207
G1 X133.245 Y119.502 E0.00714
G1 X133.619 Y120.271 E0.02682
G1 X133.602 Y120.314 E0.00146
G1 X133.570 Y121.453 E0.03574
G1 X133.433 Y122.669 E0.03835
G1 X133.466 Y122.704 E0.00152
G1 X133.453 Y122.838 E0.00423
G1 X133.151 Y123.229 E0.01549
G1 X133.135 Y123.346 E0.00371
G1 X132.850 Y123.459 E0.00960
G1 X132.555 Y123.522 E0.00946
G1 X132.308 Y123.758 E0.01073
G1 X132.145 Y123.815 E0.00539
G1 X131.724 Y123.897 E0.01345
G1 X131.079 Y124.002 E0.02049
G1 X130.734 Y124.019 E0.01084
G1 X120.666 Y124.003 E0.31568
G1 X120.111 Y124.036 E0.01743
G1 X109.482 Y124.031 E0.33326
G1 X104.442 Y124.043 E0.15804
G1 X102.411 Y124.076 E0.06368
G1 X101.935 Y123.930 E0.01561
G1 X101.906 Y123.883 E0.00174
G1 X101.928 Y123.763 E0.00382
G1 X102.378 Y123.355 E0.01903
G1 X102.612 Y123.233 E0.00829
G1 X103.251 Y123.043 E0.02092
G1 X103.408 Y123.056 E0.00494
G1 X103.633 Y122.967 E0.00759
G1 X104.330 Y122.923 E0.02188
G1 X105.750 Y122.963 E0.04456
G1 X106.829 Y123.049 E0.03394
G1 X107.346 Y123.205 E0.01692
G1 X107.611 Y123.152 E0.00848
G1 X108.202 Y123.271 E0.01890
G1 X108.607 Y123.410 E0.01341
G1 X108.828 Y123.639 E0.00998
G1 X108.985 Y123.640 E0.00493
G1 X109.070 Y123.714 E0.00353
G1 X109.380 Y123.814 E0.01021
G1 X109.653 Y123.816 E0.00856
G1 X110.072 Y123.894 E0.01338
G1 X110.468 Y123.943 E0.01251
G1 X126.538 Y123.980 E0.50387
G1 X127.890 Y123.962 E0.04240
G1 X129.354 Y123.984 E0.04589
G1 X129.930 Y123.898 E0.01828
G1 X130.074 Y123.841 E0.00486
G1 X130.893 Y123.731 E0.02588
G1 X131.971 Y123.338 E0.03599
G1 X132.076 Y123.050 E0.00961
G1 X132.351 Y122.728 E0.01328
G1 X132.637 Y122.182 E0.01931
G1 X132.706 Y121.858 E0.01041
G1 X132.651 Y121.366 E0.01552
G1 X132.658 Y121.145 E0.00692
G1 X132.383 Y119.798 E0.04312
G1 X132.129 Y119.943 E0.00920
G1 X131.754 Y119.657 E0.01480
G1 X131.432 Y119.485 E0.01143
G1 X131.489 Y119.401 E0.00319
G1 X130.518 Y119.145 E0.03150
G1 X130.212 Y119.119 E0.00961
G1 X129.931 Y119.042 E0.00916
G1 X110.158 Y119.040 E0.61994
G1 X109.648 Y119.168 E0.01651
G1 X109.196 Y119.217 E0.01426
G1 X109.128 Y119.342 E0.00447
G1 X108.901 Y119.438 E0.00772
G1 X108.586 Y119.466 E0.00991
G1 X108.434 Y119.635 E0.00713
G1 X108.279 Y119.686 E0.00511
G1 X108.062 Y119.698 E0.00682
G1 X106.888 Y119.935 E0.03756
G1 X106.520 Y119.971 E0.01158
G1 X106.512 Y119.936 E0.00113
G1 X104.727 Y120.060 E0.05610
G1 X103.882 Y120.061 E0.02648
G1 X103.634 Y120.034 E0.00784
G1 X103.370 Y119.964 E0.00855
G1 X102.990 Y119.786 E0.01314
G1 X102.580 Y119.689 E0.01324
G1 X102.333 Y119.562 E0.00871
G1 X101.884 Y119.069 E0.02090
G1 X101.658 Y119.042 E0.00714
G1 X101.663 Y111.016 E0.25167
G1 E-3.50000 F3600.00000
G1 F7200.000
G1 X104.663 Y111.010 E-1.42500
G1 E-0.07500 F3600.00000
G1 X101.700 Y119.427 F9000.000
G1 E5.00000 F2400.00000
G1 F1200.000
G1 X101.281 Y119.378 E0.01324
G1 X101.286 Y110.618 E0.27468
G1 X101.597 Y110.579 E0.00982
G1 X133.411 Y110.574 E0.99751
G1 X133.739 Y110.614 E0.01034
G1 X133.744 Y119.419 E0.27607
G1 X133.677 Y119.525 E0.00395
G1 X133.949 Y120.079 E0.01936
G1 X134.020 Y120.289 E0.00693
G1 X133.977 Y120.394 E0.00356
G1 X133.947 Y121.480 E0.03407
G1 X133.827 Y122.536 E0.03332
G1 X134.033 Y122.751 E0.00933
G1 X133.829 Y122.909 E0.00810
G1 X133.824 Y123.111 E0.00632
G1 X133.711 Y123.122 E0.00357
G1 X133.511 Y123.380 E0.01024
G1 X133.484 Y123.576 E0.00621
G1 X133.411 Y123.642 E0.00309
G1 X133.025 Y123.808 E0.01318
G1 X132.743 Y123.867 E0.00902
G1 X132.580 Y124.032 E0.00729
G1 X132.473 Y124.100 E0.00396
G1 X132.244 Y124.180 E0.00760
G1 X131.119 Y124.378 E0.03583
G1 X130.743 Y124.396 E0.01181
G1 X120.677 Y124.380 E0.31560
G1 X120.122 Y124.414 E0.01742
G1 X109.482 Y124.408 E0.33360
G1 X104.445 Y124.420 E0.15794
G1 X102.389 Y124.453 E0.06448
G1 X102.286 Y124.440 E0.00326
G1 X101.859 Y124.300 E0.01407
G1 X101.706 Y124.274 E0.00487
G1 X101.569 Y124.056 E0.00809
G1 X101.503 Y123.983 E0.00308
G1 X101.576 Y123.599 E0.01226
G1 X101.635 Y123.521 E0.00306
G1 X102.160 Y123.043 E0.02226
G1 X102.470 Y122.881 E0.01096
G1 X103.213 Y122.661 E0.02430
G1 X103.352 Y122.673 E0.00438
G1 X103.544 Y122.596 E0.00649
G1 X104.341 Y122.545 E0.02502
G1 X105.769 Y122.586 E0.04479
G1 X106.900 Y122.676 E0.03557
G1 X107.365 Y122.817 E0.01524
G1 X107.612 Y122.768 E0.00789
G1 X108.301 Y122.907 E0.02204
G1 X108.778 Y123.070 E0.01582
G1 X108.828 Y123.096 E0.00176
G1 X108.989 Y123.263 E0.00729
G1 X109.126 Y123.264 E0.00430
G1 X109.259 Y123.379 E0.00549
G1 X109.440 Y123.438 E0.00598
G1 X109.689 Y123.439 E0.00780
G1 X110.130 Y123.522 E0.01407
G1 X110.492 Y123.566 E0.01143
G1 X126.536 Y123.603 E0.50307
G1 X127.891 Y123.585 E0.04247
G1 X129.329 Y123.606 E0.04510
G1 X129.831 Y123.532 E0.01593
G1 X129.977 Y123.473 E0.00494
G1 X130.802 Y123.363 E0.02608
G1 X131.677 Y123.044 E0.02920
G1 X131.755 Y122.830 E0.00712
G1 X132.037 Y122.515 E0.01326
G1 X132.279 Y122.053 E0.01637
G1 X132.325 Y121.839 E0.00686
G1 X132.273 Y121.381 E0.01445
G1 X132.280 Y121.177 E0.00639
G1 X132.118 Y120.384 E0.02538
G1 X131.999 Y120.452 E0.00429
G1 X131.886 Y120.232 E0.00774
G1 X131.549 Y119.975 E0.01330
G1 X131.049 Y119.708 E0.01776
G1 X130.932 Y119.711 E0.00368
G1 X130.843 Y119.680 E0.00296
G1 X130.877 Y119.630 E0.00190
G1 X130.454 Y119.518 E0.01373
G1 X130.146 Y119.492 E0.00967
G1 X129.880 Y119.419 E0.00866
G1 X110.205 Y119.417 E0.61690
G1 X109.714 Y119.540 E0.01586
G1 X109.433 Y119.571 E0.00887
G1 X109.400 Y119.632 E0.00219
G1 X109.106 Y119.768 E0.01014
G1 X108.978 Y119.810 E0.00425
G1 X108.767 Y119.829 E0.00664
G1 X108.647 Y119.961 E0.00560
G1 X108.350 Y120.059 E0.00980
G1 X108.110 Y120.073 E0.00754
G1 X106.944 Y120.308 E0.03732
G1 X106.233 Y120.378 E0.02239
G1 X106.222 Y120.334 E0.00141
G1 X104.740 Y120.438 E0.04658
G1 X103.862 Y120.438 E0.02754
G1 X103.565 Y120.406 E0.00937
G1 X103.241 Y120.320 E0.01050
G1 X102.865 Y120.144 E0.01300
G1 X102.448 Y120.045 E0.01344
G1 X102.007 Y119.819 E0.01555
G1 X102.014 Y119.772 E0.00149
G1 X101.741 Y119.471 E0.01274
G1 X101.643 Y119.031 F9000.000
G1 X101.772 Y118.168
G1 F1200.000
G1 X103.156 Y119.552 E0.06216
G1 X103.467 Y119.698 E0.01090
G1 X103.685 Y119.755 E0.00718
G1 X103.923 Y119.778 E0.00757
G1 X101.942 Y117.797 E0.08896
G1 X101.942 Y117.258 E0.01714
G1 X104.462 Y119.778 E0.11319
G1 X104.984 Y119.759 E0.01656
G1 X101.942 Y116.718 E0.13658
G1 X101.943 Y116.178 E0.01714
G1 X105.488 Y119.724 E0.15924
G1 X105.993 Y119.688 E0.01607
G1 X101.943 Y115.638 E0.18190
G1 X101.943 Y115.099 E0.01714
G1 X106.498 Y119.653 E0.20455
G1 X106.729 Y119.637 E0.00735
G1 X106.736 Y119.665 E0.00093
G1 X107.007 Y119.622 E0.00872
G1 X101.944 Y114.559 E0.22740
G1 X101.944 Y114.019 E0.01714
G1 X107.457 Y119.532 E0.24757
G1 X107.906 Y119.441 E0.01456
G1 X101.944 Y113.479 E0.26775
G1 X101.945 Y112.939 E0.01714
G1 X108.331 Y119.326 E0.28683
G1 X108.451 Y119.194 E0.00566
G1 X108.716 Y119.171 E0.00845
G1 X101.945 Y112.400 E0.30409
G1 X101.946 Y111.860 E0.01714
G1 X109.035 Y118.950 E0.31841
G1 X109.523 Y118.897 E0.01557
G1 X101.946 Y111.320 E0.34028
G1 X101.946 Y111.238 E0.00259
G1 X102.404 Y111.238 E0.01455
G1 X109.963 Y118.797 E0.33948
G1 X110.124 Y118.757 E0.00525
G1 X110.463 Y118.757 E0.01078
G1 X102.944 Y111.238 E0.33768
G1 X103.484 Y111.238 E0.01715
G1 X111.003 Y118.757 E0.33769
G1 X111.544 Y118.757 E0.01715
G1 X104.024 Y111.238 E0.33769
G1 X104.564 Y111.238 E0.01715
G1 X112.084 Y118.757 E0.33770
G1 X112.624 Y118.757 E0.01715
G1 X105.104 Y111.238 E0.33771
G1 X105.644 Y111.238 E0.01715
G1 X113.164 Y118.758 E0.33771
G1 X113.704 Y118.758 E0.01715
G1 X106.184 Y111.238 E0.33772
G1 X106.725 Y111.238 E0.01715
G1 X114.244 Y118.758 E0.33773
G1 X114.785 Y118.758 E0.01715
G1 X107.265 Y111.238 E0.33773
G1 X107.805 Y111.238 E0.01715
G1 X115.325 Y118.758 E0.33774
G1 X115.865 Y118.758 E0.01715
G1 X108.345 Y111.238 E0.33775
G1 X108.885 Y111.237 E0.01715
G1 X116.405 Y118.758 E0.33775
G1 X116.945 Y118.758 E0.01715
G1 X109.425 Y111.237 E0.33776
G1 X109.965 Y111.237 E0.01715
G1 X117.486 Y118.758 E0.33777
G1 X118.026 Y118.758 E0.01715
G1 X110.505 Y111.237 E0.33777
G1 X111.045 Y111.237 E0.01715
G1 X118.566 Y118.758 E0.33778
G1 X119.106 Y118.758 E0.01715
G1 X111.585 Y111.237 E0.33779
G1 X112.125 Y111.237 E0.01715
G1 X119.646 Y118.758 E0.33779
G1 X120.186 Y118.758 E0.01715
G1 X112.665 Y111.237 E0.33780
G1 X113.205 Y111.237 E0.01715
G1 X120.727 Y118.758 E0.33781
G1 X121.267 Y118.759 E0.01715
G1 X113.745 Y111.237 E0.33781
G1 X114.285 Y111.237 E0.01715
G1 X121.807 Y118.759 E0.33782
G1 X122.347 Y118.759 E0.01715
G1 X114.825 Y111.237 E0.33782
G1 X115.365 Y111.236 E0.01715
G1 X122.887 Y118.759 E0.33783
G1 X123.428 Y118.759 E0.01715
G1 X115.905 Y111.236 E0.33784
G1 X116.445 Y111.236 E0.01715
G1 X123.968 Y118.759 E0.33784
G1 X124.508 Y118.759 E0.01715
G1 X116.985 Y111.236 E0.33785
G1 X117.525 Y111.236 E0.01715
G1 X125.048 Y118.759 E0.33786
G1 X125.588 Y118.759 E0.01715
G1 X118.065 Y111.236 E0.33786
G1 X118.605 Y111.236 E0.01715
G1 X126.128 Y118.759 E0.33787
G1 X126.669 Y118.759 E0.01715
G1 X119.145 Y111.236 E0.33788
G1 X119.685 Y111.236 E0.01715
G1 X127.209 Y118.759 E0.33788
G1 X127.749 Y118.759 E0.01715
G1 X120.225 Y111.236 E0.33789
G1 X120.765 Y111.236 E0.01715
G1 X128.289 Y118.759 E0.33790
G1 X128.829 Y118.759 E0.01715
G1 X121.305 Y111.236 E0.33790
G1 X121.845 Y111.235 E0.01715
G1 X129.369 Y118.760 E0.33791
G1 X129.910 Y118.760 E0.01715
G1 X122.386 Y111.235 E0.33792
G1 X122.926 Y111.235 E0.01715
G1 X130.555 Y118.864 E0.34263
G1 X131.285 Y119.055 E0.02397
G1 X123.466 Y111.235 E0.35118
G1 X124.006 Y111.235 E0.01715
G1 X132.418 Y119.648 E0.37781
G1 E-3.50000 F3600.00000
G1 F7200.000
G1 X130.297 Y117.526 E-1.42500
G1 E-0.07500 F3600.00000
G1 X131.575 Y123.707 F9000.000
G1 E5.00000 F2400.00000
G1 F1200.000
G1 X131.685 Y123.678 E0.00064
G1 X131.882 Y123.624 E0.00168
G1 X132.141 Y123.547 E0.00296
G1 X132.183 Y123.523 E0.00063
G1 X132.347 Y123.287 E0.00369
G1 X132.388 Y122.858 F9000.000
G1 F1200.000
G1 X132.726 Y123.196 E0.01518
G1 X132.768 Y123.188 E0.00137
G1 X132.877 Y123.144 E0.00372
G1 X132.881 Y123.116 E0.00092
G1 X133.014 Y122.944 E0.00689
G1 X132.714 Y122.644 E0.01347
G1 X132.900 Y122.290 E0.01271
G1 X133.161 Y122.551 E0.01176
G1 X133.216 Y122.066 E0.01551
G1 X132.989 Y121.839 E0.01021
G1 X132.934 Y121.355 E0.01547
G1 X132.938 Y121.247 E0.00341
G1 X133.271 Y121.581 E0.01498
G1 X133.298 Y121.068 E0.01632
G1 X132.837 Y120.607 E0.02071
G1 X132.699 Y119.928 E0.02199
G1 X133.313 Y120.542 E0.02758
G1 X133.319 Y120.300 E0.00768
G1 X133.043 Y119.733 E0.02005
G1 X124.546 Y111.235 E0.38163
G1 X125.086 Y111.235 E0.01715
G1 X133.082 Y119.231 E0.35912
G1 X133.084 Y118.693 E0.01709
G1 X125.626 Y111.235 E0.33495
G1 X126.166 Y111.235 E0.01715
G1 X133.084 Y118.153 E0.31069
G1 X133.083 Y117.612 E0.01716
G1 X126.706 Y111.235 E0.28642
G1 X127.246 Y111.235 E0.01715
G1 X133.083 Y117.072 E0.26215
G1 X133.083 Y116.531 E0.01716
G1 X127.786 Y111.235 E0.23788
G1 X128.326 Y111.235 E0.01715
G1 X133.082 Y115.991 E0.21361
G1 X133.082 Y115.450 E0.01716
G1 X128.866 Y111.234 E0.18934
G1 X129.406 Y111.234 E0.01715
G1 X133.082 Y114.910 E0.16508
G1 X133.081 Y114.370 E0.01716
G1 X129.946 Y111.234 E0.14081
G1 X130.486 Y111.234 E0.01715
G1 X133.081 Y113.829 E0.11654
G1 X133.081 Y113.289 E0.01716
G1 X131.026 Y111.234 E0.09227
G1 X131.566 Y111.234 E0.01715
G1 X133.080 Y112.748 E0.06800
G1 X133.080 Y112.208 E0.01716
G1 X132.106 Y111.234 E0.04373
G1 X132.646 Y111.234 E0.01715
G1 X133.249 Y111.837 E0.02709
G1 E-3.50000 F3600.00000
G1 F7200.000
G1 X132.646 Y111.234 E-0.40523
G1 X132.106 Y111.234 E-0.25652
G1 X133.080 Y112.208 E-0.65416
G1 X133.080 Y112.437 E-0.10909
G1 E-0.07500 F3600.00000
G1 X108.694 Y123.919 F9000.000
G1 E5.00000 F2400.00000
G1 F1200.000
G1 X108.419 Y123.644 E0.01321
G1 X108.128 Y123.545 E0.01043
G1 X107.645 Y123.447 E0.01675
G1 X107.949 Y123.751 E0.01459
G1 X107.373 Y123.753 E0.01956
G1 X107.022 Y123.403 E0.01681
G1 X106.777 Y123.328 E0.00872
G1 X106.335 Y123.293 E0.01502
G1 X106.796 Y123.754 E0.02213
G1 X106.220 Y123.756 E0.01956
G1 X105.709 Y123.245 E0.02453
G1 X105.115 Y123.228 E0.02018
G1 X105.644 Y123.757 E0.02540
G1 X105.068 Y123.758 E0.01956
G1 X104.521 Y123.211 E0.02626
G1 X103.962 Y123.230 E0.01900
G1 X104.492 Y123.760 E0.02545
G1 X103.922 Y123.767 E0.01937
G1 X103.485 Y123.330 E0.02096
G1 X103.451 Y123.344 E0.00125
G1 X103.281 Y123.329 E0.00580
G1 X102.992 Y123.415 E0.01021
G1 X103.352 Y123.774 E0.01727
G1 X102.782 Y123.782 E0.01935
G1 X102.447 Y123.447 E0.01611
M106 S255
;BEFORE_LAYER_CHANGE
;0.4


G1 E-3.50000 F3600.00000
G1 F7200.000
G1 X102.782 Y123.782 E-0.22538
G1 X103.352 Y123.774 E-0.27069
