;FLAVOR:Marlin
;TIME:11629
;Filament used: 3.89055m
;Layer height: 0.2
;MINX:78.701
;MINY:78.701
;MINZ:0.2
;MAXX:156.299
;MAXY:156.299
;MAXZ:6.6
;Generated with Cura_SteamEngine 4.7.1
M140 S50
M105
M190 S50
M104 S200
M105
M109 S200
M82 ;absolute extrusion mode
; Ender 3 Custom Start G-code
G92 E0 ; Reset Extruder
G28 ; Home all axes
G1 Z2.0 F3000 ; Move Z Axis up little to prevent scratching of Heat Bed
G1 X0.1 Y20 Z0.3 F5000.0 ; Move to start position
G1 X0.1 Y200.0 Z0.3 F1500.0 E15 ; Draw the first line
G1 X0.4 Y200.0 Z0.3 F5000.0 ; Move to side a little
G1 X0.4 Y20 Z0.3 F1500.0 E30 ; Draw the second line
G92 E0 ; Reset Extruder
G1 Z2.0 F3000 ; Move Z Axis up little to prevent scratching of Heat Bed
G1 X5 Y20 Z0.3 F5000.0 ; Move over to prevent blob squish
G92 E0
G92 E0
G1 F2700 E-5
;LAYER_COUNT:32
;LAYER:0
M107
G1 F300 Z0.4
;MESH:77mm_filter_case.STL
G0 F6000 X118.982 Y155.204 Z0.4
;TYPE:WALL-INNER
G1 F300 Z0.2
G1 F2700 E0
G1 F1200 X118.83 Y155.053 E0.00713
G1 X118.436 Y154.659 E0.02566
G1 X118.302 Y154.546 E0.03149
G1 X118.12 Y154.435 E0.03858
G1 X117.908 Y154.348 E0.0462
G1 X117.699 Y154.303 E0.05331
G1 X117.49 Y154.288 E0.06028
G1 X117.272 Y154.306 E0.06756
G1 X117.058 Y154.36 E0.0749
G1 X116.857 Y154.448 E0.08219
G1 X116.683 Y154.558 E0.08904
G1 X116.559 Y154.663 E0.09445
G1 X116.17 Y155.052 E0.11274
G1 X116.018 Y155.204 E0.11989
G1 X115.879 Y155.041 E0.1244
G1 X115.516 Y154.616 E0.14299
G1 X115.389 Y154.493 E0.14887
G1 X115.211 Y154.363 E0.1562
G1 X115.021 Y154.273 E0.16319
G1 X114.82 Y154.205 E0.17025
G1 X114.595 Y154.174 E0.1778
G1 X114.39 Y154.175 E0.18462
G1 X114.162 Y154.211 E0.1923
G1 X113.961 Y154.286 E0.19943
G1 X113.788 Y154.373 E0.20587
G1 X113.646 Y154.475 E0.21169
G1 X113.228 Y154.833 E0.22999
G1 X113.065 Y154.972 E0.23712
G1 X112.939 Y154.799 E0.24163
G1 X112.613 Y154.351 E0.26005
G1 X112.496 Y154.214 E0.26605
G1 X112.327 Y154.071 E0.27341
G1 X112.139 Y153.96 E0.28067
G1 X111.933 Y153.877 E0.28806
G1 X111.731 Y153.836 E0.29491
G1 X111.52 Y153.816 E0.30196
G1 X111.296 Y153.839 E0.30945
G1 X111.088 Y153.891 E0.31658
G1 X110.901 Y153.972 E0.32336
G1 X110.761 Y154.055 E0.32877
G1 X110.312 Y154.381 E0.34723
G1 X110.138 Y154.507 E0.35437
G1 X110.026 Y154.324 E0.35888
G1 X109.734 Y153.849 E0.37743
G1 X109.624 Y153.702 E0.38354
G1 X109.477 Y153.559 E0.39036
G1 X109.294 Y153.424 E0.39792
G1 X109.101 Y153.334 E0.405
G1 X108.899 Y153.266 E0.41209
G1 X108.676 Y153.238 E0.41957
G1 X108.476 Y153.239 E0.42622
G1 X108.255 Y153.273 E0.43366
G1 X108.054 Y153.344 E0.44075
G1 X107.912 Y153.416 E0.44604
G1 X107.441 Y153.704 E0.4644
G1 X107.258 Y153.816 E0.47154
G1 X107.161 Y153.625 E0.47605
G1 X106.905 Y153.125 E0.49473
G1 X106.809 Y152.974 E0.50069
G1 X106.672 Y152.815 E0.50767
G1 X106.503 Y152.672 E0.51503
G1 X106.316 Y152.562 E0.52225
G1 X106.11 Y152.479 E0.52963
G1 X105.908 Y152.438 E0.53649
G1 X105.697 Y152.418 E0.54354
G1 X105.471 Y152.441 E0.55109
G1 X105.273 Y152.491 E0.55789
G1 X105.12 Y152.554 E0.56339
G1 X104.63 Y152.804 E0.58168
G1 X104.439 Y152.901 E0.58881
G1 X104.357 Y152.703 E0.59332
G1 X104.147 Y152.196 E0.61157
G1 X104.065 Y152.035 E0.61758
G1 X103.931 Y151.851 E0.62516
G1 X103.774 Y151.702 E0.63235
G1 X103.606 Y151.581 E0.63924
G1 X103.415 Y151.485 E0.64635
G1 X103.202 Y151.415 E0.65381
G1 X102.981 Y151.387 E0.66122
G1 X102.777 Y151.388 E0.668
G1 X102.57 Y151.422 E0.67498
G1 X102.408 Y151.474 E0.68064
G1 X101.901 Y151.684 E0.69889
G1 X101.703 Y151.766 E0.70602
G1 X101.637 Y151.562 E0.71053
G1 X101.463 Y151.028 E0.72921
G1 X101.391 Y150.864 E0.73517
G1 X101.283 Y150.69 E0.74198
G1 X101.138 Y150.52 E0.74941
G1 X100.967 Y150.38 E0.75676
G1 X100.786 Y150.272 E0.76377
G1 X100.583 Y150.192 E0.77103
G1 X100.387 Y150.146 E0.77773
G1 X100.162 Y150.126 E0.78524
G1 X99.937 Y150.149 E0.79276
G1 X99.78 Y150.19 E0.79816
G1 X99.266 Y150.357 E0.81614
G1 X99.062 Y150.423 E0.82327
G1 X99.012 Y150.214 E0.82778
G1 X98.881 Y149.666 E0.84652
G1 X98.822 Y149.494 E0.85257
G1 X98.725 Y149.31 E0.85949
G1 X98.598 Y149.138 E0.8666
G1 X98.444 Y148.987 E0.87378
G1 X98.268 Y148.86 E0.88099
G1 X98.078 Y148.766 E0.88804
G1 X97.866 Y148.696 E0.89547
G1 X97.645 Y148.668 E0.90288
G1 X97.449 Y148.669 E0.9094
G1 X97.283 Y148.694 E0.91498
G1 X96.747 Y148.823 E0.93332
G1 X96.538 Y148.873 E0.94047
G1 X96.505 Y148.661 E0.94498
G1 X96.439 Y148.246 E0.95895
G1 X96.415 Y148.107 E0.96364
G1 X96.371 Y147.929 E0.96974
G1 X96.283 Y147.733 E0.97689
G1 X96.177 Y147.563 E0.98355
G1 X96.034 Y147.393 E0.99094
G1 X95.861 Y147.251 E0.99838
G1 X95.68 Y147.143 E1.00539
G1 X95.478 Y147.063 E1.01262
G1 X95.282 Y147.017 E1.01932
G1 X95.062 Y146.997 E1.02666
G1 X94.886 Y147.014 E1.03255
G1 X94.351 Y147.099 E1.05056
G1 X94.139 Y147.132 E1.0577
G1 X94.123 Y146.918 E1.06221
G1 X94.08 Y146.371 E1.08046
G1 X94.051 Y146.183 E1.08679
G1 X93.976 Y145.973 E1.0942
G1 X93.88 Y145.789 E1.10111
G1 X93.755 Y145.622 E1.10804
G1 X93.605 Y145.47 E1.11515
G1 X93.417 Y145.335 E1.12284
G1 X93.222 Y145.243 E1.13002
G1 X93.03 Y145.182 E1.13672
G1 X92.818 Y145.148 E1.14386
G1 X92.646 Y145.148 E1.14958
G1 X92.101 Y145.192 E1.16776
G1 X91.887 Y145.208 E1.1749
G1 X91.887 Y144.994 E1.17941
G1 X91.887 Y144.993 E1.17944
G1 X91.887 Y144.432 E1.1981
G1 X91.869 Y144.251 E1.20415
G1 X91.817 Y144.043 E1.21128
G1 X91.731 Y143.847 E1.2184
G1 X91.623 Y143.672 E1.22524
G1 X91.479 Y143.504 E1.2326
G1 X91.308 Y143.362 E1.23999
G1 X91.128 Y143.255 E1.24696
G1 X90.921 Y143.17 E1.2544
G1 X90.719 Y143.128 E1.26126
G1 X90.562 Y143.113 E1.26651
G1 X90.007 Y143.113 E1.28497
G1 X90.006 Y143.113 E1.285
G1 X89.792 Y143.113 E1.29212
G1 X89.808 Y142.899 E1.29664
G1 X89.852 Y142.343 E1.31519
G1 X89.851 Y142.157 E1.32137
G1 X89.811 Y141.944 E1.32858
G1 X89.747 Y141.751 E1.33535
G1 X89.649 Y141.558 E1.34254
G1 X89.511 Y141.374 E1.35019
G1 X89.36 Y141.23 E1.35713
G1 X89.192 Y141.108 E1.36404
G1 X88.998 Y141.011 E1.37125
G1 X88.794 Y140.945 E1.37839
G1 X88.625 Y140.919 E1.38407
G1 X88.081 Y140.876 E1.40222
G1 X87.867 Y140.86 E1.40936
G1 X87.9 Y140.648 E1.41387
G1 X87.962 Y140.251 E1.42723
G1 X87.986 Y140.113 E1.43189
G1 X88.003 Y139.92 E1.43834
G1 X87.98 Y139.694 E1.44589
G1 X87.928 Y139.491 E1.45286
G1 X87.845 Y139.297 E1.45988
G1 X87.732 Y139.115 E1.46701
G1 X87.586 Y138.946 E1.47443
G1 X87.424 Y138.814 E1.48138
G1 X87.249 Y138.705 E1.48824
G1 X87.045 Y138.622 E1.49557
G1 X86.88 Y138.582 E1.50121
G1 X86.339 Y138.496 E1.51943
G1 X86.127 Y138.463 E1.52657
G1 X86.177 Y138.254 E1.53109
G1 X86.309 Y137.706 E1.54983
G1 X86.332 Y137.525 E1.5559
G1 X86.331 Y137.325 E1.56256
G1 X86.297 Y137.103 E1.57003
G1 X86.223 Y136.897 E1.57731
G1 X86.129 Y136.713 E1.58418
G1 X85.993 Y136.53 E1.59176
G1 X85.839 Y136.384 E1.59882
G1 X85.668 Y136.261 E1.60582
G1 X85.479 Y136.168 E1.61283
G1 X85.323 Y136.116 E1.6183
G1 X84.786 Y135.987 E1.63667
G1 X84.577 Y135.937 E1.64382
G1 X84.643 Y135.733 E1.64832
G1 X84.816 Y135.202 E1.6669
G1 X84.854 Y135.036 E1.67256
G1 X84.874 Y134.816 E1.67991
G1 X84.851 Y134.588 E1.68753
G1 X84.799 Y134.385 E1.6945
G1 X84.716 Y134.191 E1.70152
G1 X84.603 Y134.009 E1.70864
G1 X84.455 Y133.838 E1.71617
G1 X84.299 Y133.713 E1.72282
G1 X84.128 Y133.601 E1.72961
G1 X83.954 Y133.532 E1.73584
G1 X83.437 Y133.364 E1.75392
G1 X83.233 Y133.298 E1.76105
G1 X83.315 Y133.1 E1.76557
G1 X83.527 Y132.589 E1.78397
G1 X83.585 Y132.409 E1.79026
G1 X83.613 Y132.19 E1.7976
G1 X83.612 Y131.989 E1.80428
G1 X83.578 Y131.768 E1.81172
G1 X83.503 Y131.558 E1.81914
G1 X83.407 Y131.375 E1.82601
G1 X83.281 Y131.204 E1.83308
G1 X83.128 Y131.052 E1.84025
G1 X82.944 Y130.921 E1.84776
G1 X82.792 Y130.849 E1.85336
G1 X82.297 Y130.644 E1.87118
G1 X82.099 Y130.562 E1.8783
G1 X82.196 Y130.371 E1.88281
G1 X82.448 Y129.874 E1.90135
G1 X82.52 Y129.697 E1.9077
G1 X82.562 Y129.494 E1.9146
G1 X82.582 Y129.283 E1.92165
G1 X82.559 Y129.058 E1.92917
G1 X82.507 Y128.854 E1.93617
G1 X82.424 Y128.658 E1.94325
G1 X82.311 Y128.476 E1.95038
G1 X82.168 Y128.312 E1.95761
G1 X82.009 Y128.178 E1.96453
G1 X81.866 Y128.088 E1.97015
G1 X81.375 Y127.838 E1.98848
G1 X81.184 Y127.741 E1.9956
G1 X81.296 Y127.558 E2.00012
G1 X81.591 Y127.076 E2.01891
G1 X81.654 Y126.942 E2.02384
G1 X81.665 Y126.92 E2.02466
G1 X81.734 Y126.717 E2.03179
G1 X81.762 Y126.494 E2.03926
G1 X81.761 Y126.293 E2.04595
G1 X81.725 Y126.069 E2.0535
G1 X81.655 Y125.873 E2.06042
G1 X81.562 Y125.685 E2.06739
G1 X81.423 Y125.501 E2.07506
G1 X81.275 Y125.357 E2.08193
G1 X81.141 Y125.26 E2.08743
G1 X80.675 Y124.973 E2.10564
G1 X80.492 Y124.861 E2.11277
G1 X80.618 Y124.687 E2.11729
G1 X80.945 Y124.237 E2.13579
G1 X81.038 Y124.082 E2.1418
G1 X81.122 Y123.873 E2.14929
G1 X81.164 Y123.671 E2.15616
G1 X81.184 Y123.46 E2.16321
G1 X81.161 Y123.235 E2.17073
G1 X81.109 Y123.031 E2.17773
G1 X81.026 Y122.835 E2.18481
G1 X80.911 Y122.651 E2.19203
G1 X80.772 Y122.492 E2.19905
G1 X80.646 Y122.384 E2.20457
G1 X80.202 Y122.061 E2.22283
G1 X80.029 Y121.935 E2.22995
G1 X80.168 Y121.772 E2.23446
G1 X80.527 Y121.353 E2.25281
G1 X80.639 Y121.197 E2.2592
G1 X80.728 Y121.009 E2.26612
G1 X80.796 Y120.805 E2.27327
G1 X80.826 Y120.58 E2.28082
G1 X80.825 Y120.379 E2.28751
G1 X80.789 Y120.15 E2.29522
G1 X80.714 Y119.948 E2.30238
G1 X80.625 Y119.77 E2.309
G1 X80.495 Y119.595 E2.31625
G1 X80.376 Y119.476 E2.32185
G1 X79.959 Y119.121 E2.34006
G1 X79.796 Y118.982 E2.34719
G1 X79.947 Y118.83 E2.3517
G1 X80.341 Y118.436 E2.37023
G1 X80.454 Y118.302 E2.37606
G1 X80.565 Y118.12 E2.38316
G1 X80.652 Y117.908 E2.39078
G1 X80.697 Y117.699 E2.39789
G1 X80.712 Y117.49 E2.40486
G1 X80.694 Y117.272 E2.41213
G1 X80.64 Y117.058 E2.41947
G1 X80.552 Y116.857 E2.42677
G1 X80.442 Y116.683 E2.43362
G1 X80.337 Y116.559 E2.43902
G1 X79.948 Y116.17 E2.45732
G1 X79.796 Y116.018 E2.46447
G1 X79.959 Y115.879 E2.46897
G1 X80.384 Y115.516 E2.48756
G1 X80.507 Y115.389 E2.49344
G1 X80.637 Y115.211 E2.50077
G1 X80.727 Y115.021 E2.50777
G1 X80.795 Y114.82 E2.51482
G1 X80.826 Y114.595 E2.52238
G1 X80.825 Y114.39 E2.5292
G1 X80.789 Y114.162 E2.53687
G1 X80.714 Y113.961 E2.54401
G1 X80.627 Y113.788 E2.55045
G1 X80.525 Y113.646 E2.55626
G1 X80.167 Y113.227 E2.57459
G1 X80.028 Y113.064 E2.58172
G1 X80.202 Y112.938 E2.58624
G1 X80.649 Y112.613 E2.60462
G1 X80.786 Y112.496 E2.61061
G1 X80.929 Y112.327 E2.61797
G1 X81.04 Y112.139 E2.62523
G1 X81.123 Y111.933 E2.63262
G1 X81.164 Y111.731 E2.63948
G1 X81.184 Y111.52 E2.64653
G1 X81.161 Y111.296 E2.65401
G1 X81.109 Y111.088 E2.66115
G1 X81.028 Y110.901 E2.66792
G1 X80.945 Y110.761 E2.67334
G1 X80.619 Y110.312 E2.69179
G1 X80.493 Y110.138 E2.69894
G1 X80.676 Y110.026 E2.70345
G1 X81.151 Y109.734 E2.72199
G1 X81.298 Y109.624 E2.7281
G1 X81.441 Y109.477 E2.73492
G1 X81.576 Y109.294 E2.74248
G1 X81.666 Y109.101 E2.74957
G1 X81.734 Y108.899 E2.75666
G1 X81.762 Y108.676 E2.76413
G1 X81.761 Y108.476 E2.77078
G1 X81.727 Y108.255 E2.77822
G1 X81.656 Y108.054 E2.78531
G1 X81.584 Y107.912 E2.79061
G1 X81.296 Y107.441 E2.80897
G1 X81.184 Y107.258 E2.8161
G1 X81.375 Y107.161 E2.82061
G1 X81.875 Y106.905 E2.8393
G1 X82.026 Y106.809 E2.84525
G1 X82.185 Y106.672 E2.85223
G1 X82.328 Y106.503 E2.85959
G1 X82.438 Y106.316 E2.86681
G1 X82.521 Y106.11 E2.8742
G1 X82.562 Y105.908 E2.88105
G1 X82.582 Y105.697 E2.8881
G1 X82.559 Y105.471 E2.89566
G1 X82.509 Y105.273 E2.90245
G1 X82.446 Y105.12 E2.90795
G1 X82.196 Y104.63 E2.92625
G1 X82.099 Y104.439 E2.93337
G1 X82.297 Y104.357 E2.93789
G1 X82.804 Y104.147 E2.95614
G1 X82.965 Y104.065 E2.96215
G1 X83.149 Y103.931 E2.96972
G1 X83.298 Y103.774 E2.97692
G1 X83.419 Y103.606 E2.9838
G1 X83.515 Y103.415 E2.99091
G1 X83.585 Y103.202 E2.99837
G1 X83.613 Y102.981 E3.00578
G1 X83.612 Y102.777 E3.01257
G1 X83.578 Y102.57 E3.01954
G1 X83.526 Y102.408 E3.0252
G1 X83.315 Y101.902 E3.04344
G1 X83.233 Y101.703 E3.05059
G1 X83.438 Y101.637 E3.05513
G1 X83.972 Y101.463 E3.07381
G1 X84.136 Y101.391 E3.07976
G1 X84.31 Y101.283 E3.08657
G1 X84.48 Y101.138 E3.09401
G1 X84.62 Y100.967 E3.10136
G1 X84.728 Y100.786 E3.10837
G1 X84.808 Y100.583 E3.11562
G1 X84.854 Y100.387 E3.12232
G1 X84.874 Y100.162 E3.12983
G1 X84.851 Y99.937 E3.13736
G1 X84.81 Y99.78 E3.14275
G1 X84.643 Y99.267 E3.1607
G1 X84.577 Y99.063 E3.16783
G1 X84.786 Y99.013 E3.17234
G1 X85.334 Y98.881 E3.19109
G1 X85.506 Y98.822 E3.19714
G1 X85.69 Y98.725 E3.20406
G1 X85.862 Y98.598 E3.21117
G1 X86.013 Y98.444 E3.21834
G1 X86.14 Y98.268 E3.22556
G1 X86.234 Y98.078 E3.23261
G1 X86.304 Y97.866 E3.24004
G1 X86.332 Y97.645 E3.24745
G1 X86.331 Y97.449 E3.25397
G1 X86.306 Y97.283 E3.25955
G1 X86.177 Y96.747 E3.27789
G1 X86.127 Y96.537 E3.28507
G1 X86.34 Y96.504 E3.28959
G1 X86.754 Y96.439 E3.30353
G1 X86.893 Y96.415 E3.30822
G1 X87.071 Y96.371 E3.31432
G1 X87.267 Y96.283 E3.32147
G1 X87.437 Y96.177 E3.32813
G1 X87.607 Y96.034 E3.33552
G1 X87.749 Y95.861 E3.34296
G1 X87.857 Y95.68 E3.34997
G1 X87.937 Y95.478 E3.3572
G1 X87.983 Y95.282 E3.3639
G1 X88.003 Y95.062 E3.37124
G1 X87.986 Y94.886 E3.37712
G1 X87.901 Y94.351 E3.39514
G1 X87.868 Y94.139 E3.40228
G1 X88.082 Y94.123 E3.40679
G1 X88.629 Y94.08 E3.42504
G1 X88.817 Y94.051 E3.43136
G1 X89.027 Y93.976 E3.43878
G1 X89.211 Y93.88 E3.44568
G1 X89.378 Y93.755 E3.45262
G1 X89.53 Y93.605 E3.45973
G1 X89.665 Y93.417 E3.46742
G1 X89.757 Y93.222 E3.47459
G1 X89.818 Y93.03 E3.48129
G1 X89.852 Y92.818 E3.48844
G1 X89.852 Y92.646 E3.49416
G1 X89.808 Y92.101 E3.51234
G1 X89.792 Y91.887 E3.51948
G1 X90.006 Y91.887 E3.52399
G1 X90.007 Y91.887 E3.52402
G1 X90.568 Y91.887 E3.54268
G1 X90.749 Y91.869 E3.54873
G1 X90.957 Y91.817 E3.55586
G1 X91.153 Y91.731 E3.56298
G1 X91.328 Y91.623 E3.56982
G1 X91.496 Y91.479 E3.57718
G1 X91.638 Y91.308 E3.58457
G1 X91.745 Y91.128 E3.59154
G1 X91.83 Y90.921 E3.59898
G1 X91.872 Y90.719 E3.60584
G1 X91.887 Y90.562 E3.61109
G1 X91.887 Y90.007 E3.62955
G1 X91.887 Y90.006 E3.62958
G1 X91.887 Y89.792 E3.6367
G1 X92.101 Y89.808 E3.64122
G1 X92.657 Y89.852 E3.65977
G1 X92.843 Y89.851 E3.66595
G1 X93.056 Y89.811 E3.67316
G1 X93.249 Y89.747 E3.67992
G1 X93.442 Y89.649 E3.68712
G1 X93.626 Y89.511 E3.69477
G1 X93.77 Y89.36 E3.70171
G1 X93.892 Y89.192 E3.70862
G1 X93.989 Y88.998 E3.71583
G1 X94.055 Y88.794 E3.72296
G1 X94.081 Y88.625 E3.72865
G1 X94.124 Y88.081 E3.7468
G1 X94.14 Y87.867 E3.75394
G1 X94.352 Y87.9 E3.75845
G1 X94.749 Y87.962 E3.77181
G1 X94.887 Y87.986 E3.77647
G1 X95.08 Y88.003 E3.78292
G1 X95.306 Y87.98 E3.79047
G1 X95.509 Y87.928 E3.79744
G1 X95.703 Y87.845 E3.80446
G1 X95.885 Y87.732 E3.81158
G1 X96.054 Y87.586 E3.81901
G1 X96.186 Y87.424 E3.82596
G1 X96.295 Y87.249 E3.83282
G1 X96.378 Y87.045 E3.84015
G1 X96.418 Y86.88 E3.84579
G1 X96.504 Y86.339 E3.86401
G1 X96.537 Y86.127 E3.87115
G1 X96.746 Y86.177 E3.87567
G1 X97.294 Y86.309 E3.89441
G1 X97.475 Y86.332 E3.90048
G1 X97.675 Y86.331 E3.90713
G1 X97.897 Y86.297 E3.9146
G1 X98.103 Y86.223 E3.92188
G1 X98.287 Y86.129 E3.92876
G1 X98.47 Y85.993 E3.93634
G1 X98.616 Y85.839 E3.9434
G1 X98.739 Y85.668 E3.9504
G1 X98.832 Y85.479 E3.95741
G1 X98.884 Y85.323 E3.96288
G1 X99.012 Y84.787 E3.98121
G1 X99.062 Y84.577 E3.98839
G1 X99.267 Y84.643 E3.99292
G1 X99.798 Y84.816 E4.01149
G1 X99.964 Y84.854 E4.01716
G1 X100.184 Y84.874 E4.0245
G1 X100.412 Y84.851 E4.03213
G1 X100.615 Y84.799 E4.0391
G1 X100.809 Y84.716 E4.04611
G1 X100.991 Y84.603 E4.05324
G1 X101.162 Y84.455 E4.06076
G1 X101.287 Y84.299 E4.06741
G1 X101.399 Y84.128 E4.07421
G1 X101.468 Y83.954 E4.08043
G1 X101.636 Y83.437 E4.09852
G1 X101.702 Y83.233 E4.10565
G1 X101.9 Y83.315 E4.11016
G1 X102.411 Y83.527 E4.12856
G1 X102.591 Y83.585 E4.13485
G1 X102.81 Y83.613 E4.14219
G1 X103.011 Y83.612 E4.14888
G1 X103.232 Y83.578 E4.15632
G1 X103.442 Y83.503 E4.16373
G1 X103.625 Y83.407 E4.17061
G1 X103.796 Y83.281 E4.17767
G1 X103.948 Y83.128 E4.18484
G1 X104.079 Y82.944 E4.19236
G1 X104.151 Y82.792 E4.19795
G1 X104.356 Y82.297 E4.21577
G1 X104.438 Y82.099 E4.2229
G1 X104.629 Y82.196 E4.22741
G1 X105.126 Y82.448 E4.24594
G1 X105.303 Y82.52 E4.2523
G1 X105.506 Y82.562 E4.25919
G1 X105.717 Y82.582 E4.26624
G1 X105.942 Y82.559 E4.27377
G1 X106.146 Y82.507 E4.28077
G1 X106.342 Y82.424 E4.28785
G1 X106.524 Y82.311 E4.29497
G1 X106.688 Y82.168 E4.30221
G1 X106.822 Y82.009 E4.30913
