;FLAVOR:Marlin
;TIME:11104
;Filament used: 3.76046m
;Layer height: 0.2
;MINX:78.701
;MINY:78.701
;MINZ:0.2
;MAXX:156.299
;MAXY:156.299
;MAXZ:7.2
;Generated with Cura_SteamEngine 4.7.1
M140 S50
M105
M190 S50
M104 S200
M105
M109 S200
M82 ;absolute extrusion mode
; Ender 3 Custom Start G-code
G92 E0 ; Reset Extruder
G28 ; Home all axes
G1 Z2.0 F3000 ; Move Z Axis up little to prevent scratching of Heat Bed
G1 X0.1 Y20 Z0.3 F5000.0 ; Move to start position
G1 X0.1 Y200.0 Z0.3 F1500.0 E15 ; Draw the first line
G1 X0.4 Y200.0 Z0.3 F5000.0 ; Move to side a little
G1 X0.4 Y20 Z0.3 F1500.0 E30 ; Draw the second line
G92 E0 ; Reset Extruder
G1 Z2.0 F3000 ; Move Z Axis up little to prevent scratching of Heat Bed
G1 X5 Y20 Z0.3 F5000.0 ; Move over to prevent blob squish
G92 E0
G92 E0
G1 F2700 E-5
;LAYER_COUNT:35
;LAYER:0
M107
G1 F300 Z0.4
;MESH:77mm_filter_case_cap.STL
G0 F6000 X118.981 Y155.204 Z0.4
;TYPE:WALL-INNER
G1 F300 Z0.2
G1 F2700 E0
G1 F1200 X118.829 Y155.052 E0.00715
G1 X118.436 Y154.659 E0.02564
G1 X118.281 Y154.529 E0.03236
G1 X118.071 Y154.411 E0.04038
G1 X117.844 Y154.331 E0.04838
G1 X117.608 Y154.292 E0.05634
G1 X117.363 Y154.293 E0.06449
G1 X117.129 Y154.34 E0.07242
G1 X116.913 Y154.419 E0.08007
G1 X116.709 Y154.536 E0.08789
G1 X116.559 Y154.663 E0.09443
G1 X116.17 Y155.052 E0.11273
G1 X116.018 Y155.204 E0.11988
G1 X115.879 Y155.041 E0.12438
G1 X115.52 Y154.621 E0.14276
G1 X115.376 Y154.478 E0.14951
G1 X115.163 Y154.338 E0.15799
G1 X114.948 Y154.244 E0.16579
G1 X114.728 Y154.189 E0.17333
G1 X114.482 Y154.168 E0.18155
G1 X114.234 Y154.198 E0.18985
G1 X114.004 Y154.264 E0.19781
G1 X113.798 Y154.368 E0.20549
G1 X113.649 Y154.473 E0.21155
G1 X113.227 Y154.833 E0.23
G1 X113.064 Y154.972 E0.23712
G1 X112.938 Y154.798 E0.24164
G1 X112.613 Y154.352 E0.26
G1 X112.478 Y154.194 E0.26691
G1 X112.287 Y154.046 E0.27494
G1 X112.089 Y153.936 E0.28248
G1 X111.848 Y153.854 E0.29094
G1 X111.607 Y153.82 E0.29904
G1 X111.376 Y153.827 E0.30673
G1 X111.145 Y153.871 E0.31455
G1 X110.92 Y153.961 E0.32261
G1 X110.76 Y154.057 E0.32881
G1 X110.312 Y154.382 E0.34722
G1 X110.138 Y154.508 E0.35437
G1 X110.026 Y154.325 E0.35888
G1 X109.736 Y153.854 E0.37727
G1 X109.619 Y153.694 E0.38387
G1 X109.443 Y153.528 E0.39191
G1 X109.234 Y153.393 E0.40019
G1 X109.012 Y153.3 E0.40819
G1 X108.785 Y153.248 E0.41594
G1 X108.544 Y153.232 E0.42397
G1 X108.304 Y153.264 E0.43203
G1 X108.079 Y153.331 E0.43983
G1 X107.909 Y153.418 E0.44619
G1 X107.443 Y153.704 E0.46437
G1 X107.259 Y153.817 E0.47155
G1 X107.162 Y153.625 E0.47607
G1 X106.902 Y153.115 E0.49511
G1 X106.793 Y152.953 E0.5016
G1 X106.639 Y152.781 E0.50928
G1 X106.432 Y152.626 E0.51788
G1 X106.229 Y152.525 E0.52543
G1 X106.01 Y152.452 E0.5331
G1 X105.76 Y152.421 E0.54148
G1 X105.53 Y152.432 E0.54914
G1 X105.305 Y152.479 E0.55679
G1 X105.121 Y152.554 E0.5634
G1 X104.631 Y152.804 E0.58169
G1 X104.44 Y152.901 E0.58882
G1 X104.358 Y152.703 E0.59333
G1 X104.148 Y152.199 E0.61149
G1 X104.06 Y152.02 E0.61812
G1 X103.898 Y151.817 E0.62676
G1 X103.727 Y151.663 E0.63442
G1 X103.519 Y151.531 E0.64261
G1 X103.293 Y151.44 E0.65071
G1 X103.067 Y151.394 E0.65838
G1 X102.831 Y151.381 E0.66624
G1 X102.586 Y151.418 E0.67449
G1 X102.411 Y151.474 E0.6806
G1 X101.899 Y151.685 E0.69902
G1 X101.701 Y151.767 E0.70614
G1 X101.635 Y151.563 E0.71066
G1 X101.464 Y151.037 E0.72906
G1 X101.384 Y150.845 E0.73597
G1 X101.246 Y150.643 E0.74411
G1 X101.08 Y150.469 E0.75211
G1 X100.886 Y150.328 E0.76009
G1 X100.681 Y150.225 E0.76772
G1 X100.448 Y150.154 E0.77582
G1 X100.207 Y150.129 E0.78388
G1 X99.971 Y150.143 E0.79174
G1 X99.788 Y150.187 E0.798
G1 X99.267 Y150.357 E0.81623
G1 X99.062 Y150.423 E0.82339
G1 X99.012 Y150.213 E0.82793
G1 X98.881 Y149.664 E0.8467
G1 X98.814 Y149.476 E0.85334
G1 X98.706 Y149.279 E0.86081
G1 X98.554 Y149.087 E0.86896
G1 X98.374 Y148.93 E0.8769
G1 X98.157 Y148.799 E0.88533
G1 X98.122 Y148.787 E0.88656
G1 X97.925 Y148.713 E0.89356
G1 X97.708 Y148.675 E0.90089
G1 X97.477 Y148.665 E0.90858
G1 X97.276 Y148.698 E0.91536
G1 X96.746 Y148.825 E0.93348
G1 X96.537 Y148.875 E0.94063
G1 X96.504 Y148.663 E0.94514
G1 X96.438 Y148.245 E0.95922
G1 X96.412 Y148.095 E0.96428
G1 X96.365 Y147.922 E0.97024
G1 X96.267 Y147.692 E0.97856
G1 X96.122 Y147.494 E0.98672
G1 X95.961 Y147.326 E0.99446
G1 X95.76 Y147.187 E1.00259
G1 X95.56 Y147.091 E1.00997
G1 X95.326 Y147.021 E1.01809
G1 X95.08 Y147 E1.0263
G1 X94.898 Y147.012 E1.03237
G1 X94.351 Y147.099 E1.05079
G1 X94.139 Y147.132 E1.05793
G1 X94.123 Y146.918 E1.06244
G1 X94.078 Y146.36 E1.08106
G1 X94.044 Y146.165 E1.08764
G1 X93.962 Y145.938 E1.09567
G1 X93.842 Y145.73 E1.10365
G1 X93.68 Y145.539 E1.11198
G1 X93.502 Y145.393 E1.11964
G1 X93.3 Y145.274 E1.12744
G1 X93.07 Y145.19 E1.13558
G1 X92.84 Y145.149 E1.14335
G1 X92.653 Y145.148 E1.14957
G1 X92.101 Y145.192 E1.16799
G1 X91.887 Y145.208 E1.17513
G1 X91.887 Y144.994 E1.17964
G1 X91.887 Y144.993 E1.17967
G1 X91.887 Y144.427 E1.19849
G1 X91.865 Y144.224 E1.20529
G1 X91.802 Y144.007 E1.2128
G1 X91.702 Y143.785 E1.2209
G1 X91.559 Y143.592 E1.22889
G1 X91.398 Y143.429 E1.23651
G1 X91.185 Y143.283 E1.2451
G1 X90.965 Y143.187 E1.25308
G1 X90.748 Y143.131 E1.26053
G1 X90.718 Y143.129 E1.26153
G1 X90.562 Y143.113 E1.26675
G1 X90.007 Y143.113 E1.28521
G1 X90.006 Y143.113 E1.28524
G1 X89.792 Y143.113 E1.29236
G1 X89.809 Y142.899 E1.29688
G1 X89.854 Y142.333 E1.31577
G1 X89.847 Y142.137 E1.32229
G1 X89.806 Y141.913 E1.32986
G1 X89.714 Y141.674 E1.33838
G1 X89.59 Y141.475 E1.34618
G1 X89.439 Y141.297 E1.35394
G1 X89.254 Y141.148 E1.36184
G1 X89.05 Y141.031 E1.36967
G1 X88.814 Y140.951 E1.37795
G1 X88.63 Y140.921 E1.38415
G1 X88.08 Y140.877 E1.40251
G1 X87.867 Y140.86 E1.40961
G1 X87.899 Y140.649 E1.41411
G1 X87.962 Y140.25 E1.42755
G1 X87.988 Y140.102 E1.43255
G1 X88 Y139.898 E1.43934
G1 X87.975 Y139.658 E1.44737
G1 X87.904 Y139.422 E1.45556
G1 X87.797 Y139.212 E1.4634
G1 X87.654 Y139.019 E1.47139
G1 X87.491 Y138.865 E1.47885
G1 X87.281 Y138.719 E1.48736
G1 X87.057 Y138.627 E1.49541
G1 X86.901 Y138.589 E1.50075
G1 X86.884 Y138.584 E1.50134
G1 X86.125 Y138.464 E1.5269
G1 X86.306 Y137.71 E1.55269
G1 X86.308 Y137.691 E1.55333
G1 X86.335 Y137.505 E1.55958
G1 X86.324 Y137.269 E1.56743
G1 X86.28 Y137.053 E1.57477
G1 X86.187 Y136.814 E1.5833
G1 X86.059 Y136.614 E1.59119
G1 X85.898 Y136.429 E1.59935
G1 X85.695 Y136.278 E1.60777
G1 X85.502 Y136.177 E1.61501
G1 X85.327 Y136.116 E1.62117
G1 X84.787 Y135.987 E1.63964
G1 X84.577 Y135.937 E1.64682
G1 X84.643 Y135.732 E1.65135
G1 X84.816 Y135.203 E1.66986
G1 X84.86 Y135.011 E1.67641
G1 X84.871 Y134.773 E1.68434
G1 X84.839 Y134.522 E1.69275
G1 X84.766 Y134.299 E1.70056
G1 X84.664 Y134.096 E1.70812
G1 X84.515 Y133.901 E1.71628
G1 X84.339 Y133.737 E1.72428
G1 X84.13 Y133.605 E1.7325
G1 X83.972 Y133.54 E1.73818
G1 X83.957 Y133.533 E1.73873
G1 X83.437 Y133.364 E1.75692
G1 X83.233 Y133.298 E1.76405
G1 X83.315 Y133.1 E1.76856
G1 X83.529 Y132.581 E1.78724
G1 X83.586 Y132.393 E1.79377
G1 X83.619 Y132.151 E1.80189
G1 X83.603 Y131.909 E1.80996
G1 X83.552 Y131.686 E1.81757
G1 X83.455 Y131.456 E1.82587
G1 X83.325 Y131.258 E1.83375
G1 X83.165 Y131.083 E1.84164
G1 X82.972 Y130.938 E1.84966
G1 X82.806 Y130.852 E1.85588
G1 X82.298 Y130.641 E1.87418
G1 X82.1 Y130.559 E1.88131
G1 X82.197 Y130.368 E1.88582
G1 X82.45 Y129.872 E1.90434
G1 X82.527 Y129.678 E1.91128
G1 X82.571 Y129.443 E1.91923
G1 X82.578 Y129.219 E1.92668
G1 X82.543 Y128.97 E1.93505
G1 X82.467 Y128.751 E1.94276
G1 X82.362 Y128.545 E1.95045
G1 X82.202 Y128.345 E1.95897
G1 X82.033 Y128.196 E1.96646
G1 X81.872 Y128.092 E1.97284
G1 X81.375 Y127.839 E1.99138
G1 X81.184 Y127.742 E1.99851
G1 X81.296 Y127.559 E2.00303
G1 X81.591 Y127.078 E2.0218
G1 X81.676 Y126.9 E2.02836
G1 X81.741 Y126.677 E2.03608
G1 X81.768 Y126.428 E2.04441
G1 X81.748 Y126.186 E2.05249
G1 X81.692 Y125.964 E2.0601
G1 X81.594 Y125.737 E2.06833
G1 X81.457 Y125.54 E2.07631
G1 X81.297 Y125.372 E2.08402
G1 X81.143 Y125.26 E2.09036
G1 X80.676 Y124.973 E2.10859
G1 X80.493 Y124.861 E2.11572
G1 X80.619 Y124.687 E2.12024
G1 X80.945 Y124.237 E2.13872
G1 X81.051 Y124.061 E2.14556
G1 X81.133 Y123.833 E2.15361
G1 X81.138 Y123.802 E2.15466
G1 X81.177 Y123.597 E2.1616
G1 X81.177 Y123.363 E2.16938
G1 X81.14 Y123.125 E2.17739
G1 X81.056 Y122.896 E2.18551
G1 X80.945 Y122.697 E2.19309
G1 X80.786 Y122.503 E2.20143
G1 X80.643 Y122.382 E2.20766
G1 X80.201 Y122.061 E2.22583
G1 X80.028 Y121.935 E2.23295
G1 X80.167 Y121.772 E2.23746
G1 X80.53 Y121.346 E2.25607
G1 X80.647 Y121.181 E2.2628
G1 X80.75 Y120.957 E2.271
G1 X80.758 Y120.923 E2.27216
G1 X80.807 Y120.737 E2.27856
G1 X80.832 Y120.493 E2.28672
G1 X80.805 Y120.246 E2.29498
G1 X80.748 Y120.026 E2.30254
G1 X80.646 Y119.809 E2.31052
G1 X80.51 Y119.61 E2.31853
G1 X80.376 Y119.476 E2.32483
G1 X79.959 Y119.12 E2.34307
G1 X79.796 Y118.981 E2.3502
G1 X79.948 Y118.829 E2.35471
G1 X80.341 Y118.436 E2.3732
G1 X80.471 Y118.281 E2.37993
G1 X80.589 Y118.071 E2.38794
G1 X80.669 Y117.844 E2.39595
G1 X80.708 Y117.608 E2.4039
G1 X80.707 Y117.363 E2.41205
G1 X80.66 Y117.129 E2.41999
G1 X80.581 Y116.913 E2.42764
G1 X80.464 Y116.709 E2.43546
G1 X80.337 Y116.559 E2.442
G1 X79.948 Y116.17 E2.46029
G1 X79.796 Y116.018 E2.46744
G1 X79.959 Y115.879 E2.47195
G1 X80.379 Y115.52 E2.49032
G1 X80.522 Y115.376 E2.49707
G1 X80.662 Y115.163 E2.50555
G1 X80.756 Y114.948 E2.51336
G1 X80.811 Y114.728 E2.5209
G1 X80.832 Y114.482 E2.52911
G1 X80.802 Y114.234 E2.53742
G1 X80.736 Y114.004 E2.54538
G1 X80.632 Y113.798 E2.55305
G1 X80.527 Y113.649 E2.55912
G1 X80.167 Y113.227 E2.57756
G1 X80.028 Y113.064 E2.58469
G1 X80.202 Y112.938 E2.58921
G1 X80.648 Y112.613 E2.60756
G1 X80.806 Y112.478 E2.61447
G1 X80.954 Y112.287 E2.62251
G1 X81.064 Y112.089 E2.63004
G1 X81.146 Y111.848 E2.63851
G1 X81.18 Y111.607 E2.6466
G1 X81.173 Y111.376 E2.65429
G1 X81.129 Y111.145 E2.66211
G1 X81.039 Y110.92 E2.67017
G1 X80.943 Y110.76 E2.67638
G1 X80.618 Y110.312 E2.69479
G1 X80.492 Y110.138 E2.70193
G1 X80.675 Y110.026 E2.70644
G1 X81.146 Y109.736 E2.72484
G1 X81.306 Y109.619 E2.73143
G1 X81.472 Y109.443 E2.73948
G1 X81.607 Y109.234 E2.74775
G1 X81.7 Y109.012 E2.75576
G1 X81.752 Y108.785 E2.76351
G1 X81.768 Y108.544 E2.77154
G1 X81.736 Y108.304 E2.77959
G1 X81.669 Y108.079 E2.7874
G1 X81.582 Y107.909 E2.79375
G1 X81.296 Y107.443 E2.81194
G1 X81.183 Y107.259 E2.81912
G1 X81.375 Y107.162 E2.82364
G1 X81.885 Y106.902 E2.84268
G1 X82.047 Y106.793 E2.84917
G1 X82.219 Y106.639 E2.85685
G1 X82.374 Y106.432 E2.86545
G1 X82.475 Y106.229 E2.87299
G1 X82.548 Y106.01 E2.88067
G1 X82.579 Y105.76 E2.88905
G1 X82.568 Y105.53 E2.89671
G1 X82.521 Y105.305 E2.90435
G1 X82.446 Y105.121 E2.91096
G1 X82.196 Y104.631 E2.92926
G1 X82.099 Y104.44 E2.93638
G1 X82.297 Y104.358 E2.94089
G1 X82.801 Y104.148 E2.95905
G1 X82.98 Y104.06 E2.96569
G1 X83.183 Y103.898 E2.97433
G1 X83.337 Y103.727 E2.98198
G1 X83.469 Y103.519 E2.99017
G1 X83.56 Y103.293 E2.99828
G1 X83.606 Y103.067 E3.00595
G1 X83.619 Y102.831 E3.01381
G1 X83.582 Y102.586 E3.02205
G1 X83.526 Y102.411 E3.02816
G1 X83.315 Y101.899 E3.04658
G1 X83.233 Y101.701 E3.05371
G1 X83.437 Y101.635 E3.05822
G1 X83.963 Y101.464 E3.07662
G1 X84.155 Y101.384 E3.08354
G1 X84.357 Y101.246 E3.09168
G1 X84.531 Y101.08 E3.09967
G1 X84.672 Y100.886 E3.10765
G1 X84.775 Y100.681 E3.11528
G1 X84.846 Y100.448 E3.12338
G1 X84.871 Y100.207 E3.13144
G1 X84.857 Y99.971 E3.1393
G1 X84.813 Y99.788 E3.14556
G1 X84.644 Y99.267 E3.16378
G1 X84.578 Y99.063 E3.17091
G1 X84.787 Y99.013 E3.17543
G1 X85.336 Y98.881 E3.19421
G1 X85.524 Y98.814 E3.20085
G1 X85.721 Y98.706 E3.20832
G1 X85.913 Y98.554 E3.21647
G1 X86.07 Y98.374 E3.22441
G1 X86.201 Y98.157 E3.23284
G1 X86.213 Y98.122 E3.23407
G1 X86.287 Y97.925 E3.24107
G1 X86.325 Y97.708 E3.2484
G1 X86.335 Y97.477 E3.25609
G1 X86.302 Y97.276 E3.26286
G1 X86.175 Y96.746 E3.28099
G1 X86.125 Y96.537 E3.28814
G1 X86.337 Y96.504 E3.29265
G1 X86.755 Y96.438 E3.30672
G1 X86.905 Y96.412 E3.31179
G1 X87.078 Y96.365 E3.31775
G1 X87.308 Y96.267 E3.32606
G1 X87.506 Y96.122 E3.33423
G1 X87.674 Y95.961 E3.34197
G1 X87.813 Y95.76 E3.35009
G1 X87.909 Y95.56 E3.35747
G1 X87.979 Y95.326 E3.3656
G1 X88 Y95.08 E3.37381
G1 X87.988 Y94.898 E3.37987
G1 X87.901 Y94.351 E3.3983
G1 X87.868 Y94.139 E3.40543
G1 X88.082 Y94.123 E3.40994
G1 X88.64 Y94.078 E3.42856
G1 X88.835 Y94.044 E3.43515
G1 X89.062 Y93.962 E3.44317
G1 X89.27 Y93.842 E3.45116
G1 X89.461 Y93.68 E3.45949
G1 X89.607 Y93.502 E3.46715
G1 X89.726 Y93.3 E3.47495
G1 X89.81 Y93.07 E3.48309
G1 X89.851 Y92.84 E3.49086
G1 X89.852 Y92.653 E3.49708
G1 X89.808 Y92.101 E3.5155
G1 X89.792 Y91.887 E3.52264
G1 X90.006 Y91.887 E3.52714
G1 X90.007 Y91.887 E3.52718
G1 X90.573 Y91.887 E3.546
G1 X90.776 Y91.865 E3.55279
G1 X90.993 Y91.802 E3.56031
G1 X91.215 Y91.702 E3.56841
G1 X91.408 Y91.559 E3.57639
G1 X91.571 Y91.398 E3.58401
G1 X91.717 Y91.185 E3.5926
G1 X91.813 Y90.965 E3.60059
G1 X91.869 Y90.748 E3.60804
G1 X91.871 Y90.718 E3.60904
G1 X91.887 Y90.562 E3.61426
G1 X91.887 Y90.007 E3.63272
G1 X91.887 Y90.006 E3.63275
G1 X91.887 Y89.792 E3.63987
G1 X92.101 Y89.809 E3.64439
G1 X92.667 Y89.854 E3.66327
G1 X92.863 Y89.847 E3.6698
G1 X93.087 Y89.806 E3.67737
G1 X93.326 Y89.714 E3.68589
G1 X93.525 Y89.59 E3.69369
G1 X93.703 Y89.439 E3.70145
G1 X93.852 Y89.254 E3.70935
G1 X93.969 Y89.05 E3.71717
G1 X94.049 Y88.814 E3.72546
G1 X94.079 Y88.63 E3.73166
G1 X94.123 Y88.081 E3.74998
G1 X94.14 Y87.867 E3.75712
G1 X94.352 Y87.9 E3.76164
G1 X94.756 Y87.963 E3.77524
G1 X94.899 Y87.988 E3.78007
G1 X95.102 Y88 E3.78683
G1 X95.342 Y87.975 E3.79486
G1 X95.579 Y87.904 E3.80308
G1 X95.787 Y87.797 E3.81086
G1 X95.972 Y87.66 E3.81852
G1 X96.137 Y87.495 E3.82628
G1 X96.283 Y87.274 E3.83509
G1 X96.372 Y87.058 E3.84286
G1 X96.416 Y86.885 E3.8488
G1 X96.503 Y86.337 E3.86725
G1 X96.536 Y86.125 E3.87439
G1 X96.745 Y86.175 E3.87891
G1 X97.29 Y86.306 E3.89755
G1 X97.309 Y86.308 E3.89819
G1 X97.495 Y86.335 E3.90444
G1 X97.731 Y86.324 E3.91229
G1 X97.947 Y86.28 E3.91963
G1 X98.186 Y86.187 E3.92816
G1 X98.386 Y86.059 E3.93605
G1 X98.571 Y85.898 E3.94421
G1 X98.722 Y85.695 E3.95263
G1 X98.824 Y85.502 E3.95989
G1 X98.884 Y85.325 E3.9661
G1 X99.012 Y84.787 E3.9845
G1 X99.062 Y84.577 E3.99168
G1 X99.267 Y84.643 E3.99621
G1 X99.797 Y84.816 E4.01475
G1 X99.989 Y84.86 E4.0213
G1 X100.227 Y84.871 E4.02923
G1 X100.478 Y84.839 E4.03764
G1 X100.701 Y84.766 E4.04545
G1 X100.904 Y84.664 E4.053
G1 X101.099 Y84.515 E4.06116
G1 X101.263 Y84.339 E4.06917
G1 X101.395 Y84.13 E4.07739
G1 X101.46 Y83.972 E4.08307
G1 X101.467 Y83.957 E4.08362
G1 X101.636 Y83.437 E4.10181
G1 X101.702 Y83.233 E4.10894
G1 X101.9 Y83.315 E4.11345
G1 X102.419 Y83.529 E4.13212
G1 X102.607 Y83.586 E4.13866
G1 X102.849 Y83.619 E4.14678
G1 X103.091 Y83.603 E4.15485
G1 X103.314 Y83.552 E4.16245
G1 X103.544 Y83.455 E4.17076
G1 X103.743 Y83.324 E4.17868
G1 X103.916 Y83.165 E4.1865
G1 X104.067 Y82.965 E4.19483
G1 X104.15 Y82.797 E4.20106
G1 X104.358 Y82.297 E4.21908
G1 X104.44 Y82.099 E4.2262
G1 X104.631 Y82.196 E4.23071
G1 X105.128 Y82.45 E4.24928
G1 X105.322 Y82.527 E4.25622
G1 X105.557 Y82.571 E4.26417
G1 X105.781 Y82.578 E4.27163
G1 X106.03 Y82.543 E4.27999
G1 X106.249 Y82.467 E4.2877
G1 X106.455 Y82.362 E4.29539
G1 X106.655 Y82.202 E4.30391
G1 X106.804 Y82.033 E4.3114
G1 X106.908 Y81.872 E4.31778
G1 X107.161 Y81.375 E4.33633
G1 X107.258 Y81.184 E4.34345
G1 X107.441 Y81.296 E4.34797
G1 X107.922 Y81.591 E4.36674
G1 X108.1 Y81.676 E4.3733
G1 X108.323 Y81.741 E4.38102
G1 X108.572 Y81.768 E4.38935
G1 X108.814 Y81.748 E4.39743
G1 X109.036 Y81.692 E4.40505
G1 X109.263 Y81.594 E4.41327
G1 X109.46 Y81.457 E4.42125
G1 X109.628 Y81.297 E4.42897
G1 X109.741 Y81.143 E4.43532
G1 X110.027 Y80.675 E4.45356
G1 X110.139 Y80.492 E4.4607
G1 X110.313 Y80.618 E4.46521
G1 X110.763 Y80.945 E4.48371
G1 X110.939 Y81.051 E4.49055
G1 X111.167 Y81.133 E4.49861
G1 X111.198 Y81.138 E4.49965
G1 X111.403 Y81.177 E4.50659
G1 X111.637 Y81.177 E4.51438
G1 X111.875 Y81.14 E4.52239
G1 X112.104 Y81.056 E4.5305
G1 X112.303 Y80.945 E4.53808
G1 X112.497 Y80.786 E4.54642
G1 X112.618 Y80.643 E4.55265
G1 X112.939 Y80.201 E4.57082
G1 X113.065 Y80.028 E4.57794
