; generated by PrusaSlicer 2.2.0+ on 2020-10-31 at 11:20:48 UTC

; 

; external perimeters extrusion width = 0.45mm
; perimeters extrusion width = 0.45mm
; infill extrusion width = 0.45mm
; solid infill extrusion width = 0.45mm
; top infill extrusion width = 0.40mm
; first layer extrusion width = 0.42mm

M201 X500 Y500 Z100 E5000 ; sets maximum accelerations, mm/sec^2
M203 X500 Y500 Z10 E60 ; sets maximum feedrates, mm/sec
M204 P500 R1000 T500 ; sets acceleration (P, T) and retract acceleration (R), mm/sec^2
M205 X8.00 Y8.00 Z0.40 E5.00 ; sets the jerk limits, mm/sec
M205 S0 T0 ; sets the minimum extruding and travel feed rate, mm/sec
M107
G90 ; use absolute coordinates
M83 ; extruder relative mode
M104 S200 ; set extruder temp
M140 S50 ; set bed temp
M190 S50 ; wait for bed temp
M109 S200 ; wait for extruder temp
G28 ; home all
G1 Z2 F240
G1 X2 Y10 F3000
G1 Z0.28 F240
G92 E0.0
G1 Y190 E15.0 F1500.0 ; intro line
G1 X2.3 F5000
G1 Y10 E30 F1200.0 ; intro line
G92 E0.0
G21 ; set units to millimeters
G90 ; use absolute coordinates
M83 ; use relative distances for extrusion
; Filament gcode
;BEFORE_LAYER_CHANGE
;0.2


G1 E-5.00000 F3600.00000
G1 Z0.200 F9000.000
;AFTER_LAYER_CHANGE
;0.2
G1 X84.920 Y90.488
G1 E5.00000 F2400.00000
G1 F1200.000
G1 X85.747 Y89.882 E0.03214
G1 X86.497 Y89.510 E0.02626
G1 X87.493 Y89.219 E0.03254
G1 X88.344 Y89.125 E0.02684
G1 X146.609 Y89.125 E1.82685
G1 X147.495 Y89.216 E0.02795
G1 X148.512 Y89.513 E0.03320
G1 X149.450 Y90.005 E0.03323
G1 X150.149 Y90.551 E0.02780
G1 X150.850 Y91.339 E0.03308
G1 X151.385 Y92.255 E0.03325
G1 X151.688 Y93.089 E0.02782
G1 X151.865 Y94.141 E0.03345
G1 X151.868 Y140.792 E1.46272
G1 X151.741 Y141.698 E0.02868
G1 X151.383 Y142.751 E0.03487
G1 X150.839 Y143.676 E0.03365
G1 X150.080 Y144.512 E0.03540
G1 X149.253 Y145.118 E0.03214
G1 X148.503 Y145.490 E0.02626
G1 X147.507 Y145.781 E0.03254
G1 X146.656 Y145.875 E0.02684
G1 X88.376 Y145.875 E1.82733
G1 X87.217 Y145.722 E0.03665
G1 X86.166 Y145.344 E0.03503
G1 X85.204 Y144.748 E0.03548
G1 X84.420 Y144.002 E0.03393
G1 X83.908 Y143.296 E0.02736
G1 X83.456 Y142.364 E0.03246
G1 X83.228 Y141.553 E0.02643
G1 X83.124 Y140.560 E0.03130
G1 X83.123 Y94.477 E1.44490
G1 X83.242 Y93.373 E0.03481
G1 X83.592 Y92.304 E0.03526
G1 X84.154 Y91.333 E0.03519
G1 X84.880 Y90.533 E0.03388
G1 E-3.50000 F3600.00000
G1 F7200.000
G1 X85.747 Y89.882 E-0.51485
G1 X86.497 Y89.510 E-0.39778
G1 X87.493 Y89.219 E-0.49295
G1 X87.534 Y89.214 E-0.01943
G1 E-0.07500 F3600.00000
G1 X84.561 Y87.866 F9000.000
G1 E5.00000 F2400.00000
G1 F1200.000
G1 X85.744 Y87.295 E0.04117
G1 X86.427 Y87.071 E0.02255
G1 X87.065 Y86.920 E0.02056
G1 X88.279 Y86.788 E0.03829
G1 X146.704 Y86.789 E1.83188
G1 X147.458 Y86.847 E0.02372
G1 X148.205 Y86.976 E0.02376
G1 X149.542 Y87.410 E0.04408
G1 X150.203 Y87.734 E0.02308
G1 X150.820 Y88.110 E0.02264
G1 X151.398 Y88.542 E0.02263
G1 X151.933 Y89.023 E0.02257
G1 X152.837 Y90.100 E0.04409
G1 X153.209 Y90.696 E0.02202
G1 X153.527 Y91.320 E0.02196
G1 X153.800 Y92.010 E0.02326
G1 X154.010 Y92.735 E0.02366
G1 X154.196 Y93.991 E0.03981
G1 X154.210 Y140.682 E1.46397
G1 X154.156 Y141.431 E0.02355
G1 X154.030 Y142.170 E0.02350
G1 X153.805 Y142.974 E0.02618
G1 X153.509 Y143.721 E0.02520
G1 X153.142 Y144.420 E0.02475
G1 X152.716 Y145.068 E0.02431
G1 X152.206 Y145.688 E0.02518
G1 X151.662 Y146.231 E0.02411
G1 X151.002 Y146.762 E0.02653
G1 X150.439 Y147.134 E0.02118
G1 X149.256 Y147.705 E0.04117
G1 X148.573 Y147.929 E0.02255
G1 X147.935 Y148.080 E0.02056
G1 X146.721 Y148.212 E0.03829
G1 X88.310 Y148.212 E1.83145
G1 X87.482 Y148.145 E0.02604
G1 X86.675 Y147.995 E0.02574
G1 X85.932 Y147.772 E0.02432
G1 X85.201 Y147.472 E0.02478
G1 X84.494 Y147.090 E0.02518
G1 X83.805 Y146.620 E0.02617
G1 X83.238 Y146.139 E0.02332
G1 X82.701 Y145.588 E0.02412
G1 X81.909 Y144.509 E0.04197
G1 X81.592 Y143.930 E0.02068
G1 X81.309 Y143.293 E0.02186
G1 X80.921 Y141.943 E0.04404
G1 X80.824 Y141.253 E0.02185
G1 X80.789 Y140.666 E0.01843
G1 X80.787 Y94.429 E1.44973
G1 X80.837 Y93.633 E0.02501
G1 X80.964 Y92.855 E0.02471
G1 X81.175 Y92.086 E0.02499
G1 X81.464 Y91.339 E0.02511
G1 X81.837 Y90.616 E0.02553
G1 X82.258 Y89.968 E0.02423
G1 X82.792 Y89.313 E0.02649
G1 X83.338 Y88.769 E0.02417
G1 X83.998 Y88.238 E0.02654
G1 X84.511 Y87.899 E0.01929
G1 X84.719 Y88.214 F9000.000
G1 F1200.000
G1 X85.895 Y87.640 E0.04105
G1 X86.536 Y87.432 E0.02111
G1 X87.140 Y87.290 E0.01947
G1 X88.289 Y87.165 E0.03623
G1 X146.696 Y87.166 E1.83133
G1 X147.420 Y87.222 E0.02275
G1 X148.127 Y87.345 E0.02251
G1 X149.389 Y87.755 E0.04159
G1 X150.015 Y88.061 E0.02186
G1 X150.602 Y88.418 E0.02153
G1 X151.152 Y88.828 E0.02154
G1 X151.671 Y89.295 E0.02188
G1 X152.524 Y90.311 E0.04160
G1 X152.885 Y90.888 E0.02134
G1 X153.187 Y91.482 E0.02089
G1 X153.445 Y92.140 E0.02214
G1 X153.644 Y92.827 E0.02243
G1 X153.821 Y94.032 E0.03818
G1 X153.833 Y140.662 E1.46206
G1 X153.783 Y141.377 E0.02249
G1 X153.665 Y142.078 E0.02229
G1 X153.451 Y142.844 E0.02495
G1 X153.170 Y143.555 E0.02395
G1 X152.821 Y144.221 E0.02357
G1 X152.418 Y144.836 E0.02307
G1 X151.921 Y145.442 E0.02456
G1 X151.403 Y145.957 E0.02290
G1 X150.773 Y146.462 E0.02531
G1 X150.242 Y146.812 E0.01995
G1 X149.105 Y147.360 E0.03958
G1 X148.464 Y147.568 E0.02111
G1 X147.860 Y147.710 E0.01947
G1 X146.711 Y147.835 E0.03623
G1 X88.317 Y147.835 E1.83090
G1 X87.541 Y147.772 E0.02441
G1 X86.754 Y147.626 E0.02510
G1 X86.049 Y147.414 E0.02307
G1 X85.354 Y147.127 E0.02359
G1 X84.682 Y146.764 E0.02394
G1 X84.026 Y146.314 E0.02494
G1 X83.489 Y145.857 E0.02211
G1 X82.980 Y145.334 E0.02288
G1 X82.233 Y144.317 E0.03958
G1 X81.934 Y143.770 E0.01957
G1 X81.658 Y143.152 E0.02120
G1 X81.293 Y141.877 E0.04157
G1 X81.199 Y141.208 E0.02120
G1 X81.166 Y140.650 E0.01754
G1 X81.164 Y94.435 E1.44904
G1 X81.210 Y93.684 E0.02359
G1 X81.330 Y92.945 E0.02347
G1 X81.536 Y92.196 E0.02437
G1 X81.812 Y91.485 E0.02389
G1 X82.168 Y90.798 E0.02428
G1 X82.569 Y90.182 E0.02303
G1 X83.078 Y89.559 E0.02523
G1 X83.597 Y89.043 E0.02295
G1 X84.227 Y88.538 E0.02531
G1 X84.669 Y88.247 E0.01659
G1 X84.876 Y88.562 F9000.000
G1 F1200.000
G1 X86.024 Y87.995 E0.04016
G1 X86.645 Y87.793 E0.02046
G1 X87.215 Y87.659 E0.01837
G1 X88.299 Y87.542 E0.03419
G1 X146.689 Y87.543 E1.83078
G1 X147.364 Y87.595 E0.02122
G1 X148.049 Y87.714 E0.02181
G1 X149.235 Y88.100 E0.03909
G1 X149.827 Y88.388 E0.02065
G1 X150.384 Y88.726 E0.02041
G1 X150.907 Y89.115 E0.02044
G1 X151.410 Y89.566 E0.02119
G1 X152.212 Y90.522 E0.03912
G1 X152.561 Y91.081 E0.02066
G1 X152.846 Y91.645 E0.01982
G1 X153.091 Y92.269 E0.02102
G1 X153.278 Y92.919 E0.02120
G1 X153.446 Y94.072 E0.03655
G1 X153.457 Y140.642 E1.46018
G1 X153.409 Y141.324 E0.02143
G1 X153.299 Y141.987 E0.02107
G1 X153.096 Y142.716 E0.02371
G1 X152.831 Y143.390 E0.02271
G1 X152.501 Y144.023 E0.02239
G1 X152.120 Y144.605 E0.02182
G1 X151.636 Y145.195 E0.02393
G1 X151.145 Y145.682 E0.02167
G1 X150.545 Y146.162 E0.02409
G1 X150.045 Y146.490 E0.01874
G1 X148.976 Y147.005 E0.03722
G1 X148.355 Y147.207 E0.02046
G1 X147.785 Y147.341 E0.01837
G1 X146.701 Y147.458 E0.03419
G1 X88.325 Y147.458 E1.83034
G1 X87.582 Y147.397 E0.02338
G1 X86.834 Y147.257 E0.02385
G1 X86.168 Y147.056 E0.02183
G1 X85.507 Y146.783 E0.02241
G1 X84.871 Y146.437 E0.02269
G1 X84.248 Y146.009 E0.02371
G1 X83.741 Y145.576 E0.02090
G1 X83.260 Y145.081 E0.02164
G1 X82.558 Y144.125 E0.03721
G1 X82.275 Y143.609 E0.01844
G1 X82.008 Y143.011 E0.02054
G1 X81.665 Y141.812 E0.03910
G1 X81.573 Y141.163 E0.02054
G1 X81.543 Y140.633 E0.01664
G1 X81.541 Y94.441 E1.44835
G1 X81.586 Y93.717 E0.02274
G1 X81.697 Y93.035 E0.02165
G1 X81.897 Y92.305 E0.02375
G1 X82.151 Y91.650 E0.02203
G1 X82.498 Y90.979 E0.02367
G1 X82.867 Y90.413 E0.02119
G1 X83.364 Y89.806 E0.02459
G1 X83.855 Y89.318 E0.02171
G1 X84.455 Y88.838 E0.02409
G1 X84.825 Y88.595 E0.01389
G1 X85.032 Y88.910 F9000.000
G1 F1200.000
G1 X85.151 Y88.832 E0.00445
G1 X86.153 Y88.350 E0.03487
G1 X86.754 Y88.155 E0.01981
G1 X87.289 Y88.029 E0.01726
G1 X88.309 Y87.920 E0.03216
G1 X146.682 Y87.920 E1.83023
G1 X147.325 Y87.970 E0.02024
G1 X147.971 Y88.083 E0.02055
G1 X149.082 Y88.444 E0.03661
G1 X149.654 Y88.723 E0.01997
G1 X150.181 Y89.043 E0.01931
G1 X150.674 Y89.412 E0.01932
G1 X151.147 Y89.838 E0.01996
G1 X151.899 Y90.733 E0.03664
G1 X152.236 Y91.273 E0.01998
G1 X152.506 Y91.807 E0.01873
G1 X152.737 Y92.398 E0.01990
G1 X152.912 Y93.010 E0.01997
G1 X153.071 Y94.113 E0.03493
G1 X153.080 Y140.623 E1.45832
G1 X153.036 Y141.272 E0.02038
G1 X152.932 Y141.896 E0.01985
G1 X152.741 Y142.588 E0.02248
G1 X152.492 Y143.224 E0.02144
G1 X152.171 Y143.840 E0.02178
G1 X151.822 Y144.374 E0.01999
G1 X151.350 Y144.948 E0.02330
G1 X150.887 Y145.407 E0.02043
G1 X150.317 Y145.861 E0.02287
G1 X149.849 Y146.168 E0.01753
G1 X148.847 Y146.650 E0.03487
G1 X148.246 Y146.845 E0.01981
G1 X147.711 Y146.971 E0.01726
G1 X146.691 Y147.080 E0.03216
G1 X88.332 Y147.080 E1.82979
G1 X87.641 Y147.025 E0.02173
G1 X86.914 Y146.888 E0.02322
G1 X86.303 Y146.704 E0.02000
G1 X85.661 Y146.438 E0.02180
G1 X85.061 Y146.111 E0.02143
G1 X84.470 Y145.704 E0.02248
G1 X83.993 Y145.296 E0.01970
G1 X83.540 Y144.828 E0.02041
G1 X82.882 Y143.932 E0.03486
G1 X82.616 Y143.448 E0.01732
G1 X82.358 Y142.869 E0.01987
G1 X82.036 Y141.746 E0.03662
G1 X81.948 Y141.119 E0.01988
G1 X81.920 Y140.618 E0.01573
G1 X81.918 Y94.447 E1.44766
G1 X81.962 Y93.750 E0.02190
G1 X82.063 Y93.125 E0.01983
G1 X82.258 Y92.414 E0.02313
G1 X82.491 Y91.814 E0.02017
G1 X82.829 Y91.161 E0.02305
G1 X83.165 Y90.644 E0.01935
G1 X83.649 Y90.052 E0.02395
G1 X84.113 Y89.593 E0.02046
G1 X84.683 Y89.139 E0.02287
G1 X84.982 Y88.943 E0.01119
G1 X85.188 Y89.259 F9000.000
G1 F1200.000
G1 X85.347 Y89.155 E0.00595
G1 X86.281 Y88.705 E0.03253
G1 X86.862 Y88.516 E0.01916
G1 X87.364 Y88.399 E0.01614
G1 X88.319 Y88.297 E0.03013
G1 X146.674 Y88.297 E1.82968
G1 X147.286 Y88.346 E0.01925
G1 X147.892 Y88.453 E0.01930
G1 X148.928 Y88.789 E0.03414
G1 X149.481 Y89.058 E0.01927
G1 X149.977 Y89.361 E0.01821
G1 X150.428 Y89.698 E0.01767
G1 X150.885 Y90.109 E0.01928
G1 X151.586 Y90.944 E0.03417
G1 X151.912 Y91.466 E0.01929
G1 X152.165 Y91.968 E0.01764
G1 X152.377 Y92.510 E0.01824
G1 X152.546 Y93.101 E0.01928
G1 X152.696 Y94.152 E0.03329
G1 X152.703 Y140.605 E1.45648
G1 X152.662 Y141.220 E0.01934
G1 X152.566 Y141.806 E0.01861
G1 X152.380 Y142.478 E0.02186
G1 X152.153 Y143.059 E0.01957
G1 X151.840 Y143.657 E0.02117
G1 X151.524 Y144.142 E0.01816
G1 X151.065 Y144.701 E0.02266
G1 X150.630 Y145.131 E0.01918
G1 X150.089 Y145.560 E0.02164
G1 X149.653 Y145.845 E0.01633
G1 X148.719 Y146.295 E0.03253
G1 X148.138 Y146.484 E0.01916
G1 X147.636 Y146.601 E0.01614
G1 X146.681 Y146.703 E0.03013
G1 X88.340 Y146.703 E1.82924
G1 X87.701 Y146.653 E0.02009
G1 X86.993 Y146.520 E0.02258
G1 X86.439 Y146.352 E0.01817
G1 X85.814 Y146.094 E0.02119
G1 X85.267 Y145.795 E0.01956
G1 X84.692 Y145.400 E0.02186
G1 X84.245 Y145.016 E0.01847
G1 X83.820 Y144.575 E0.01919
G1 X83.206 Y143.739 E0.03253
G1 X82.957 Y143.287 E0.01618
G1 X82.708 Y142.728 E0.01921
G1 X82.408 Y141.681 E0.03415
G1 X82.322 Y141.074 E0.01921
G1 X82.296 Y140.602 E0.01482
G1 X82.295 Y94.453 E1.44699
G1 X82.337 Y93.783 E0.02105
G1 X82.429 Y93.215 E0.01802
G1 X82.619 Y92.523 E0.02250
G1 X82.838 Y91.961 E0.01893
G1 X83.159 Y91.343 E0.02182
G1 X83.464 Y90.874 E0.01753
G1 X83.934 Y90.299 E0.02331
G1 X84.370 Y89.869 E0.01919
G1 X84.911 Y89.440 E0.02164
G1 X85.137 Y89.291 E0.00850
G1 X86.410 Y89.059 F9000.000
G1 F1200.000
G1 X86.971 Y88.877 E0.01850
G1 X87.437 Y88.769 E0.01501
G1 X88.329 Y88.674 E0.02812
G1 X146.667 Y88.674 E1.82914
G1 X147.230 Y88.719 E0.01771
G1 X147.814 Y88.822 E0.01860
G1 X148.775 Y89.134 E0.03167
G1 X149.307 Y89.394 E0.01859
G1 X149.759 Y89.668 E0.01657
G1 X150.183 Y89.984 E0.01657
G1 X150.623 Y90.381 E0.01859
G1 X151.273 Y91.155 E0.03169
G1 X151.587 Y91.658 E0.01860
G1 X151.824 Y92.129 E0.01654
G1 X152.016 Y92.622 E0.01659
G1 X152.180 Y93.192 E0.01859
G1 X152.320 Y94.192 E0.03165
G1 X152.327 Y140.586 E1.45466
G1 X152.287 Y141.186 E0.01886
G1 X152.200 Y141.715 E0.01681
G1 X152.020 Y142.368 E0.02123
G1 X151.814 Y142.893 E0.01770
G1 X151.510 Y143.475 E0.02057
G1 X151.226 Y143.911 E0.01633
G1 X150.780 Y144.454 E0.02202
G1 X150.373 Y144.855 E0.01792
G1 X149.862 Y145.259 E0.02043
G1 X149.458 Y145.522 E0.01513
G1 X148.590 Y145.941 E0.03020
G1 X148.029 Y146.123 E0.01850
G1 X147.563 Y146.231 E0.01501
G1 X146.671 Y146.326 E0.02812
G1 X88.347 Y146.326 E1.82870
G1 X87.761 Y146.280 E0.01844
G1 X87.073 Y146.151 E0.02194
G1 X86.574 Y146.000 E0.01635
G1 X85.967 Y145.749 E0.02058
G1 X85.472 Y145.479 E0.01768
G1 X84.915 Y145.095 E0.02123
G1 X84.511 Y144.748 E0.01670
G1 X84.100 Y144.323 E0.01852
G1 X83.530 Y143.546 E0.03020
G1 X83.298 Y143.126 E0.01504
G1 X83.058 Y142.586 E0.01853
G1 X82.779 Y141.615 E0.03168
G1 X82.697 Y141.030 E0.01854
G1 X82.673 Y140.587 E0.01389
G1 X82.672 Y94.459 E1.44633
G1 X82.713 Y93.816 E0.02020
G1 X82.795 Y93.305 E0.01621
G1 X82.980 Y92.632 E0.02188
G1 X83.178 Y92.125 E0.01706
G1 X83.490 Y91.525 E0.02121
G1 X83.762 Y91.105 E0.01570
G1 X84.220 Y90.546 E0.02266
G1 X84.627 Y90.145 E0.01791
G1 X85.138 Y89.741 E0.02043
G1 X85.542 Y89.478 E0.01513
G1 X86.356 Y89.085 E0.02832
G1 X86.667 Y89.769 F9000.000
G1 F1200.000
G1 X87.188 Y89.599 E0.01716
G1 X87.583 Y89.509 E0.01273
G1 X88.349 Y89.428 E0.02414
G1 X146.652 Y89.428 E1.82805
G1 X147.117 Y89.464 E0.01461
G1 X147.657 Y89.560 E0.01720
G1 X148.468 Y89.823 E0.02673
G1 X148.961 Y90.064 E0.01720
G1 X149.337 Y90.294 E0.01383
G1 X149.691 Y90.556 E0.01384
G1 X150.099 Y90.923 E0.01720
G1 X150.647 Y91.577 E0.02674
G1 X150.938 Y92.042 E0.01721
G1 X151.135 Y92.436 E0.01381
G1 X151.296 Y92.847 E0.01385
G1 X151.448 Y93.375 E0.01720
G1 X151.566 Y94.218 E0.02670
G1 X151.573 Y140.548 E1.45265
G1 X151.535 Y141.118 E0.01790
G1 X151.468 Y141.534 E0.01322
G1 X151.298 Y142.148 E0.01998
G1 X151.136 Y142.563 E0.01395
G1 X150.850 Y143.110 E0.01935
G1 X150.618 Y143.465 E0.01331
G1 X150.211 Y143.959 E0.02007
G1 X149.861 Y144.301 E0.01535
G1 X149.410 Y144.656 E0.01800
G1 X149.068 Y144.876 E0.01275
G1 X148.333 Y145.231 E0.02560
G1 X147.812 Y145.401 E0.01716
G1 X147.417 Y145.491 E0.01273
G1 X146.651 Y145.572 E0.02414
G1 X88.362 Y145.572 E1.82762
G1 X87.879 Y145.535 E0.01517
G1 X87.252 Y145.418 E0.02001
G1 X86.845 Y145.296 E0.01332
G1 X86.274 Y145.060 E0.01936
G1 X85.884 Y144.847 E0.01394
G1 X85.359 Y144.485 E0.01998
G1 X85.041 Y144.211 E0.01316
G1 X84.661 Y143.817 E0.01718
G1 X84.178 Y143.159 E0.02560
G1 X83.980 Y142.804 E0.01273
G1 X83.757 Y142.304 E0.01717
G1 X83.522 Y141.484 E0.02673
G1 X83.446 Y140.942 E0.01718
G1 X83.427 Y140.559 E0.01202
G1 X83.426 Y94.471 E1.44505
G1 X83.465 Y93.883 E0.01848
G1 X83.532 Y93.466 E0.01324
G1 X83.702 Y92.852 E0.01998
G1 X83.864 Y92.437 E0.01395
G1 X84.150 Y91.890 E0.01935
G1 X84.382 Y91.535 E0.01331
G1 X84.789 Y91.041 E0.02007
G1 X85.139 Y90.699 E0.01535
G1 X85.590 Y90.344 E0.01800
G1 X85.932 Y90.124 E0.01275
G1 X86.613 Y89.795 E0.02372
G1 X86.776 Y90.133 F9000.000
G1 F1200.000
G1 X87.296 Y89.961 E0.01715
G1 X87.656 Y89.879 E0.01157
G1 X88.359 Y89.805 E0.02218
G1 X146.645 Y89.805 E1.82752
G1 X147.061 Y89.837 E0.01307
G1 X147.579 Y89.929 E0.01649
G1 X148.314 Y90.168 E0.02425
G1 X148.787 Y90.399 E0.01650
G1 X149.120 Y90.602 E0.01222
G1 X149.446 Y90.843 E0.01272
G1 X149.837 Y91.195 E0.01649
G1 X150.335 Y91.788 E0.02426
G1 X150.613 Y92.234 E0.01650
G1 X150.794 Y92.597 E0.01270
G1 X150.936 Y92.960 E0.01223
G1 X151.081 Y93.466 E0.01650
G1 X151.189 Y94.231 E0.02423
G1 X151.197 Y140.529 E1.45164
G1 X151.160 Y141.083 E0.01741
G1 X151.097 Y141.462 E0.01204
G1 X150.937 Y142.038 E0.01873
G1 X150.797 Y142.397 E0.01210
G1 X150.520 Y142.927 E0.01872
G1 X150.309 Y143.249 E0.01209
G1 X149.927 Y143.710 E0.01878
G1 X149.605 Y144.023 E0.01407
G1 X149.184 Y144.353 E0.01679
G1 X148.874 Y144.553 E0.01157
G1 X148.204 Y144.877 E0.02333
G1 X147.704 Y145.039 E0.01648
G1 X147.344 Y145.121 E0.01157
G1 X146.641 Y145.195 E0.02218
G1 X88.369 Y145.195 E1.82709
G1 X87.937 Y145.162 E0.01356
G1 X87.350 Y145.054 E0.01874
G1 X86.980 Y144.943 E0.01210
G1 X86.428 Y144.715 E0.01873
G1 X86.089 Y144.530 E0.01209
