; generated by PrusaSlicer 2.2.0+ on 2020-10-31 at 19:19:20 UTC

; 

; external perimeters extrusion width = 0.45mm
; perimeters extrusion width = 0.45mm
; infill extrusion width = 0.45mm
; solid infill extrusion width = 0.45mm
; top infill extrusion width = 0.40mm
; first layer extrusion width = 0.42mm

M201 X500 Y500 Z100 E5000 ; sets maximum accelerations, mm/sec^2
M203 X500 Y500 Z10 E60 ; sets maximum feedrates, mm/sec
M204 P500 R1000 T500 ; sets acceleration (P, T) and retract acceleration (R), mm/sec^2
M205 X8.00 Y8.00 Z0.40 E5.00 ; sets the jerk limits, mm/sec
M205 S0 T0 ; sets the minimum extruding and travel feed rate, mm/sec
M107
G90 ; use absolute coordinates
M83 ; extruder relative mode
M104 S200 ; set extruder temp
M140 S50 ; set bed temp
M190 S50 ; wait for bed temp
M109 S200 ; wait for extruder temp
G28 ; home all
G1 Z2 F240
G1 X2 Y10 F3000
G1 Z0.28 F240
G92 E0.0
G1 Y190 E15.0 F1500.0 ; intro line
G1 X2.3 F5000
G1 Y10 E30 F1200.0 ; intro line
G92 E0.0
G21 ; set units to millimeters
G90 ; use absolute coordinates
M83 ; use relative distances for extrusion
; Filament gcode
;BEFORE_LAYER_CHANGE
;0.2


G1 E-5.00000 F3600.00000
G1 Z0.200 F9000.000
;AFTER_LAYER_CHANGE
;0.2
G1 X83.917 Y89.491
G1 E5.00000 F2400.00000
G1 F1200.000
G1 X84.747 Y88.882 E0.03226
G1 X85.497 Y88.510 E0.02626
G1 X86.493 Y88.219 E0.03254
G1 X87.344 Y88.125 E0.02684
G1 X147.609 Y88.125 E1.88956
G1 X148.495 Y88.216 E0.02795
G1 X149.512 Y88.513 E0.03320
G1 X150.450 Y89.005 E0.03323
G1 X151.149 Y89.551 E0.02780
G1 X151.850 Y90.339 E0.03308
G1 X152.386 Y91.257 E0.03332
G1 X152.688 Y92.089 E0.02775
G1 X152.865 Y93.147 E0.03364
G1 X152.876 Y141.580 E1.51859
G1 X152.755 Y142.638 E0.03338
G1 X152.405 Y143.701 E0.03510
G1 X151.846 Y144.667 E0.03499
G1 X151.083 Y145.509 E0.03564
G1 X150.253 Y146.118 E0.03226
G1 X149.503 Y146.490 E0.02626
G1 X148.507 Y146.781 E0.03254
G1 X147.656 Y146.875 E0.02684
G1 X87.376 Y146.875 E1.89004
G1 X86.221 Y146.723 E0.03653
G1 X85.169 Y146.346 E0.03503
G1 X84.207 Y145.751 E0.03548
G1 X83.427 Y145.010 E0.03371
G1 X82.913 Y144.305 E0.02735
G1 X82.458 Y143.368 E0.03268
G1 X82.228 Y142.557 E0.02643
G1 X82.124 Y141.567 E0.03120
G1 X82.123 Y93.477 E1.50782
G1 X82.242 Y92.377 E0.03469
G1 X82.590 Y91.309 E0.03522
G1 X83.152 Y90.336 E0.03523
G1 X83.877 Y89.535 E0.03388
G1 E-3.50000 F3600.00000
G1 F7200.000
G1 X84.747 Y88.882 E-0.51665
G1 X85.497 Y88.510 E-0.39778
G1 X86.493 Y88.219 E-0.49295
G1 X86.530 Y88.215 E-0.01763
G1 E-0.07500 F3600.00000
G1 X83.560 Y86.867 F9000.000
G1 E5.00000 F2400.00000
G1 F1200.000
G1 X84.741 Y86.296 E0.04112
G1 X85.425 Y86.072 E0.02256
G1 X86.065 Y85.920 E0.02062
G1 X87.279 Y85.788 E0.03829
G1 X147.704 Y85.789 E1.89458
G1 X148.458 Y85.847 E0.02372
G1 X149.205 Y85.976 E0.02376
G1 X150.542 Y86.410 E0.04408
G1 X151.203 Y86.734 E0.02308
G1 X151.820 Y87.110 E0.02266
G1 X152.398 Y87.542 E0.02261
G1 X152.933 Y88.023 E0.02257
G1 X153.837 Y89.100 E0.04409
G1 X154.209 Y89.696 E0.02202
G1 X154.527 Y90.320 E0.02196
G1 X154.800 Y91.010 E0.02326
G1 X155.010 Y91.735 E0.02368
G1 X155.198 Y93.019 E0.04067
G1 X155.210 Y141.682 E1.52580
G1 X155.157 Y142.428 E0.02347
G1 X155.036 Y143.146 E0.02281
G1 X154.813 Y143.951 E0.02619
G1 X154.519 Y144.698 E0.02517
G1 X154.154 Y145.399 E0.02480
G1 X153.743 Y146.030 E0.02360
G1 X153.210 Y146.684 E0.02647
G1 X152.682 Y147.213 E0.02342
G1 X152.006 Y147.759 E0.02725
G1 X151.440 Y148.133 E0.02129
G1 X150.259 Y148.704 E0.04112
G1 X149.575 Y148.928 E0.02256
G1 X148.935 Y149.080 E0.02062
G1 X147.721 Y149.212 E0.03829
G1 X87.310 Y149.212 E1.89416
G1 X86.482 Y149.145 E0.02604
G1 X85.675 Y148.995 E0.02574
G1 X84.932 Y148.772 E0.02432
G1 X84.201 Y148.472 E0.02478
G1 X83.494 Y148.090 E0.02518
G1 X82.805 Y147.620 E0.02617
G1 X82.238 Y147.139 E0.02332
G1 X81.701 Y146.588 E0.02412
G1 X80.909 Y145.509 E0.04197
G1 X80.592 Y144.930 E0.02068
G1 X80.309 Y144.293 E0.02186
G1 X79.921 Y142.943 E0.04404
G1 X79.824 Y142.252 E0.02189
G1 X79.789 Y141.648 E0.01895
G1 X79.787 Y93.429 E1.51189
G1 X79.836 Y92.634 E0.02498
G1 X79.959 Y91.878 E0.02402
G1 X80.174 Y91.090 E0.02562
G1 X80.453 Y90.362 E0.02442
G1 X80.835 Y89.620 E0.02618
G1 X81.231 Y89.005 E0.02292
G1 X81.789 Y88.317 E0.02778
G1 X82.318 Y87.787 E0.02348
G1 X82.994 Y87.241 E0.02725
G1 X83.510 Y86.900 E0.01941
G1 X83.718 Y87.215 F9000.000
G1 F1200.000
G1 X84.871 Y86.650 E0.04023
G1 X85.535 Y86.433 E0.02191
G1 X86.140 Y86.290 E0.01951
G1 X87.289 Y86.165 E0.03623
G1 X147.697 Y86.166 E1.89403
G1 X148.420 Y86.222 E0.02274
G1 X149.127 Y86.345 E0.02251
G1 X150.388 Y86.755 E0.04159
G1 X151.015 Y87.061 E0.02186
G1 X151.602 Y87.418 E0.02154
G1 X152.152 Y87.828 E0.02152
G1 X152.672 Y88.295 E0.02188
G1 X153.524 Y89.311 E0.04160
G1 X153.885 Y89.888 E0.02134
G1 X154.187 Y90.482 E0.02089
G1 X154.445 Y91.140 E0.02214
G1 X154.644 Y91.827 E0.02244
G1 X154.823 Y93.059 E0.03903
G1 X154.833 Y141.662 E1.52391
G1 X154.783 Y142.375 E0.02243
G1 X154.670 Y143.055 E0.02161
G1 X154.458 Y143.823 E0.02496
G1 X154.180 Y144.533 E0.02392
G1 X153.832 Y145.202 E0.02364
G1 X153.445 Y145.800 E0.02234
G1 X152.924 Y146.438 E0.02584
G1 X152.423 Y146.939 E0.02221
G1 X151.777 Y147.459 E0.02601
G1 X151.242 Y147.812 E0.02006
G1 X150.129 Y148.350 E0.03876
G1 X149.465 Y148.567 E0.02191
G1 X148.860 Y148.710 E0.01951
G1 X147.711 Y148.835 E0.03623
G1 X87.317 Y148.835 E1.89361
G1 X86.541 Y148.772 E0.02441
G1 X85.754 Y148.626 E0.02510
G1 X85.049 Y148.414 E0.02307
G1 X84.354 Y148.127 E0.02359
G1 X83.682 Y147.764 E0.02394
G1 X83.026 Y147.314 E0.02494
G1 X82.489 Y146.857 E0.02211
G1 X81.980 Y146.334 E0.02288
G1 X81.233 Y145.317 E0.03958
G1 X80.934 Y144.770 E0.01957
G1 X80.658 Y144.152 E0.02120
G1 X80.293 Y142.877 E0.04157
G1 X80.199 Y142.207 E0.02123
G1 X80.166 Y141.632 E0.01805
G1 X80.164 Y93.435 E1.51120
G1 X80.210 Y92.684 E0.02357
G1 X80.325 Y91.967 E0.02277
G1 X80.535 Y91.198 E0.02499
G1 X80.801 Y90.508 E0.02320
G1 X81.166 Y89.801 E0.02494
G1 X81.530 Y89.235 E0.02110
G1 X82.076 Y88.562 E0.02715
G1 X82.577 Y88.061 E0.02223
G1 X83.223 Y87.541 E0.02601
G1 X83.668 Y87.248 E0.01669
G1 X83.875 Y87.563 F9000.000
G1 F1200.000
G1 X85.000 Y87.005 E0.03937
G1 X85.644 Y86.794 E0.02126
G1 X86.215 Y86.659 E0.01838
G1 X87.299 Y86.542 E0.03419
G1 X147.689 Y86.543 E1.89349
G1 X148.364 Y86.595 E0.02122
G1 X149.049 Y86.714 E0.02181
G1 X150.235 Y87.100 E0.03909
G1 X150.827 Y87.388 E0.02065
G1 X151.384 Y87.726 E0.02043
G1 X151.907 Y88.115 E0.02042
G1 X152.410 Y88.566 E0.02119
G1 X153.212 Y89.522 E0.03912
G1 X153.561 Y90.081 E0.02066
G1 X153.846 Y90.645 E0.01982
G1 X154.091 Y91.269 E0.02102
G1 X154.278 Y91.919 E0.02121
G1 X154.448 Y93.099 E0.03740
G1 X154.457 Y141.642 E1.52204
G1 X154.410 Y142.323 E0.02138
G1 X154.303 Y142.965 E0.02040
G1 X154.103 Y143.695 E0.02374
G1 X153.841 Y144.368 E0.02265
G1 X153.502 Y145.020 E0.02303
G1 X153.146 Y145.570 E0.02053
G1 X152.638 Y146.193 E0.02521
G1 X152.164 Y146.665 E0.02097
G1 X151.548 Y147.160 E0.02478
G1 X151.046 Y147.490 E0.01884
G1 X150.000 Y147.995 E0.03642
G1 X149.356 Y148.206 E0.02126
G1 X148.785 Y148.341 E0.01838
G1 X147.701 Y148.458 E0.03419
G1 X87.325 Y148.458 E1.89305
G1 X86.582 Y148.397 E0.02338
G1 X85.834 Y148.257 E0.02385
G1 X85.168 Y148.056 E0.02183
G1 X84.507 Y147.783 E0.02241
G1 X83.871 Y147.437 E0.02269
G1 X83.248 Y147.009 E0.02371
G1 X82.741 Y146.576 E0.02090
G1 X82.260 Y146.081 E0.02164
G1 X81.558 Y145.125 E0.03721
G1 X81.275 Y144.609 E0.01844
G1 X81.008 Y144.011 E0.02054
G1 X80.665 Y142.812 E0.03910
G1 X80.573 Y142.162 E0.02057
G1 X80.543 Y141.616 E0.01715
G1 X80.541 Y93.441 E1.51052
G1 X80.586 Y92.717 E0.02273
G1 X80.692 Y92.057 E0.02097
G1 X80.897 Y91.307 E0.02438
G1 X81.141 Y90.671 E0.02134
G1 X81.497 Y89.981 E0.02434
G1 X81.830 Y89.464 E0.01928
G1 X82.362 Y88.808 E0.02650
G1 X82.836 Y88.335 E0.02098
G1 X83.452 Y87.840 E0.02478
G1 X83.825 Y87.595 E0.01398
G1 X84.031 Y87.911 F9000.000
G1 F1200.000
G1 X84.151 Y87.832 E0.00447
G1 X85.129 Y87.359 E0.03409
G1 X85.754 Y87.155 E0.02061
G1 X86.289 Y87.029 E0.01725
G1 X87.309 Y86.920 E0.03216
G1 X147.682 Y86.920 E1.89294
G1 X148.325 Y86.970 E0.02024
G1 X148.971 Y87.083 E0.02055
G1 X150.082 Y87.444 E0.03661
G1 X150.654 Y87.723 E0.01996
G1 X151.181 Y88.043 E0.01933
G1 X151.674 Y88.412 E0.01930
G1 X152.147 Y88.838 E0.01997
G1 X152.899 Y89.733 E0.03664
G1 X153.236 Y90.273 E0.01998
G1 X153.506 Y90.807 E0.01873
G1 X153.737 Y91.398 E0.01990
G1 X153.912 Y92.010 E0.01997
G1 X154.073 Y93.139 E0.03576
G1 X154.080 Y141.623 E1.52019
G1 X154.036 Y142.271 E0.02035
G1 X153.937 Y142.875 E0.01918
G1 X153.742 Y143.586 E0.02312
G1 X153.501 Y144.203 E0.02078
G1 X153.171 Y144.838 E0.02243
G1 X152.847 Y145.339 E0.01871
G1 X152.352 Y145.946 E0.02457
G1 X151.906 Y146.390 E0.01973
G1 X151.319 Y146.859 E0.02354
G1 X150.849 Y147.168 E0.01762
G1 X149.871 Y147.641 E0.03409
G1 X149.246 Y147.845 E0.02061
G1 X148.711 Y147.971 E0.01725
G1 X147.691 Y148.080 E0.03216
G1 X87.332 Y148.080 E1.89250
G1 X86.641 Y148.025 E0.02173
G1 X85.914 Y147.888 E0.02322
G1 X85.303 Y147.704 E0.02000
G1 X84.661 Y147.438 E0.02180
G1 X84.061 Y147.111 E0.02143
G1 X83.470 Y146.704 E0.02248
G1 X82.993 Y146.296 E0.01970
G1 X82.540 Y145.828 E0.02041
G1 X81.882 Y144.932 E0.03486
G1 X81.616 Y144.448 E0.01732
G1 X81.358 Y143.869 E0.01987
G1 X81.036 Y142.746 E0.03662
G1 X80.948 Y142.118 E0.01990
G1 X80.919 Y141.601 E0.01623
G1 X80.918 Y93.446 E1.50985
G1 X80.962 Y92.750 E0.02189
G1 X81.058 Y92.146 E0.01917
G1 X81.258 Y91.415 E0.02376
G1 X81.481 Y90.835 E0.01949
G1 X81.828 Y90.163 E0.02373
G1 X82.141 Y89.677 E0.01810
G1 X82.648 Y89.053 E0.02521
G1 X83.094 Y88.610 E0.01973
G1 X83.681 Y88.141 E0.02354
G1 X83.981 Y87.944 E0.01127
G1 X84.187 Y88.259 F9000.000
G1 F1200.000
G1 X84.346 Y88.155 E0.00596
G1 X85.281 Y87.705 E0.03253
G1 X85.862 Y87.516 E0.01916
G1 X86.364 Y87.399 E0.01614
G1 X87.319 Y87.297 E0.03013
G1 X147.674 Y87.297 E1.89239
G1 X148.286 Y87.346 E0.01925
G1 X148.892 Y87.453 E0.01930
G1 X149.928 Y87.789 E0.03414
G1 X150.481 Y88.059 E0.01928
G1 X150.963 Y88.351 E0.01768
G1 X151.429 Y88.698 E0.01820
G1 X151.885 Y89.109 E0.01927
G1 X152.586 Y89.944 E0.03417
G1 X152.912 Y90.466 E0.01929
G1 X153.165 Y90.968 E0.01764
G1 X153.377 Y91.510 E0.01824
G1 X153.546 Y92.101 E0.01928
G1 X153.697 Y93.178 E0.03412
G1 X153.703 Y141.605 E1.51837
G1 X153.662 Y142.220 E0.01933
G1 X153.571 Y142.785 E0.01795
G1 X153.381 Y143.477 E0.02249
G1 X153.162 Y144.039 E0.01891
G1 X152.841 Y144.656 E0.02183
G1 X152.548 Y145.109 E0.01690
G1 X152.066 Y145.700 E0.02392
G1 X151.648 Y146.115 E0.01847
G1 X151.091 Y146.559 E0.02231
G1 X150.654 Y146.845 E0.01640
G1 X149.719 Y147.295 E0.03253
G1 X149.138 Y147.484 E0.01916
G1 X148.636 Y147.601 E0.01614
G1 X147.681 Y147.703 E0.03013
G1 X87.340 Y147.703 E1.89195
G1 X86.701 Y147.653 E0.02009
G1 X85.993 Y147.520 E0.02258
G1 X85.439 Y147.352 E0.01817
G1 X84.814 Y147.094 E0.02119
G1 X84.267 Y146.795 E0.01956
G1 X83.692 Y146.400 E0.02186
G1 X83.245 Y146.016 E0.01847
G1 X82.820 Y145.575 E0.01919
G1 X82.206 Y144.739 E0.03253
G1 X81.957 Y144.287 E0.01618
G1 X81.708 Y143.728 E0.01921
G1 X81.408 Y142.681 E0.03415
G1 X81.322 Y142.074 E0.01923
G1 X81.296 Y141.586 E0.01531
G1 X81.295 Y93.453 E1.50919
G1 X81.337 Y92.783 E0.02105
G1 X81.425 Y92.236 E0.01737
G1 X81.619 Y91.524 E0.02313
G1 X81.829 Y90.981 E0.01826
G1 X82.159 Y90.344 E0.02248
G1 X82.452 Y89.891 E0.01692
G1 X82.934 Y89.300 E0.02392
G1 X83.352 Y88.885 E0.01847
G1 X83.909 Y88.441 E0.02231
G1 X84.137 Y88.292 E0.00856
G1 X85.410 Y88.059 F9000.000
G1 F1200.000
G1 X85.971 Y87.877 E0.01850
G1 X86.437 Y87.769 E0.01501
G1 X87.329 Y87.674 E0.02812
G1 X147.667 Y87.674 E1.89184
G1 X148.230 Y87.719 E0.01771
G1 X148.814 Y87.822 E0.01860
G1 X149.775 Y88.134 E0.03167
G1 X150.307 Y88.394 E0.01859
G1 X150.759 Y88.669 E0.01658
G1 X151.183 Y88.984 E0.01656
G1 X151.623 Y89.381 E0.01859
G1 X152.273 Y90.155 E0.03169
G1 X152.587 Y90.658 E0.01860
G1 X152.824 Y91.129 E0.01654
G1 X153.016 Y91.622 E0.01659
G1 X153.180 Y92.192 E0.01859
G1 X153.320 Y93.192 E0.03165
G1 X153.327 Y141.586 E1.51737
G1 X153.287 Y142.186 E0.01886
G1 X153.204 Y142.695 E0.01616
G1 X153.020 Y143.367 E0.02187
G1 X152.823 Y143.874 E0.01704
G1 X152.511 Y144.474 E0.02122
G1 X152.238 Y144.895 E0.01571
G1 X151.781 Y145.454 E0.02264
G1 X151.390 Y145.839 E0.01722
G1 X150.864 Y146.258 E0.02108
G1 X150.458 Y146.522 E0.01519
G1 X149.590 Y146.941 E0.03021
G1 X149.029 Y147.123 E0.01850
G1 X148.563 Y147.231 E0.01501
G1 X147.671 Y147.326 E0.02812
G1 X87.347 Y147.326 E1.89141
G1 X86.761 Y147.280 E0.01844
G1 X86.073 Y147.151 E0.02194
G1 X85.574 Y147.000 E0.01635
G1 X84.967 Y146.749 E0.02058
G1 X84.472 Y146.479 E0.01768
G1 X83.915 Y146.095 E0.02123
G1 X83.511 Y145.748 E0.01670
G1 X83.100 Y145.323 E0.01852
G1 X82.530 Y144.546 E0.03021
G1 X82.298 Y144.126 E0.01504
G1 X82.058 Y143.586 E0.01853
G1 X81.779 Y142.615 E0.03168
G1 X81.697 Y142.029 E0.01855
G1 X81.673 Y141.571 E0.01438
G1 X81.672 Y93.459 E1.50854
G1 X81.713 Y92.816 E0.02020
G1 X81.791 Y92.325 E0.01558
G1 X81.980 Y91.633 E0.02251
G1 X82.169 Y91.145 E0.01638
G1 X82.489 Y90.526 E0.02186
G1 X82.762 Y90.105 E0.01572
G1 X83.219 Y89.546 E0.02264
G1 X83.610 Y89.161 E0.01722
G1 X84.136 Y88.742 E0.02108
G1 X84.542 Y88.478 E0.01519
G1 X85.356 Y88.085 E0.02833
G1 X85.667 Y88.769 F9000.000
G1 F1200.000
G1 X86.188 Y88.599 E0.01716
G1 X86.583 Y88.509 E0.01273
G1 X87.349 Y88.428 E0.02414
G1 X147.652 Y88.428 E1.89076
G1 X148.117 Y88.464 E0.01461
G1 X148.657 Y88.560 E0.01720
G1 X149.468 Y88.823 E0.02672
G1 X149.961 Y89.064 E0.01720
G1 X150.338 Y89.294 E0.01385
G1 X150.692 Y89.556 E0.01382
G1 X151.099 Y89.923 E0.01720
G1 X151.647 Y90.577 E0.02674
G1 X151.938 Y91.042 E0.01721
G1 X152.135 Y91.436 E0.01381
G1 X152.296 Y91.847 E0.01385
G1 X152.448 Y92.375 E0.01720
G1 X152.566 Y93.218 E0.02671
G1 X152.573 Y141.548 E1.51536
G1 X152.535 Y142.118 E0.01790
G1 X152.468 Y142.534 E0.01322
G1 X152.298 Y143.148 E0.01999
G1 X152.144 Y143.544 E0.01332
G1 X151.850 Y144.110 E0.01998
G1 X151.618 Y144.465 E0.01330
G1 X151.211 Y144.959 E0.02006
G1 X150.876 Y145.287 E0.01470
G1 X150.410 Y145.655 E0.01863
G1 X150.068 Y145.876 E0.01278
G1 X149.333 Y146.231 E0.02560
G1 X148.812 Y146.401 E0.01716
G1 X148.417 Y146.491 E0.01273
G1 X147.651 Y146.572 E0.02414
G1 X87.362 Y146.572 E1.89033
G1 X86.879 Y146.535 E0.01517
G1 X86.252 Y146.418 E0.02001
G1 X85.845 Y146.296 E0.01332
G1 X85.274 Y146.060 E0.01936
G1 X84.884 Y145.847 E0.01394
G1 X84.359 Y145.485 E0.01998
G1 X84.041 Y145.211 E0.01316
G1 X83.661 Y144.817 E0.01718
G1 X83.178 Y144.159 E0.02560
G1 X82.980 Y143.804 E0.01273
G1 X82.757 Y143.304 E0.01717
G1 X82.522 Y142.484 E0.02673
G1 X82.446 Y141.941 E0.01719
G1 X82.427 Y141.544 E0.01249
G1 X82.426 Y93.471 E1.50728
G1 X82.465 Y92.883 E0.01848
G1 X82.532 Y92.466 E0.01324
G1 X82.702 Y91.852 E0.01999
G1 X82.856 Y91.456 E0.01332
G1 X83.150 Y90.890 E0.01998
G1 X83.382 Y90.535 E0.01330
G1 X83.789 Y90.041 E0.02006
G1 X84.124 Y89.713 E0.01470
G1 X84.590 Y89.345 E0.01863
G1 X84.932 Y89.124 E0.01278
G1 X85.613 Y88.795 E0.02372
G1 X85.776 Y89.133 F9000.000
G1 F1200.000
G1 X86.296 Y88.961 E0.01715
G1 X86.656 Y88.879 E0.01157
G1 X87.359 Y88.805 E0.02218
G1 X147.645 Y88.805 E1.89023
G1 X148.061 Y88.837 E0.01307
G1 X148.579 Y88.929 E0.01649
G1 X149.314 Y89.168 E0.02425
G1 X149.787 Y89.399 E0.01650
G1 X150.120 Y89.602 E0.01223
G1 X150.446 Y89.843 E0.01271
G1 X150.837 Y90.195 E0.01649
G1 X151.335 Y90.788 E0.02426
G1 X151.613 Y91.234 E0.01650
G1 X151.794 Y91.597 E0.01270
G1 X151.936 Y91.960 E0.01223
G1 X152.081 Y92.466 E0.01650
G1 X152.189 Y93.231 E0.02424
G1 X152.197 Y141.529 E1.51435
G1 X152.160 Y142.083 E0.01741
G1 X152.097 Y142.462 E0.01203
G1 X151.937 Y143.038 E0.01873
G1 X151.797 Y143.397 E0.01210
G1 X151.520 Y143.927 E0.01872
G1 X151.309 Y144.249 E0.01209
G1 X150.927 Y144.710 E0.01878
G1 X150.621 Y145.010 E0.01344
G1 X150.184 Y145.353 E0.01741
G1 X149.874 Y145.553 E0.01158
G1 X149.204 Y145.877 E0.02332
G1 X148.704 Y146.039 E0.01648
G1 X148.344 Y146.121 E0.01157
G1 X147.641 Y146.195 E0.02218
G1 X87.369 Y146.195 E1.88980
G1 X86.937 Y146.162 E0.01356
G1 X86.350 Y146.054 E0.01874
G1 X85.980 Y145.943 E0.01210
G1 X85.428 Y145.715 E0.01873
G1 X85.089 Y145.530 E0.01209
