; generated by PrusaSlicer 2.2.0+ on 2020-10-31 at 22:16:40 UTC

; 

; external perimeters extrusion width = 0.45mm
; perimeters extrusion width = 0.45mm
; infill extrusion width = 0.45mm
; solid infill extrusion width = 0.45mm
; top infill extrusion width = 0.40mm
; first layer extrusion width = 0.42mm

M201 X500 Y500 Z100 E5000 ; sets maximum accelerations, mm/sec^2
M203 X500 Y500 Z10 E60 ; sets maximum feedrates, mm/sec
M204 P500 R1000 T500 ; sets acceleration (P, T) and retract acceleration (R), mm/sec^2
M205 X8.00 Y8.00 Z0.40 E5.00 ; sets the jerk limits, mm/sec
M205 S0 T0 ; sets the minimum extruding and travel feed rate, mm/sec
M107
G90 ; use absolute coordinates
M83 ; extruder relative mode
M104 S200 ; set extruder temp
M140 S50 ; set bed temp
M190 S50 ; wait for bed temp
M109 S200 ; wait for extruder temp
G28 ; home all
G1 Z2 F240
G1 X2 Y10 F3000
G1 Z0.28 F240
G92 E0.0
G1 Y190 E15.0 F1500.0 ; intro line
G1 X2.3 F5000
G1 Y10 E30 F1200.0 ; intro line
G92 E0.0
G21 ; set units to millimeters
G90 ; use absolute coordinates
M83 ; use relative distances for extrusion
; Filament gcode
;BEFORE_LAYER_CHANGE
;0.2


G1 E-5.00000 F3600.00000
G1 Z0.200 F9000.000
;AFTER_LAYER_CHANGE
;0.2
G1 X109.049 Y107.948
G1 E5.00000 F2400.00000
G1 F1200.000
G1 X110.976 Y106.541 E0.07484
G1 X112.574 Y105.746 E0.05595
G1 X114.597 Y105.086 E0.06672
G1 X115.607 Y104.887 E0.03229
G1 X116.380 Y104.801 E0.02437
G1 X118.475 Y104.793 E0.06569
G1 X120.304 Y105.062 E0.05798
G1 X122.411 Y105.736 E0.06935
G1 X123.108 Y106.046 E0.02392
G1 X124.034 Y106.550 E0.03306
G1 X125.802 Y107.826 E0.06835
G1 X127.044 Y109.040 E0.05446
G1 X128.386 Y110.865 E0.07103
G1 X128.772 Y111.534 E0.02421
G1 X129.221 Y112.482 E0.03288
G1 X129.883 Y114.495 E0.06646
G1 X130.193 Y116.265 E0.05634
G1 X130.197 Y118.708 E0.07660
G1 X129.919 Y120.374 E0.05296
G1 X129.251 Y122.447 E0.06829
G1 X128.813 Y123.390 E0.03259
G1 X128.427 Y124.068 E0.02447
G1 X127.149 Y125.834 E0.06835
G1 X125.941 Y127.059 E0.05395
G1 X124.131 Y128.388 E0.07039
G1 X123.463 Y128.774 E0.02421
G1 X122.518 Y129.221 E0.03275
G1 X120.505 Y129.883 E0.06646
G1 X118.733 Y130.193 E0.05641
G1 X116.296 Y130.197 E0.07642
G1 X114.626 Y129.919 E0.05308
G1 X112.553 Y129.251 E0.06829
G1 X111.612 Y128.813 E0.03253
G1 X110.936 Y128.430 E0.02438
G1 X109.165 Y127.150 E0.06850
G1 X107.934 Y125.934 E0.05425
G1 X106.611 Y124.130 E0.07014
G1 X106.224 Y123.460 E0.02425
G1 X105.779 Y122.518 E0.03265
G1 X105.115 Y120.501 E0.06659
G1 X104.806 Y118.729 E0.05641
G1 X104.803 Y116.296 E0.07629
G1 X105.080 Y114.633 E0.05286
G1 X105.749 Y112.554 E0.06845
G1 X106.187 Y111.612 E0.03258
G1 X106.570 Y110.936 E0.02438
G1 X107.848 Y109.169 E0.06837
G1 X109.007 Y107.991 E0.05180
G1 X109.274 Y108.255 F9000.000
G1 F1200.000
G1 X111.171 Y106.864 E0.07376
G1 X112.695 Y106.103 E0.05340
G1 X114.700 Y105.448 E0.06612
G1 X115.668 Y105.259 E0.03094
G1 X116.396 Y105.177 E0.02298
G1 X118.475 Y105.170 E0.06517
G1 X120.210 Y105.427 E0.05500
G1 X122.287 Y106.092 E0.06837
G1 X122.945 Y106.386 E0.02258
G1 X123.829 Y106.866 E0.03155
G1 X125.574 Y108.127 E0.06750
G1 X126.756 Y109.285 E0.05189
G1 X128.077 Y111.081 E0.06989
G1 X128.440 Y111.712 E0.02284
G1 X128.869 Y112.616 E0.03137
G1 X129.525 Y114.612 E0.06588
G1 X129.818 Y116.298 E0.05363
G1 X129.821 Y118.677 E0.07460
G1 X129.557 Y120.270 E0.05063
G1 X128.897 Y122.317 E0.06745
G1 X128.476 Y123.220 E0.03123
G1 X128.114 Y123.857 E0.02298
G1 X126.852 Y125.601 E0.06750
G1 X125.698 Y126.771 E0.05154
G1 X123.919 Y128.077 E0.06918
G1 X123.288 Y128.440 E0.02284
G1 X122.384 Y128.869 E0.03137
G1 X120.388 Y129.525 E0.06588
G1 X118.700 Y129.818 E0.05370
G1 X116.323 Y129.821 E0.07454
G1 X114.730 Y129.557 E0.05062
G1 X112.683 Y128.897 E0.06745
G1 X111.783 Y128.477 E0.03116
G1 X111.147 Y128.117 E0.02291
G1 X109.398 Y126.853 E0.06764
G1 X108.222 Y125.691 E0.05184
G1 X106.923 Y123.918 E0.06892
G1 X106.559 Y123.285 E0.02290
G1 X106.131 Y122.384 E0.03127
G1 X105.474 Y120.384 E0.06600
G1 X105.182 Y118.700 E0.05358
G1 X105.179 Y116.323 E0.07454
G1 X105.442 Y114.738 E0.05036
G1 X106.103 Y112.684 E0.06766
G1 X106.523 Y111.783 E0.03120
G1 X106.883 Y111.147 E0.02291
G1 X108.147 Y109.398 E0.06764
G1 X109.232 Y108.298 E0.04846
G1 E-3.50000 F3600.00000
G1 F7200.000
G1 X111.171 Y106.864 E-1.14555
G1 X111.698 Y106.601 E-0.27945
G1 E-0.07500 F3600.00000
G1 X108.923 Y105.717 F9000.000
G1 E5.00000 F2400.00000
G1 F1200.000
G1 X109.216 Y105.385 E0.01386
G1 X109.713 Y105.010 E0.01953
G1 X110.680 Y104.463 E0.03483
G1 X111.864 Y103.899 E0.04113
G1 X112.576 Y103.688 E0.02327
G1 X112.925 Y103.655 E0.01100
G1 X113.826 Y103.262 E0.03081
G1 X115.006 Y103.000 E0.03791
G1 X116.324 Y102.822 E0.04171
G1 X117.237 Y102.869 E0.02866
G1 X117.490 Y102.927 E0.00812
G1 X118.082 Y102.817 E0.01890
G1 X119.011 Y102.867 E0.02914
G1 X119.999 Y103.001 E0.03127
G1 X121.083 Y103.228 E0.03474
G1 X121.793 Y103.514 E0.02400
G1 X121.976 Y103.625 E0.00672
G1 X122.209 Y103.642 E0.00732
G1 X122.898 Y103.818 E0.02229
G1 X124.336 Y104.471 E0.04952
G1 X125.477 Y105.146 E0.04156
G1 X125.987 Y105.656 E0.02262
G1 X126.148 Y105.723 E0.00548
G1 X126.929 Y106.202 E0.02872
G1 X127.783 Y106.977 E0.03616
G1 X128.654 Y107.886 E0.03946
G1 X129.176 Y108.674 E0.02965
G1 X129.263 Y108.874 E0.00683
G1 X129.893 Y109.579 E0.02965
G1 X130.543 Y110.692 E0.04041
G1 X131.200 Y112.141 E0.04989
G1 X131.348 Y112.810 E0.02148
G1 X131.362 Y112.981 E0.00538
G1 X131.490 Y113.190 E0.00770
G1 X131.732 Y113.810 E0.02086
G1 X132.005 Y115.035 E0.03934
G1 X132.177 Y116.364 E0.04201
G1 X132.159 Y117.064 E0.02196
G1 X132.077 Y117.434 E0.01189
G1 X132.121 Y117.619 E0.00599
G1 X132.182 Y118.568 E0.02980
G1 X132.053 Y119.667 E0.03470
G1 X131.798 Y121.003 E0.04264
G1 X131.493 Y121.779 E0.02614
G1 X131.375 Y121.974 E0.00716
G1 X131.358 Y122.208 E0.00733
G1 X131.184 Y122.892 E0.02214
G1 X130.596 Y124.206 E0.04514
G1 X129.861 Y125.467 E0.04578
G1 X129.344 Y125.986 E0.02295
G1 X129.277 Y126.148 E0.00551
G1 X128.798 Y126.929 E0.02871
G1 X128.027 Y127.780 E0.03602
G1 X127.060 Y128.709 E0.04203
G1 X126.156 Y129.217 E0.03252
G1 X126.059 Y129.332 E0.00472
G1 X125.422 Y129.892 E0.02659
G1 X124.308 Y130.543 E0.04044
G1 X122.822 Y131.212 E0.05113
G1 X122.191 Y131.348 E0.02023
G1 X122.019 Y131.362 E0.00540
G1 X121.809 Y131.490 E0.00772
G1 X121.218 Y131.724 E0.01994
G1 X119.963 Y132.005 E0.04031
G1 X118.656 Y132.176 E0.04133
G1 X117.918 Y132.156 E0.02316
G1 X117.563 Y132.078 E0.01140
G1 X117.380 Y132.121 E0.00588
G1 X116.432 Y132.182 E0.02980
G1 X115.333 Y132.053 E0.03470
G1 X113.997 Y131.798 E0.04264
G1 X113.221 Y131.493 E0.02614
G1 X113.025 Y131.375 E0.00717
G1 X112.790 Y131.357 E0.00740
G1 X112.105 Y131.183 E0.02217
G1 X110.799 Y130.597 E0.04488
G1 X109.595 Y129.910 E0.04347
G1 X109.022 Y129.344 E0.02525
G1 X108.784 Y129.246 E0.00806
G1 X108.024 Y128.768 E0.02814
G1 X107.224 Y128.030 E0.03414
G1 X106.356 Y127.130 E0.03920
G1 X105.831 Y126.344 E0.02963
G1 X105.731 Y126.113 E0.00789
G1 X105.623 Y126.020 E0.00448
G1 X105.071 Y125.379 E0.02651
G1 X104.466 Y124.325 E0.03812
G1 X103.788 Y122.822 E0.05168
G1 X103.652 Y122.191 E0.02025
G1 X103.638 Y122.019 E0.00541
G1 X103.511 Y121.810 E0.00768
G1 X103.277 Y121.219 E0.01994
G1 X102.995 Y119.964 E0.04032
G1 X102.824 Y118.656 E0.04136
G1 X102.844 Y117.918 E0.02316
G1 X102.922 Y117.563 E0.01140
G1 X102.879 Y117.380 E0.00588
G1 X102.818 Y116.432 E0.02980
G1 X102.947 Y115.334 E0.03465
G1 X103.191 Y114.042 E0.04123
G1 X103.503 Y113.232 E0.02721
G1 X103.625 Y113.027 E0.00748
G1 X103.643 Y112.789 E0.00748
G1 X103.817 Y112.105 E0.02215
G1 X104.403 Y110.799 E0.04487
G1 X105.090 Y109.595 E0.04347
G1 X105.656 Y109.022 E0.02525
G1 X105.754 Y108.784 E0.00806
G1 X106.232 Y108.024 E0.02815
G1 X106.977 Y107.217 E0.03443
G1 X107.941 Y106.301 E0.04169
G1 X108.669 Y105.825 E0.02729
G1 X108.868 Y105.740 E0.00678
G1 X109.150 Y106.032 F9000.000
G1 F1200.000
G1 X109.460 Y105.674 E0.01486
G1 X109.930 Y105.318 E0.01848
G1 X110.848 Y104.801 E0.03304
G1 X112.012 Y104.246 E0.04045
G1 X112.662 Y104.056 E0.02122
G1 X113.061 Y104.022 E0.01254
G1 X113.183 Y103.946 E0.00451
G1 X113.924 Y103.626 E0.02532
G1 X115.064 Y103.373 E0.03661
G1 X116.357 Y103.199 E0.04089
G1 X117.198 Y103.244 E0.02641
G1 X117.481 Y103.313 E0.00912
G1 X118.086 Y103.195 E0.01936
G1 X118.983 Y103.243 E0.02815
G1 X119.928 Y103.371 E0.02991
G1 X120.989 Y103.594 E0.03398
G1 X121.634 Y103.857 E0.02184
G1 X121.858 Y103.997 E0.00828
G1 X122.137 Y104.013 E0.00876
G1 X122.758 Y104.168 E0.02009
G1 X124.171 Y104.810 E0.04865
G1 X125.263 Y105.457 E0.03980
G1 X125.775 Y105.979 E0.02291
G1 X125.968 Y106.055 E0.00652
G1 X126.689 Y106.494 E0.02647
G1 X127.516 Y107.242 E0.03496
G1 X128.369 Y108.134 E0.03870
G1 X128.850 Y108.865 E0.02744
G1 X128.955 Y109.116 E0.00852
G1 X129.061 Y109.204 E0.00433
G1 X129.577 Y109.785 E0.02436
G1 X130.203 Y110.857 E0.03892
G1 X130.848 Y112.278 E0.04893
G1 X130.976 Y112.873 E0.01910
G1 X130.991 Y113.101 E0.00715
G1 X131.146 Y113.347 E0.00914
G1 X131.368 Y113.907 E0.01887
G1 X131.632 Y115.092 E0.03807
G1 X131.801 Y116.397 E0.04127
G1 X131.783 Y117.032 E0.01993
G1 X131.688 Y117.439 E0.01310
G1 X131.746 Y117.665 E0.00729
G1 X131.805 Y118.542 E0.02757
G1 X131.681 Y119.603 E0.03351
G1 X131.431 Y120.914 E0.04185
G1 X131.149 Y121.622 E0.02389
G1 X131.003 Y121.857 E0.00867
G1 X130.987 Y122.135 E0.00874
G1 X130.833 Y122.753 E0.01997
G1 X130.256 Y124.043 E0.04429
G1 X129.548 Y125.255 E0.04401
G1 X129.021 Y125.774 E0.02319
G1 X128.945 Y125.968 E0.00654
G1 X128.507 Y126.689 E0.02647
G1 X127.761 Y127.512 E0.03483
G1 X126.817 Y128.419 E0.04104
G1 X125.909 Y128.923 E0.03254
G1 X125.795 Y129.061 E0.00562
G1 X125.215 Y129.576 E0.02433
G1 X124.143 Y130.203 E0.03894
G1 X122.722 Y130.848 E0.04894
G1 X122.127 Y130.976 E0.01910
G1 X121.899 Y130.991 E0.00715
G1 X121.653 Y131.146 E0.00914
G1 X121.093 Y131.368 E0.01887
G1 X119.906 Y131.632 E0.03813
G1 X118.623 Y131.800 E0.04059
G1 X117.949 Y131.780 E0.02112
G1 X117.557 Y131.689 E0.01262
G1 X117.335 Y131.746 E0.00718
G1 X116.458 Y131.805 E0.02756
G1 X115.397 Y131.681 E0.03351
G1 X114.086 Y131.431 E0.04185
G1 X113.378 Y131.149 E0.02389
G1 X113.143 Y131.003 E0.00868
G1 X112.862 Y130.987 E0.00880
G1 X112.244 Y130.832 E0.02000
G1 X110.962 Y130.257 E0.04405
G1 X109.805 Y129.596 E0.04178
G1 X109.234 Y129.022 E0.02538
G1 X108.968 Y128.917 E0.00896
G1 X108.267 Y128.479 E0.02593
G1 X107.492 Y127.764 E0.03305
G1 X106.640 Y126.881 E0.03848
G1 X106.157 Y126.152 E0.02741
G1 X106.043 Y125.880 E0.00924
G1 X105.895 Y125.759 E0.00600
G1 X105.389 Y125.175 E0.02423
G1 X104.806 Y124.160 E0.03671
G1 X104.152 Y122.723 E0.04950
G1 X104.024 Y122.127 E0.01912
G1 X104.009 Y121.899 E0.00716
G1 X103.854 Y121.654 E0.00910
G1 X103.633 Y121.094 E0.01887
G1 X103.368 Y119.907 E0.03814
G1 X103.200 Y118.623 E0.04062
G1 X103.220 Y117.949 E0.02112
G1 X103.311 Y117.557 E0.01262
G1 X103.254 Y117.335 E0.00719
G1 X103.195 Y116.458 E0.02757
G1 X103.319 Y115.398 E0.03347
G1 X103.559 Y114.130 E0.04047
G1 X103.847 Y113.386 E0.02500
G1 X103.997 Y113.144 E0.00891
G1 X104.013 Y112.862 E0.00887
G1 X104.168 Y112.244 E0.01998
G1 X104.743 Y110.962 E0.04405
G1 X105.404 Y109.805 E0.04178
G1 X105.978 Y109.234 E0.02538
G1 X106.083 Y108.968 E0.00896
G1 X106.521 Y108.267 E0.02593
G1 X107.241 Y107.486 E0.03328
G1 X108.188 Y106.587 E0.04094
G1 X108.858 Y106.152 E0.02507
G1 X109.094 Y106.055 E0.00800
G1 X109.377 Y106.348 F9000.000
G1 F1200.000
G1 X109.705 Y105.961 E0.01591
G1 X110.147 Y105.627 E0.01739
G1 X111.017 Y105.138 E0.03127
G1 X112.133 Y104.603 E0.03882
G1 X112.748 Y104.424 E0.02008
G1 X113.188 Y104.391 E0.01383
G1 X113.351 Y104.284 E0.00613
G1 X114.025 Y103.990 E0.02305
G1 X115.123 Y103.746 E0.03528
G1 X116.389 Y103.575 E0.04006
G1 X117.156 Y103.620 E0.02409
G1 X117.471 Y103.700 E0.01019
G1 X118.091 Y103.573 E0.01986
G1 X118.955 Y103.619 E0.02711
G1 X119.857 Y103.742 E0.02855
G1 X120.894 Y103.959 E0.03321
G1 X121.473 Y104.198 E0.01963
G1 X121.739 Y104.370 E0.00994
G1 X122.067 Y104.384 E0.01027
G1 X122.619 Y104.519 E0.01782
G1 X124.006 Y105.149 E0.04775
G1 X125.047 Y105.768 E0.03800
G1 X125.563 Y106.304 E0.02330
G1 X125.790 Y106.388 E0.00760
G1 X126.450 Y106.786 E0.02416
G1 X127.248 Y107.508 E0.03374
G1 X128.085 Y108.382 E0.03793
G1 X128.524 Y109.054 E0.02516
G1 X128.642 Y109.350 E0.01000
G1 X128.793 Y109.470 E0.00604
G1 X129.261 Y109.992 E0.02201
G1 X129.865 Y111.022 E0.03742
G1 X130.484 Y112.377 E0.04671
G1 X130.604 Y112.937 E0.01793
G1 X130.618 Y113.222 E0.00896
G1 X130.803 Y113.505 E0.01059
G1 X131.012 Y114.031 E0.01775
G1 X131.259 Y115.149 E0.03590
G1 X131.424 Y116.401 E0.03960
G1 X131.407 Y117.001 E0.01879
G1 X131.297 Y117.447 E0.01440
G1 X131.372 Y117.712 E0.00865
G1 X131.429 Y118.516 E0.02526
G1 X131.309 Y119.539 E0.03231
G1 X131.064 Y120.825 E0.04104
G1 X130.807 Y121.463 E0.02158
G1 X130.630 Y121.740 E0.01027
G1 X130.616 Y122.066 E0.01023
G1 X130.482 Y122.615 E0.01775
G1 X129.916 Y123.879 E0.04341
G1 X129.236 Y125.041 E0.04221
G1 X128.697 Y125.563 E0.02353
G1 X128.612 Y125.790 E0.00762
G1 X128.215 Y126.450 E0.02415
G1 X127.495 Y127.245 E0.03363
G1 X126.574 Y128.130 E0.04003
G1 X125.660 Y128.629 E0.03266
G1 X125.530 Y128.792 E0.00655
G1 X125.008 Y129.261 E0.02200
G1 X123.978 Y129.865 E0.03744
G1 X122.623 Y130.484 E0.04672
G1 X122.063 Y130.604 E0.01793
G1 X121.778 Y130.618 E0.00896
G1 X121.495 Y130.803 E0.01059
G1 X120.968 Y131.012 E0.01775
G1 X119.848 Y131.259 E0.03597
G1 X118.618 Y131.423 E0.03891
G1 X117.981 Y131.404 E0.01998
G1 X117.550 Y131.298 E0.01392
G1 X117.288 Y131.372 E0.00855
G1 X116.484 Y131.429 E0.02526
G1 X115.461 Y131.309 E0.03231
G1 X114.175 Y131.064 E0.04104
G1 X113.537 Y130.807 E0.02158
G1 X113.260 Y130.630 E0.01028
G1 X112.932 Y130.616 E0.01029
G1 X112.382 Y130.481 E0.01777
G1 X111.125 Y129.917 E0.04321
G1 X110.016 Y129.282 E0.04007
G1 X109.445 Y128.699 E0.02556
G1 X109.150 Y128.586 E0.00991
G1 X108.509 Y128.189 E0.02365
G1 X107.759 Y127.499 E0.03195
G1 X106.924 Y126.632 E0.03775
G1 X106.483 Y125.962 E0.02514
G1 X106.356 Y125.645 E0.01070
G1 X106.166 Y125.496 E0.00759
G1 X105.706 Y124.971 E0.02188
G1 X105.145 Y123.995 E0.03530
G1 X104.516 Y122.623 E0.04731
G1 X104.396 Y122.064 E0.01795
G1 X104.382 Y121.778 E0.00897
G1 X104.197 Y121.496 E0.01056
G1 X103.989 Y120.970 E0.01775
G1 X103.741 Y119.849 E0.03598
G1 X103.577 Y118.618 E0.03893
G1 X103.596 Y117.981 E0.01998
G1 X103.702 Y117.550 E0.01392
G1 X103.628 Y117.288 E0.00855
G1 X103.571 Y116.484 E0.02526
G1 X103.691 Y115.461 E0.03228
G1 X103.926 Y114.217 E0.03969
G1 X104.191 Y113.543 E0.02273
G1 X104.370 Y113.262 E0.01044
G1 X104.384 Y112.932 E0.01036
G1 X104.519 Y112.382 E0.01775
G1 X105.083 Y111.125 E0.04321
G1 X105.718 Y110.016 E0.04007
G1 X106.301 Y109.445 E0.02556
G1 X106.414 Y109.150 E0.00991
G1 X106.811 Y108.509 E0.02366
G1 X107.505 Y107.755 E0.03212
G1 X108.434 Y106.873 E0.04017
G1 X109.046 Y106.480 E0.02279
G1 X109.321 Y106.371 E0.00929
G1 X109.604 Y106.666 F9000.000
G1 F1200.000
G1 X109.950 Y106.248 E0.01700
G1 X110.364 Y105.935 E0.01627
G1 X111.185 Y105.476 E0.02950
G1 X112.281 Y104.950 E0.03813
G1 X112.831 Y104.792 E0.01793
G1 X113.316 Y104.762 E0.01525
G1 X113.521 Y104.621 E0.00780
G1 X114.125 Y104.354 E0.02070
G1 X115.181 Y104.118 E0.03393
G1 X116.421 Y103.951 E0.03921
G1 X117.112 Y103.995 E0.02172
G1 X117.461 Y104.089 E0.01134
G1 X118.098 Y103.951 E0.02042
G1 X118.927 Y103.995 E0.02605
G1 X119.787 Y104.112 E0.02719
G1 X120.799 Y104.324 E0.03242
G1 X121.309 Y104.538 E0.01736
G1 X121.621 Y104.744 E0.01171
G1 X122.000 Y104.755 E0.01188
G1 X122.480 Y104.870 E0.01549
G1 X123.822 Y105.478 E0.04619
G1 X124.831 Y106.078 E0.03682
G1 X125.352 Y106.630 E0.02377
G1 X125.615 Y106.722 E0.00876
G1 X126.211 Y107.078 E0.02177
G1 X126.980 Y107.774 E0.03251
G1 X127.800 Y108.629 E0.03715
G1 X128.195 Y109.241 E0.02283
G1 X128.328 Y109.586 E0.01159
G1 X128.527 Y109.738 E0.00785
G1 X128.946 Y110.201 E0.01959
G1 X129.526 Y111.189 E0.03593
G1 X130.120 Y112.477 E0.04448
G1 X130.232 Y112.999 E0.01673
G1 X130.245 Y113.344 E0.01084
G1 X130.461 Y113.664 E0.01209
G1 X130.655 Y114.156 E0.01659
G1 X130.886 Y115.207 E0.03374
G1 X131.047 Y116.406 E0.03792
G1 X131.030 Y116.968 E0.01762
