; generated by PrusaSlicer 2.2.0+ on 2020-10-31 at 20:48:26 UTC

; 

; external perimeters extrusion width = 0.45mm
; perimeters extrusion width = 0.45mm
; infill extrusion width = 0.45mm
; solid infill extrusion width = 0.45mm
; top infill extrusion width = 0.40mm
; first layer extrusion width = 0.42mm

M201 X500 Y500 Z100 E5000 ; sets maximum accelerations, mm/sec^2
M203 X500 Y500 Z10 E60 ; sets maximum feedrates, mm/sec
M204 P500 R1000 T500 ; sets acceleration (P, T) and retract acceleration (R), mm/sec^2
M205 X8.00 Y8.00 Z0.40 E5.00 ; sets the jerk limits, mm/sec
M205 S0 T0 ; sets the minimum extruding and travel feed rate, mm/sec
M107
G90 ; use absolute coordinates
M83 ; extruder relative mode
M104 S200 ; set extruder temp
M140 S50 ; set bed temp
M190 S50 ; wait for bed temp
M109 S200 ; wait for extruder temp
G28 ; home all
G1 Z2 F240
G1 X2 Y10 F3000
G1 Z0.28 F240
G92 E0.0
G1 Y190 E15.0 F1500.0 ; intro line
G1 X2.3 F5000
G1 Y10 E30 F1200.0 ; intro line
G92 E0.0
G21 ; set units to millimeters
G90 ; use absolute coordinates
M83 ; use relative distances for extrusion
; Filament gcode
;BEFORE_LAYER_CHANGE
;0.2


G1 E-5.00000 F3600.00000
G1 Z0.200 F9000.000
;AFTER_LAYER_CHANGE
;0.2
G1 X85.584 Y92.522
G1 E5.00000 F2400.00000
G1 F1200.000
G1 X86.141 Y91.552 E0.03507
G1 X86.861 Y90.742 E0.03397
G1 X87.551 Y90.204 E0.02743
G1 X88.479 Y89.717 E0.03287
G1 X89.489 Y89.420 E0.03301
G1 X90.336 Y89.325 E0.02672
G1 X144.609 Y89.325 E1.70167
G1 X145.495 Y89.416 E0.02795
G1 X146.512 Y89.713 E0.03320
G1 X147.450 Y90.205 E0.03323
G1 X148.149 Y90.751 E0.02780
G1 X148.850 Y91.539 E0.03308
G1 X149.385 Y92.455 E0.03325
G1 X149.687 Y93.285 E0.02770
G1 X149.865 Y94.337 E0.03345
G1 X149.876 Y140.383 E1.44374
G1 X149.755 Y141.438 E0.03329
G1 X149.410 Y142.492 E0.03478
G1 X148.857 Y143.451 E0.03472
G1 X148.139 Y144.258 E0.03385
G1 X147.449 Y144.796 E0.02743
G1 X146.521 Y145.283 E0.03287
G1 X145.511 Y145.580 E0.03301
G1 X144.664 Y145.675 E0.02672
G1 X90.384 Y145.675 E1.70191
G1 X89.281 Y145.536 E0.03487
G1 X88.418 Y145.257 E0.02842
G1 X87.477 Y144.746 E0.03359
G1 X86.613 Y144.016 E0.03547
G1 X85.972 Y143.199 E0.03255
G1 X85.559 Y142.420 E0.02766
G1 X85.240 Y141.416 E0.03301
G1 X85.124 Y140.371 E0.03297
G1 X85.123 Y94.689 E1.43235
G1 X85.241 Y93.581 E0.03493
G1 X85.565 Y92.579 E0.03302
G1 E-3.50000 F3600.00000
G1 F7200.000
G1 X86.141 Y91.552 E-0.55926
G1 X86.861 Y90.742 E-0.51468
G1 X87.444 Y90.288 E-0.35106
G1 E-0.07500 F3600.00000
G1 X86.495 Y88.107 F9000.000
G1 E5.00000 F2400.00000
G1 F1200.000
G1 X87.676 Y87.522 E0.04131
G1 X88.414 Y87.275 E0.02440
G1 X89.064 Y87.120 E0.02096
G1 X90.279 Y86.988 E0.03832
G1 X144.704 Y86.989 E1.70646
G1 X145.458 Y87.047 E0.02372
G1 X146.205 Y87.176 E0.02376
G1 X147.543 Y87.610 E0.04410
G1 X148.189 Y87.927 E0.02256
G1 X148.806 Y88.300 E0.02262
G1 X149.385 Y88.732 E0.02265
G1 X149.934 Y89.223 E0.02309
G1 X150.837 Y90.300 E0.04407
G1 X151.209 Y90.896 E0.02202
G1 X151.527 Y91.520 E0.02196
G1 X151.800 Y92.210 E0.02326
G1 X152.010 Y92.935 E0.02366
G1 X152.196 Y94.191 E0.03981
G1 X152.210 Y140.481 E1.45139
G1 X152.159 Y141.208 E0.02285
G1 X152.041 Y141.923 E0.02272
G1 X151.826 Y142.709 E0.02557
G1 X151.548 Y143.434 E0.02433
G1 X151.166 Y144.178 E0.02623
G1 X150.794 Y144.761 E0.02168
G1 X150.216 Y145.477 E0.02883
G1 X149.760 Y145.942 E0.02045
G1 X149.163 Y146.443 E0.02442
G1 X148.505 Y146.894 E0.02501
G1 X147.327 Y147.477 E0.04122
G1 X146.588 Y147.724 E0.02442
G1 X145.937 Y147.880 E0.02099
G1 X144.721 Y148.012 E0.03835
G1 X90.311 Y148.012 E1.70600
G1 X89.545 Y147.953 E0.02410
G1 X88.795 Y147.824 E0.02384
G1 X87.455 Y147.389 E0.04418
G1 X86.757 Y147.044 E0.02442
G1 X86.105 Y146.639 E0.02407
G1 X85.491 Y146.165 E0.02430
G1 X84.934 Y145.640 E0.02400
G1 X84.397 Y145.015 E0.02585
G1 X84.009 Y144.469 E0.02099
G1 X83.412 Y143.347 E0.03986
G1 X83.173 Y142.706 E0.02147
G1 X82.954 Y141.901 E0.02616
G1 X82.839 Y141.187 E0.02268
G1 X82.789 Y140.453 E0.02305
G1 X82.787 Y94.648 E1.43618
G1 X82.828 Y93.918 E0.02293
G1 X82.969 Y93.029 E0.02822
G1 X83.157 Y92.343 E0.02231
G1 X83.446 Y91.579 E0.02560
G1 X83.807 Y90.869 E0.02497
G1 X84.248 Y90.181 E0.02563
G1 X84.703 Y89.613 E0.02284
G1 X85.231 Y89.067 E0.02381
G1 X85.835 Y88.558 E0.02477
G1 X86.445 Y88.140 E0.02317
G1 X86.658 Y88.452 F9000.000
G1 F1200.000
G1 X87.807 Y87.876 E0.04032
G1 X88.525 Y87.636 E0.02373
G1 X89.139 Y87.490 E0.01979
G1 X90.289 Y87.365 E0.03626
G1 X144.696 Y87.366 E1.70591
G1 X145.420 Y87.422 E0.02275
G1 X146.127 Y87.545 E0.02251
G1 X147.389 Y87.955 E0.04160
G1 X148.015 Y88.262 E0.02187
G1 X148.602 Y88.618 E0.02153
G1 X149.153 Y89.029 E0.02154
G1 X149.672 Y89.495 E0.02187
G1 X150.524 Y90.511 E0.04159
G1 X150.885 Y91.088 E0.02134
G1 X151.187 Y91.682 E0.02089
G1 X151.445 Y92.340 E0.02214
G1 X151.644 Y93.027 E0.02243
G1 X151.821 Y94.232 E0.03818
G1 X151.833 Y140.461 E1.44950
G1 X151.785 Y141.156 E0.02183
G1 X151.675 Y141.833 E0.02152
G1 X151.465 Y142.601 E0.02496
G1 X151.208 Y143.271 E0.02249
G1 X150.835 Y143.998 E0.02562
G1 X150.482 Y144.549 E0.02051
G1 X149.929 Y145.232 E0.02757
G1 X149.497 Y145.671 E0.01931
G1 X148.928 Y146.148 E0.02327
G1 X148.303 Y146.575 E0.02372
G1 X147.195 Y147.124 E0.03878
G1 X146.477 Y147.364 E0.02375
G1 X145.862 Y147.510 E0.01982
G1 X144.711 Y147.635 E0.03629
G1 X90.318 Y147.635 E1.70546
G1 X89.600 Y147.580 E0.02258
G1 X88.873 Y147.455 E0.02313
G1 X87.610 Y147.044 E0.04165
G1 X86.948 Y146.718 E0.02314
G1 X86.327 Y146.334 E0.02288
G1 X85.743 Y145.884 E0.02311
G1 X85.200 Y145.373 E0.02339
G1 X84.689 Y144.776 E0.02464
G1 X84.324 Y144.261 E0.01979
G1 X83.761 Y143.203 E0.03758
G1 X83.534 Y142.598 E0.02025
G1 X83.321 Y141.812 E0.02556
G1 X83.212 Y141.136 E0.02146
G1 X83.166 Y140.434 E0.02204
G1 X83.164 Y94.653 E1.43544
G1 X83.202 Y93.968 E0.02153
G1 X83.340 Y93.099 E0.02759
G1 X83.513 Y92.468 E0.02051
G1 X83.795 Y91.722 E0.02500
G1 X84.129 Y91.065 E0.02312
G1 X84.560 Y90.394 E0.02502
G1 X84.992 Y89.856 E0.02163
G1 X85.495 Y89.336 E0.02268
G1 X86.071 Y88.852 E0.02357
G1 X86.608 Y88.486 E0.02041
G1 X86.820 Y88.797 F9000.000
G1 F1200.000
G1 X87.939 Y88.229 E0.03934
G1 X88.636 Y87.996 E0.02305
G1 X89.214 Y87.859 E0.01862
G1 X90.299 Y87.742 E0.03421
G1 X144.689 Y87.743 E1.70536
G1 X145.364 Y87.795 E0.02122
G1 X146.049 Y87.914 E0.02181
G1 X147.235 Y88.300 E0.03909
G1 X147.842 Y88.596 E0.02118
G1 X148.398 Y88.935 E0.02043
G1 X148.920 Y89.326 E0.02042
G1 X149.410 Y89.766 E0.02066
G1 X150.212 Y90.722 E0.03912
G1 X150.561 Y91.281 E0.02066
G1 X150.846 Y91.845 E0.01982
G1 X151.091 Y92.469 E0.02102
G1 X151.278 Y93.119 E0.02120
G1 X151.446 Y94.272 E0.03655
G1 X151.457 Y140.442 E1.44763
G1 X151.412 Y141.104 E0.02081
G1 X151.308 Y141.743 E0.02030
G1 X151.103 Y142.493 E0.02435
G1 X150.868 Y143.108 E0.02064
G1 X150.504 Y143.817 E0.02501
G1 X150.170 Y144.336 E0.01933
G1 X149.642 Y144.987 E0.02630
G1 X149.235 Y145.400 E0.01816
G1 X148.694 Y145.853 E0.02213
G1 X148.102 Y146.255 E0.02243
G1 X147.040 Y146.780 E0.03714
G1 X146.366 Y147.003 E0.02227
G1 X145.786 Y147.140 E0.01868
G1 X144.701 Y147.258 E0.03423
G1 X90.325 Y147.258 E1.70491
G1 X89.638 Y147.205 E0.02162
G1 X88.951 Y147.086 E0.02186
G1 X87.764 Y146.700 E0.03912
G1 X87.123 Y146.384 E0.02242
G1 X86.534 Y146.019 E0.02171
G1 X85.981 Y145.592 E0.02191
G1 X85.467 Y145.106 E0.02219
G1 X84.981 Y144.538 E0.02343
G1 X84.638 Y144.053 E0.01860
G1 X84.110 Y143.059 E0.03532
G1 X83.896 Y142.491 E0.01903
G1 X83.687 Y141.723 E0.02495
G1 X83.586 Y141.085 E0.02023
G1 X83.542 Y140.416 E0.02103
G1 X83.541 Y94.658 E1.43470
G1 X83.576 Y94.017 E0.02015
G1 X83.706 Y93.188 E0.02632
G1 X83.869 Y92.593 E0.01933
G1 X84.144 Y91.865 E0.02439
G1 X84.451 Y91.261 E0.02127
G1 X84.872 Y90.606 E0.02440
G1 X85.280 Y90.099 E0.02040
G1 X85.759 Y89.606 E0.02155
G1 X86.306 Y89.148 E0.02237
G1 X86.771 Y88.831 E0.01765
G1 X86.982 Y89.143 F9000.000
G1 F1200.000
G1 X87.099 Y89.064 E0.00441
G1 X88.071 Y88.583 E0.03401
G1 X88.748 Y88.356 E0.02237
G1 X89.289 Y88.229 E0.01744
G1 X90.309 Y88.120 E0.03217
G1 X144.682 Y88.120 E1.70481
G1 X145.325 Y88.170 E0.02024
G1 X145.971 Y88.283 E0.02055
G1 X147.082 Y88.644 E0.03661
G1 X147.654 Y88.923 E0.01996
G1 X148.180 Y89.243 E0.01931
G1 X148.674 Y89.612 E0.01932
G1 X149.147 Y90.038 E0.01997
G1 X149.899 Y90.933 E0.03664
G1 X150.236 Y91.473 E0.01998
G1 X150.506 Y92.007 E0.01873
G1 X150.737 Y92.598 E0.01990
G1 X150.912 Y93.210 E0.01997
G1 X151.071 Y94.313 E0.03493
G1 X151.080 Y140.423 E1.44578
G1 X151.038 Y141.053 E0.01980
G1 X150.942 Y141.654 E0.01907
G1 X150.742 Y142.384 E0.02374
G1 X150.528 Y142.945 E0.01880
G1 X150.172 Y143.636 E0.02439
G1 X149.859 Y144.123 E0.01813
G1 X149.355 Y144.742 E0.02504
G1 X148.974 Y145.128 E0.01702
G1 X148.460 Y145.557 E0.02099
G1 X147.901 Y145.936 E0.02115
G1 X146.909 Y146.426 E0.03470
G1 X146.255 Y146.643 E0.02159
G1 X145.712 Y146.771 E0.01752
G1 X144.691 Y146.880 E0.03219
G1 X90.333 Y146.880 E1.70437
G1 X89.676 Y146.830 E0.02065
G1 X89.029 Y146.717 E0.02060
G1 X87.918 Y146.356 E0.03662
G1 X87.313 Y146.058 E0.02114
G1 X86.757 Y145.714 E0.02051
G1 X86.219 Y145.299 E0.02130
G1 X85.734 Y144.839 E0.02097
G1 X85.274 Y144.300 E0.02222
G1 X84.953 Y143.846 E0.01742
G1 X84.458 Y142.914 E0.03309
G1 X84.257 Y142.383 E0.01780
G1 X84.054 Y141.634 E0.02434
G1 X83.962 Y141.052 E0.01846
G1 X83.919 Y140.398 E0.02057
G1 X83.918 Y94.663 E1.43397
G1 X83.950 Y94.065 E0.01877
G1 X84.073 Y93.276 E0.02504
G1 X84.225 Y92.718 E0.01815
G1 X84.493 Y92.008 E0.02378
G1 X84.774 Y91.457 E0.01941
G1 X85.184 Y90.818 E0.02378
G1 X85.568 Y90.343 E0.01916
G1 X86.022 Y89.876 E0.02043
G1 X86.540 Y89.443 E0.02117
G1 X86.933 Y89.176 E0.01489
G1 X87.145 Y89.488 F9000.000
G1 F1200.000
G1 X87.300 Y89.383 E0.00588
G1 X88.226 Y88.927 E0.03237
G1 X88.858 Y88.717 E0.02088
G1 X89.363 Y88.599 E0.01628
G1 X90.319 Y88.497 E0.03014
G1 X144.674 Y88.497 E1.70426
G1 X145.286 Y88.546 E0.01925
G1 X145.892 Y88.652 E0.01930
G1 X146.928 Y88.989 E0.03414
G1 X147.481 Y89.259 E0.01928
G1 X147.962 Y89.551 E0.01766
G1 X148.428 Y89.898 E0.01822
G1 X148.885 Y90.309 E0.01928
G1 X149.586 Y91.144 E0.03417
G1 X149.912 Y91.666 E0.01929
G1 X150.165 Y92.168 E0.01764
G1 X150.377 Y92.710 E0.01824
G1 X150.546 Y93.301 E0.01928
G1 X150.696 Y94.352 E0.03329
G1 X150.703 Y140.405 E1.44394
G1 X150.662 Y141.020 E0.01933
G1 X150.575 Y141.565 E0.01730
G1 X150.381 Y142.276 E0.02313
G1 X150.188 Y142.781 E0.01696
G1 X149.841 Y143.456 E0.02377
G1 X149.548 Y143.909 E0.01692
G1 X149.069 Y144.497 E0.02377
G1 X148.712 Y144.856 E0.01588
G1 X148.226 Y145.261 E0.01985
G1 X147.701 Y145.616 E0.01987
G1 X146.778 Y146.072 E0.03227
G1 X146.145 Y146.282 E0.02091
G1 X145.637 Y146.401 E0.01635
G1 X144.681 Y146.503 E0.03016
G1 X90.340 Y146.503 E1.70382
G1 X89.715 Y146.455 E0.01967
G1 X89.108 Y146.347 E0.01933
G1 X88.072 Y146.011 E0.03414
G1 X87.503 Y145.733 E0.01986
G1 X86.980 Y145.410 E0.01929
G1 X86.457 Y145.006 E0.02068
G1 X86.001 Y144.573 E0.01975
G1 X85.567 Y144.062 E0.02101
G1 X85.269 Y143.639 E0.01624
G1 X84.806 Y142.769 E0.03088
G1 X84.619 Y142.275 E0.01656
G1 X84.421 Y141.545 E0.02372
G1 X84.338 Y141.019 E0.01669
G1 X84.296 Y140.379 E0.02011
G1 X84.295 Y94.668 E1.43324
G1 X84.324 Y94.113 E0.01742
G1 X84.440 Y93.364 E0.02377
G1 X84.581 Y92.842 E0.01695
G1 X84.842 Y92.151 E0.02316
G1 X85.096 Y91.652 E0.01756
G1 X85.495 Y91.031 E0.02316
G1 X85.844 Y90.600 E0.01738
G1 X86.286 Y90.146 E0.01985
G1 X86.760 Y89.750 E0.01937
G1 X87.095 Y89.522 E0.01271
G1 X88.357 Y89.281 F9000.000
G1 F1200.000
G1 X88.968 Y89.078 E0.02020
G1 X89.437 Y88.969 E0.01510
G1 X90.329 Y88.874 E0.02813
G1 X144.667 Y88.874 E1.70372
G1 X145.230 Y88.919 E0.01771
G1 X145.814 Y89.022 E0.01860
G1 X146.775 Y89.334 E0.03167
G1 X147.307 Y89.594 E0.01859
G1 X147.759 Y89.868 E0.01657
G1 X148.183 Y90.184 E0.01657
G1 X148.623 Y90.581 E0.01859
G1 X149.273 Y91.355 E0.03169
G1 X149.587 Y91.858 E0.01860
G1 X149.824 Y92.329 E0.01654
G1 X150.016 Y92.822 E0.01659
G1 X150.180 Y93.392 E0.01859
G1 X150.320 Y94.392 E0.03165
G1 X150.327 Y140.386 E1.44212
G1 X150.287 Y140.986 E0.01886
G1 X150.209 Y141.475 E0.01553
G1 X150.020 Y142.168 E0.02251
G1 X149.840 Y142.636 E0.01574
G1 X149.511 Y143.274 E0.02250
G1 X149.238 Y143.695 E0.01572
G1 X148.783 Y144.251 E0.02251
G1 X148.452 Y144.584 E0.01474
G1 X147.992 Y144.965 E0.01872
G1 X147.501 Y145.297 E0.01860
G1 X146.647 Y145.718 E0.02986
G1 X146.035 Y145.921 E0.02022
G1 X145.563 Y146.031 E0.01517
G1 X144.671 Y146.126 E0.02814
G1 X90.347 Y146.126 E1.70328
G1 X89.771 Y146.082 E0.01812
G1 X89.186 Y145.978 E0.01863
G1 X88.225 Y145.666 E0.03167
G1 X87.692 Y145.406 E0.01859
G1 X87.202 Y145.105 E0.01805
G1 X86.696 Y144.714 E0.02005
G1 X86.268 Y144.307 E0.01851
G1 X85.860 Y143.825 E0.01980
G1 X85.584 Y143.432 E0.01507
G1 X85.154 Y142.623 E0.02871
G1 X84.980 Y142.167 E0.01533
G1 X84.791 Y141.475 E0.02247
G1 X84.713 Y140.986 E0.01554
G1 X84.672 Y140.361 E0.01964
G1 X84.672 Y94.673 E1.43251
G1 X84.698 Y94.161 E0.01607
G1 X84.807 Y93.451 E0.02250
G1 X84.937 Y92.967 E0.01573
G1 X85.191 Y92.295 E0.02253
G1 X85.419 Y91.848 E0.01571
G1 X85.807 Y91.243 E0.02254
G1 X86.120 Y90.857 E0.01560
G1 X86.549 Y90.416 E0.01927
G1 X86.994 Y90.046 E0.01815
G1 X87.500 Y89.703 E0.01918
G1 X88.303 Y89.307 E0.02806
G1 X88.634 Y89.982 F9000.000
G1 F1200.000
G1 X89.187 Y89.800 E0.01826
G1 X89.583 Y89.709 E0.01275
G1 X90.349 Y89.628 E0.02414
G1 X144.652 Y89.628 E1.70264
G1 X145.117 Y89.664 E0.01461
G1 X145.657 Y89.760 E0.01720
G1 X146.468 Y90.023 E0.02672
G1 X146.961 Y90.264 E0.01720
G1 X147.337 Y90.494 E0.01383
G1 X147.691 Y90.756 E0.01384
G1 X148.099 Y91.123 E0.01720
G1 X148.647 Y91.777 E0.02674
G1 X148.938 Y92.242 E0.01721
G1 X149.135 Y92.636 E0.01381
G1 X149.296 Y93.047 E0.01385
G1 X149.448 Y93.575 E0.01720
G1 X149.566 Y94.418 E0.02670
G1 X149.573 Y140.348 E1.44011
G1 X149.535 Y140.918 E0.01790
G1 X149.468 Y141.334 E0.01322
G1 X149.298 Y141.948 E0.01999
G1 X149.144 Y142.344 E0.01332
G1 X148.850 Y142.910 E0.01998
G1 X148.618 Y143.265 E0.01330
G1 X148.213 Y143.757 E0.01999
G1 X147.931 Y144.038 E0.01247
G1 X147.555 Y144.350 E0.01533
G1 X147.100 Y144.657 E0.01720
G1 X146.362 Y145.020 E0.02579
G1 X145.816 Y145.199 E0.01803
G1 X145.417 Y145.291 E0.01284
G1 X144.651 Y145.372 E0.02415
G1 X90.362 Y145.372 E1.70220
G1 X89.884 Y145.336 E0.01503
G1 X89.343 Y145.240 E0.01722
G1 X88.532 Y144.977 E0.02672
G1 X88.039 Y144.737 E0.01719
G1 X87.647 Y144.495 E0.01445
G1 X87.173 Y144.130 E0.01878
G1 X86.805 Y143.777 E0.01598
G1 X86.448 Y143.353 E0.01738
G1 X86.216 Y143.019 E0.01274
G1 X85.850 Y142.331 E0.02444
G1 X85.702 Y141.948 E0.01288
G1 X85.532 Y141.334 E0.01996
G1 X85.465 Y140.918 E0.01321
G1 X85.426 Y140.336 E0.01829
G1 X85.426 Y94.682 E1.43146
G1 X85.447 Y94.254 E0.01342
G1 X85.541 Y93.624 E0.01997
G1 X85.650 Y93.214 E0.01331
G1 X85.873 Y92.616 E0.02000
G1 X86.065 Y92.238 E0.01329
G1 X86.408 Y91.700 E0.02001
G1 X86.673 Y91.370 E0.01327
G1 X87.075 Y90.957 E0.01807
G1 X87.446 Y90.649 E0.01510
G1 X87.900 Y90.343 E0.01720
G1 X88.580 Y90.009 E0.02375
G1 X88.746 Y90.346 F9000.000
G1 F1200.000
G1 X89.296 Y90.161 E0.01821
G1 X89.656 Y90.079 E0.01156
G1 X90.359 Y90.005 E0.02218
G1 X144.645 Y90.005 E1.70210
G1 X145.061 Y90.037 E0.01307
G1 X145.579 Y90.129 E0.01649
G1 X146.314 Y90.368 E0.02425
G1 X146.787 Y90.599 E0.01650
G1 X147.120 Y90.802 E0.01222
G1 X147.446 Y91.043 E0.01272
G1 X147.837 Y91.395 E0.01649
G1 X148.335 Y91.988 E0.02426
G1 X148.613 Y92.434 E0.01650
G1 X148.794 Y92.797 E0.01270
G1 X148.936 Y93.160 E0.01223
G1 X149.081 Y93.666 E0.01650
G1 X149.189 Y94.431 E0.02423
G1 X149.197 Y140.329 E1.43910
G1 X149.160 Y140.883 E0.01741
G1 X149.097 Y141.262 E0.01204
G1 X148.937 Y141.838 E0.01873
G1 X148.797 Y142.197 E0.01210
G1 X148.520 Y142.727 E0.01872
G1 X148.309 Y143.049 E0.01209
G1 X147.928 Y143.509 E0.01873
G1 X147.672 Y143.764 E0.01134
G1 X147.336 Y144.043 E0.01367
G1 X146.900 Y144.337 E0.01650
G1 X146.232 Y144.666 E0.02335
G1 X145.707 Y144.838 E0.01733
G1 X145.344 Y144.920 E0.01165
G1 X144.641 Y144.995 E0.02218
G1 X90.369 Y144.995 E1.70167
G1 X89.940 Y144.963 E0.01348
G1 X89.421 Y144.871 E0.01651
G1 X88.686 Y144.632 E0.02425
G1 X88.213 Y144.402 E0.01650
G1 X87.869 Y144.191 E0.01264
G1 X87.411 Y143.838 E0.01813
