;FLAVOR:Marlin
;TIME:2282
;Filament used: 0.766771m
;Layer height: 0.2
;MINX:102.701
;MINY:103.638
;MINZ:0.2
;MAXX:132.299
;MAXY:131.362
;MAXZ:36.4
;Generated with Cura_SteamEngine 4.7.1
M140 S60
M105
M190 S60
M104 S200
M105
M109 S200
M82 ;absolute extrusion mode
; Ender 3 Custom Start G-code
G92 E0 ; Reset Extruder
G28 ; Home all axes
G1 Z2.0 F3000 ; Move Z Axis up little to prevent scratching of Heat Bed
G1 X0.1 Y20 Z0.3 F5000.0 ; Move to start position
G1 X0.1 Y200.0 Z0.3 F1500.0 E15 ; Draw the first line
G1 X0.4 Y200.0 Z0.3 F5000.0 ; Move to side a little
G1 X0.4 Y20 Z0.3 F1500.0 E30 ; Draw the second line
G92 E0 ; Reset Extruder
G1 Z2.0 F3000 ; Move Z Axis up little to prevent scratching of Heat Bed
G1 X5 Y20 Z0.3 F5000.0 ; Move over to prevent blob squish
G92 E0
G92 E0
G1 F2700 E-5
;LAYER_COUNT:182
;LAYER:0
M107
G0 F6000 X108.166 Y106.259 Z0.2
;TYPE:SKIRT
G1 F2700 E0
G1 F1200 X108.72 Y105.696 E0.02627
G1 X109.327 Y105.192 E0.05251
G1 X109.983 Y104.751 E0.0788
G1 X110.679 Y104.38 E0.10504
G1 X111.41 Y104.08 E0.13132
G1 X112.167 Y103.856 E0.15757
G1 X112.943 Y103.71 E0.18384
G1 X113.999 Y103.638 E0.21904
G1 X121.001 Y103.638 E0.45193
G1 X121.79 Y103.678 E0.4782
G1 X122.57 Y103.797 E0.50445
G1 X123.335 Y103.995 E0.53073
G1 X124.075 Y104.269 E0.55697
G1 X124.784 Y104.617 E0.58324
G1 X125.455 Y105.035 E0.60954
G1 X126.079 Y105.518 E0.63578
G1 X126.652 Y106.061 E0.66204
G1 X127.167 Y106.66 E0.68831
G1 X127.756 Y107.539 E0.7235
G1 X131.255 Y113.601 E0.9563
G1 X131.615 Y114.304 E0.98257
G1 X131.902 Y115.04 E1.00885
G1 X132.113 Y115.801 E1.03511
G1 X132.245 Y116.579 E1.06136
G1 X132.299 Y117.367 E1.08763
G1 X132.272 Y118.156 E1.11389
G1 X132.166 Y118.939 E1.14017
G1 X131.981 Y119.706 E1.16641
G1 X131.72 Y120.452 E1.1927
G1 X131.255 Y121.399 E1.22779
G1 X127.756 Y127.461 E1.46059
G1 X127.328 Y128.124 E1.48683
G1 X126.834 Y128.741 E1.51312
G1 X126.28 Y129.304 E1.53939
G1 X125.673 Y129.808 E1.56563
G1 X125.017 Y130.249 E1.59192
G1 X124.321 Y130.62 E1.61816
G1 X123.59 Y130.92 E1.64444
G1 X122.833 Y131.144 E1.6707
G1 X122.057 Y131.29 E1.69696
G1 X121.001 Y131.362 E1.73216
G1 X113.999 Y131.362 E1.96505
G1 X113.21 Y131.322 E1.99133
G1 X112.43 Y131.203 E2.01757
G1 X111.665 Y131.005 E2.04385
G1 X110.925 Y130.731 E2.0701
G1 X110.216 Y130.383 E2.09637
G1 X109.545 Y129.965 E2.12266
G1 X108.921 Y129.482 E2.1489
G1 X108.348 Y128.939 E2.17516
G1 X107.833 Y128.34 E2.20143
G1 X107.244 Y127.461 E2.23663
G1 X103.745 Y121.399 E2.46943
G1 X103.385 Y120.696 E2.4957
G1 X103.098 Y119.96 E2.52197
G1 X102.887 Y119.199 E2.54824
G1 X102.755 Y118.421 E2.57448
G1 X102.701 Y117.633 E2.60075
G1 X102.728 Y116.844 E2.62701
G1 X102.834 Y116.061 E2.65329
G1 X103.019 Y115.294 E2.67953
G1 X103.28 Y114.548 E2.70582
G1 X103.745 Y113.601 E2.74091
G1 X107.244 Y107.539 E2.97371
G1 X107.672 Y106.876 E2.99996
G1 X108.166 Y106.259 E3.02624
G0 F6000 X108.492 Y106.495
G1 F1200 X109.035 Y105.95 E3.05183
G1 X109.631 Y105.465 E3.07739
G1 X110.275 Y105.043 E3.103
G1 X110.959 Y104.691 E3.12858
G1 X111.675 Y104.412 E3.15414
G1 X112.417 Y104.209 E3.17973
G1 X113.176 Y104.084 E3.20531
G1 X113.999 Y104.038 E3.23273
G1 X121.001 Y104.038 E3.46562
G1 X121.769 Y104.078 E3.49119
G1 X122.529 Y104.197 E3.51678
G1 X123.272 Y104.395 E3.54235
G1 X123.991 Y104.669 E3.56795
G1 X124.677 Y105.016 E3.59352
G1 X125.324 Y105.432 E3.6191
G1 X125.924 Y105.913 E3.64468
G1 X126.471 Y106.454 E3.67026
G1 X126.959 Y107.049 E3.69586
G1 X127.41 Y107.739 E3.72328
G1 X130.909 Y113.801 E3.95608
G1 X131.258 Y114.486 E3.98165
G1 X131.535 Y115.204 E4.00724
G1 X131.735 Y115.946 E4.0328
G1 X131.857 Y116.706 E4.0584
G1 X131.9 Y117.474 E4.08399
G1 X131.863 Y118.242 E4.10956
G1 X131.746 Y119.002 E4.13514
G1 X131.551 Y119.746 E4.16072
G1 X131.28 Y120.466 E4.1863
G1 X130.909 Y121.199 E4.21363
G1 X127.41 Y127.261 E4.44643
G1 X126.991 Y127.907 E4.47204
G1 X126.508 Y128.505 E4.4976
G1 X125.965 Y129.05 E4.52319
G1 X125.369 Y129.535 E4.54875
G1 X124.725 Y129.957 E4.57436
G1 X124.041 Y130.309 E4.59994
G1 X123.325 Y130.588 E4.6255
G1 X122.583 Y130.791 E4.65109
G1 X121.824 Y130.916 E4.67667
G1 X121.001 Y130.962 E4.70409
G1 X113.999 Y130.962 E4.93698
G1 X113.231 Y130.922 E4.96255
G1 X112.471 Y130.803 E4.98814
G1 X111.728 Y130.605 E5.01371
G1 X111.009 Y130.331 E5.03931
G1 X110.323 Y129.984 E5.06488
G1 X109.676 Y129.568 E5.09046
G1 X109.076 Y129.087 E5.11604
G1 X108.529 Y128.546 E5.14163
G1 X108.041 Y127.951 E5.16722
G1 X107.59 Y127.261 E5.19464
G1 X104.091 Y121.199 E5.42744
G1 X103.742 Y120.514 E5.45301
G1 X103.465 Y119.796 E5.4786
G1 X103.265 Y119.054 E5.50416
G1 X103.143 Y118.294 E5.52976
G1 X103.1 Y117.526 E5.55535
G1 X103.137 Y116.758 E5.58092
G1 X103.254 Y115.998 E5.6065
G1 X103.449 Y115.254 E5.63208
G1 X103.72 Y114.534 E5.65766
G1 X104.091 Y113.801 E5.68499
G1 X107.59 Y107.739 E5.91779
G1 X108.009 Y107.093 E5.9434
G1 X108.492 Y106.495 E5.96896
G0 F6000 X108.817 Y106.732
G1 F1200 X109.349 Y106.206 E5.99385
G1 X109.934 Y105.739 E6.01874
G1 X110.565 Y105.338 E6.04361
G1 X111.236 Y105.007 E6.0685
G1 X111.938 Y104.748 E6.09338
G1 X112.663 Y104.567 E6.11824
G1 X113.404 Y104.463 E6.14312
G1 X113.999 Y104.438 E6.16293
G1 X121.001 Y104.438 E6.39582
G1 X121.748 Y104.478 E6.4207
G1 X122.486 Y104.597 E6.44556
G1 X123.208 Y104.795 E6.47046
G1 X123.904 Y105.068 E6.49533
G1 X124.567 Y105.415 E6.52022
G1 X125.19 Y105.83 E6.54512
G1 X125.764 Y106.309 E6.56998
G1 X126.285 Y106.846 E6.59487
G1 X126.744 Y107.436 E6.61973
G1 X127.064 Y107.939 E6.63956
G1 X130.563 Y114.001 E6.87236
G1 X130.901 Y114.668 E6.89723
G1 X131.167 Y115.367 E6.9221
G1 X131.357 Y116.091 E6.947
G1 X131.468 Y116.83 E6.97185
G1 X131.5 Y117.578 E6.99675
G1 X131.451 Y118.324 E7.02162
G1 X131.324 Y119.061 E7.04649
G1 X131.118 Y119.781 E7.0714
G1 X130.837 Y120.474 E7.09627
G1 X130.563 Y120.999 E7.11597
G1 X127.064 Y127.061 E7.34877
G1 X126.656 Y127.688 E7.37365
G1 X126.183 Y128.268 E7.39854
G1 X125.651 Y128.794 E7.42343
G1 X125.066 Y129.261 E7.44832
G1 X124.435 Y129.662 E7.47319
G1 X123.764 Y129.993 E7.49807
G1 X123.062 Y130.252 E7.52296
G1 X122.337 Y130.433 E7.54782
G1 X121.596 Y130.537 E7.5727
G1 X121.001 Y130.562 E7.59251
G1 X113.999 Y130.562 E7.8254
G1 X113.252 Y130.522 E7.85028
G1 X112.514 Y130.403 E7.87514
G1 X111.792 Y130.205 E7.90004
G1 X111.096 Y129.932 E7.92491
G1 X110.433 Y129.585 E7.9498
G1 X109.81 Y129.17 E7.97469
G1 X109.236 Y128.691 E7.99956
G1 X108.715 Y128.154 E8.02445
G1 X108.256 Y127.564 E8.04931
G1 X107.936 Y127.061 E8.06914
G1 X104.437 Y120.999 E8.30194
G1 X104.099 Y120.332 E8.32681
G1 X103.833 Y119.633 E8.35168
G1 X103.643 Y118.909 E8.37658
G1 X103.532 Y118.17 E8.40143
G1 X103.5 Y117.422 E8.42633
G1 X103.549 Y116.676 E8.4512
G1 X103.676 Y115.939 E8.47607
G1 X103.882 Y115.219 E8.50098
G1 X104.163 Y114.526 E8.52585
G1 X104.437 Y114.001 E8.54555
G1 X107.936 Y107.939 E8.77835
G1 X108.344 Y107.312 E8.80323
G1 X108.817 Y106.732 E8.82812
G0 F6000 X109.142 Y106.97
G1 F1200 X109.662 Y106.463 E8.85228
G1 X110.235 Y106.017 E8.87643
G1 X110.854 Y105.636 E8.9006
G1 X111.51 Y105.325 E8.92475
G1 X112.197 Y105.089 E8.94891
G1 X112.906 Y104.929 E8.97308
G1 X113.628 Y104.848 E8.99725
G1 X113.999 Y104.838 E9.00959
G1 X121.001 Y104.838 E9.24248
G1 X121.726 Y104.878 E9.26663
G1 X122.443 Y104.997 E9.2908
G1 X123.142 Y105.195 E9.31497
G1 X123.815 Y105.468 E9.33912
G1 X124.454 Y105.813 E9.36328
G1 X125.051 Y106.227 E9.38744
G1 X125.599 Y106.703 E9.41158
G1 X126.092 Y107.237 E9.43576
G1 X126.522 Y107.822 E9.4599
G1 X126.717 Y108.139 E9.47228
G1 X130.216 Y114.201 E9.70508
G1 X130.544 Y114.849 E9.72924
G1 X130.799 Y115.529 E9.75339
G1 X130.977 Y116.233 E9.77754
G1 X131.077 Y116.953 E9.80172
G1 X131.098 Y117.679 E9.82588
G1 X131.038 Y118.403 E9.85004
G1 X130.899 Y119.115 E9.87417
G1 X130.683 Y119.809 E9.89834
G1 X130.392 Y120.474 E9.92249
G1 X130.216 Y120.799 E9.93478
G1 X126.717 Y126.861 E10.16758
G1 X126.32 Y127.47 E10.19176
G1 X125.858 Y128.03 E10.2159
G1 X125.338 Y128.537 E10.24006
G1 X124.765 Y128.983 E10.26421
G1 X124.146 Y129.364 E10.28839
G1 X123.49 Y129.675 E10.31253
G1 X122.803 Y129.911 E10.33669
G1 X122.094 Y130.071 E10.36087
G1 X121.372 Y130.152 E10.38503
G1 X121.001 Y130.162 E10.39738
G1 X113.999 Y130.162 E10.63026
G1 X113.274 Y130.122 E10.65441
G1 X112.557 Y130.003 E10.67859
G1 X111.858 Y129.805 E10.70275
G1 X111.185 Y129.532 E10.72691
G1 X110.546 Y129.187 E10.75106
G1 X109.949 Y128.773 E10.77522
G1 X109.401 Y128.297 E10.79937
G1 X108.908 Y127.763 E10.82354
G1 X108.478 Y127.178 E10.84769
G1 X108.283 Y126.861 E10.86006
G1 X104.784 Y120.799 E11.09286
G1 X104.456 Y120.151 E11.11702
G1 X104.201 Y119.471 E11.14117
G1 X104.023 Y118.767 E11.16533
G1 X103.923 Y118.047 E11.1895
G1 X103.902 Y117.321 E11.21366
G1 X103.962 Y116.597 E11.23782
G1 X104.101 Y115.885 E11.26195
G1 X104.317 Y115.191 E11.28613
G1 X104.608 Y114.526 E11.31027
G1 X104.784 Y114.201 E11.32256
G1 X108.283 Y108.139 E11.55536
G1 X108.68 Y107.53 E11.57954
G1 X109.142 Y106.97 E11.60369
G0 F6000 X109.466 Y107.209
G1 F1200 X109.974 Y106.722 E11.62709
G1 X110.535 Y106.296 E11.65052
G1 X111.14 Y105.937 E11.67392
G1 X111.782 Y105.648 E11.69734
G1 X112.453 Y105.434 E11.72076
G1 X113.143 Y105.297 E11.74416
G1 X113.999 Y105.238 E11.7727
G1 X121.001 Y105.238 E12.00559
G1 X121.704 Y105.278 E12.02901
G1 X122.398 Y105.397 E12.05242
G1 X123.073 Y105.595 E12.07582
G1 X123.722 Y105.867 E12.09923
G1 X124.336 Y106.212 E12.12265
G1 X124.907 Y106.623 E12.14605
G1 X125.428 Y107.097 E12.16948
G1 X125.892 Y107.627 E12.19291
G1 X126.371 Y108.339 E12.22145
G1 X129.87 Y114.401 E12.45425
G1 X130.186 Y115.029 E12.47763
G1 X130.43 Y115.69 E12.50106
G1 X130.597 Y116.374 E12.52448
G1 X130.685 Y117.072 E12.54788
G1 X130.694 Y117.776 E12.5713
G1 X130.623 Y118.476 E12.5947
G1 X130.472 Y119.164 E12.61813
G1 X130.245 Y119.831 E12.64156
G1 X129.87 Y120.599 E12.66999
G1 X126.371 Y126.661 E12.90279
G1 X125.985 Y127.25 E12.92621
G1 X125.534 Y127.791 E12.94964
G1 X125.026 Y128.278 E12.97304
G1 X124.465 Y128.704 E12.99647
G1 X123.86 Y129.063 E13.01987
G1 X123.218 Y129.352 E13.04329
G1 X122.547 Y129.566 E13.06671
G1 X121.857 Y129.703 E13.09011
G1 X121.001 Y129.762 E13.11865
G1 X113.999 Y129.762 E13.35153
G1 X113.296 Y129.722 E13.37495
G1 X112.602 Y129.603 E13.39837
G1 X111.927 Y129.405 E13.42177
G1 X111.278 Y129.133 E13.44518
G1 X110.664 Y128.788 E13.4686
G1 X110.093 Y128.377 E13.492
G1 X109.572 Y127.903 E13.51543
G1 X109.108 Y127.373 E13.53886
G1 X108.629 Y126.661 E13.5674
G1 X105.13 Y120.599 E13.8002
G1 X104.814 Y119.971 E13.82358
G1 X104.57 Y119.31 E13.84701
G1 X104.403 Y118.626 E13.87043
G1 X104.315 Y117.928 E13.89383
G1 X104.306 Y117.224 E13.91725
G1 X104.377 Y116.524 E13.94065
G1 X104.528 Y115.836 E13.96408
G1 X104.755 Y115.169 E13.98751
G1 X105.13 Y114.401 E14.01594
G1 X108.629 Y108.339 E14.24874
G1 X109.015 Y107.75 E14.27216
G1 X109.466 Y107.209 E14.29559
G0 F6000 X109.789 Y107.449
G1 F1200 X110.285 Y106.983 E14.31822
G1 X110.833 Y106.578 E14.34088
G1 X111.424 Y106.241 E14.36351
G1 X112.051 Y105.975 E14.38617
G1 X112.705 Y105.784 E14.40883
G1 X113.376 Y105.672 E14.43145
G1 X113.999 Y105.638 E14.45221
G1 X121.001 Y105.638 E14.68509
G1 X121.681 Y105.678 E14.70775
G1 X122.351 Y105.797 E14.73038
G1 X123.003 Y105.994 E14.75304
G1 X123.627 Y106.266 E14.77568
G1 X124.215 Y106.61 E14.79833
G1 X124.759 Y107.02 E14.82099
G1 X125.25 Y107.491 E14.84362
G1 X125.684 Y108.016 E14.86628
G1 X126.024 Y108.539 E14.88702
G1 X129.523 Y114.601 E15.11982
G1 X129.828 Y115.209 E15.14245
G1 X130.06 Y115.849 E15.16509
G1 X130.215 Y116.512 E15.18773
G1 X130.292 Y117.189 E15.2104
G1 X130.288 Y117.87 E15.23305
G1 X130.205 Y118.546 E15.2557
G1 X130.043 Y119.207 E15.27834
G1 X129.805 Y119.845 E15.30098
G1 X129.523 Y120.399 E15.32166
G1 X126.024 Y126.461 E15.55446
G1 X125.65 Y127.03 E15.57711
G1 X125.211 Y127.551 E15.59977
G1 X124.715 Y128.017 E15.6224
G1 X124.167 Y128.422 E15.64507
G1 X123.576 Y128.759 E15.66769
G1 X122.949 Y129.025 E15.69035
G1 X122.295 Y129.216 E15.71301
G1 X121.624 Y129.328 E15.73563
G1 X121.001 Y129.362 E15.75639
G1 X113.999 Y129.362 E15.98927
G1 X113.319 Y129.322 E16.01193
G1 X112.649 Y129.203 E16.03456
G1 X111.997 Y129.006 E16.05722
G1 X111.373 Y128.734 E16.07986
G1 X110.785 Y128.39 E16.10251
G1 X110.241 Y127.98 E16.12517
G1 X109.75 Y127.509 E16.1478
G1 X109.316 Y126.984 E16.17046
G1 X108.976 Y126.461 E16.1912
G1 X105.477 Y120.399 E16.424
G1 X105.172 Y119.791 E16.44663
G1 X104.94 Y119.151 E16.46927
G1 X104.785 Y118.488 E16.49192
G1 X104.708 Y117.811 E16.51458
G1 X104.712 Y117.13 E16.53723
G1 X104.795 Y116.454 E16.55988
G1 X104.957 Y115.793 E16.58252
G1 X105.195 Y115.155 E16.60517
G1 X105.477 Y114.601 E16.62584
G1 X108.976 Y108.539 E16.85864
G1 X109.35 Y107.97 E16.88129
G1 X109.789 Y107.449 E16.90395
G0 F6000 X110.111 Y107.691
G1 F1200 X110.595 Y107.246 E16.92582
G1 X111.129 Y106.864 E16.94765
G1 X111.706 Y106.549 E16.96952
G1 X112.316 Y106.307 E16.99134
G1 X112.952 Y106.141 E17.01321
G1 X113.603 Y106.053 E17.03506
G1 X113.999 Y106.038 E17.04824
G1 X121.001 Y106.038 E17.28112
G1 X121.657 Y106.078 E17.30298
G1 X122.303 Y106.197 E17.32483
G1 X122.93 Y106.394 E17.34669
G1 X123.528 Y106.666 E17.36854
G1 X124.089 Y107.008 E17.39039
G1 X124.604 Y107.416 E17.41225
G1 X125.066 Y107.883 E17.43409
G1 X125.467 Y108.403 E17.45594
G1 X125.678 Y108.739 E17.46913
G1 X129.177 Y114.801 E17.70193
G1 X129.47 Y115.388 E17.72375
G1 X129.69 Y116.008 E17.74563
G1 X129.832 Y116.649 E17.76747
G1 X129.896 Y117.303 E17.78933
G1 X129.88 Y117.959 E17.81115
G1 X129.785 Y118.609 E17.833
G1 X129.611 Y119.243 E17.85487
G1 X129.361 Y119.851 E17.87673
G1 X129.177 Y120.199 E17.88982
G1 X125.678 Y126.261 E18.12262
G1 X125.315 Y126.809 E18.14449
G1 X124.889 Y127.309 E18.16633
G1 X124.405 Y127.754 E18.1882
G1 X123.871 Y128.136 E18.21004
G1 X123.294 Y128.451 E18.2319
G1 X122.684 Y128.693 E18.25373
G1 X122.048 Y128.859 E18.27559
G1 X121.397 Y128.947 E18.29744
G1 X121.001 Y128.962 E18.31062
G1 X113.999 Y128.962 E18.54351
G1 X113.343 Y128.922 E18.56537
G1 X112.697 Y128.803 E18.58722
G1 X112.07 Y128.606 E18.60908
G1 X111.472 Y128.334 E18.63093
G1 X110.911 Y127.992 E18.65278
G1 X110.396 Y127.584 E18.67463
G1 X109.934 Y127.117 E18.69648
G1 X109.533 Y126.597 E18.71832
G1 X109.322 Y126.261 E18.73152
G1 X105.823 Y120.199 E18.96432
G1 X105.53 Y119.612 E18.98614
G1 X105.31 Y118.992 E19.00802
G1 X105.168 Y118.351 E19.02985
G1 X105.104 Y117.697 E19.05171
G1 X105.12 Y117.041 E19.07354
G1 X105.215 Y116.391 E19.09538
G1 X105.389 Y115.757 E19.11725
G1 X105.639 Y115.149 E19.13912
G1 X105.823 Y114.801 E19.15221
G1 X109.322 Y108.739 E19.38501
G1 X109.685 Y108.191 E19.40687
G1 X110.111 Y107.691 E19.42872
G0 F6000 X110.432 Y107.934
G1 F1200 X110.903 Y107.512 E19.44975
G1 X111.423 Y107.153 E19.47077
G1 X111.984 Y106.862 E19.49179
G1 X112.578 Y106.644 E19.51283
G1 X113.194 Y106.503 E19.53385
G1 X113.999 Y106.438 E19.56071
G1 X121.001 Y106.438 E19.7936
G1 X121.632 Y106.478 E19.81463
G1 X122.253 Y106.597 E19.83566
G1 X122.853 Y106.794 E19.85666
G1 X123.425 Y107.065 E19.87772
G1 X123.957 Y107.405 E19.89872
G1 X124.442 Y107.811 E19.91975
G1 X124.872 Y108.274 E19.94077
G1 X125.331 Y108.938 E19.96762
G1 X128.83 Y115 E20.20042
G1 X129.111 Y115.567 E20.22146
G1 X129.318 Y116.164 E20.24248
G1 X129.448 Y116.783 E20.26352
G1 X129.499 Y117.413 E20.28454
G1 X129.47 Y118.044 E20.30555
G1 X129.362 Y118.667 E20.32658
G1 X129.176 Y119.271 E20.3476
G1 X128.83 Y120 E20.37444
G1 X125.331 Y126.062 E20.60724
G1 X124.981 Y126.588 E20.62825
G1 X124.568 Y127.066 E20.64926
G1 X124.097 Y127.488 E20.6703
G1 X123.577 Y127.847 E20.69131
G1 X123.016 Y128.138 E20.71233
G1 X122.422 Y128.356 E20.73338
G1 X121.806 Y128.497 E20.75439
G1 X121.001 Y128.562 E20.78126
G1 X113.999 Y128.562 E21.01414
G1 X113.368 Y128.522 E21.03517
G1 X112.747 Y128.403 E21.0562
G1 X112.147 Y128.206 E21.07721
G1 X111.575 Y127.935 E21.09826
G1 X111.043 Y127.595 E21.11926
G1 X110.558 Y127.189 E21.1403
G1 X110.128 Y126.726 E21.16131
G1 X109.669 Y126.062 E21.18816
G1 X106.17 Y120 E21.42096
G1 X105.889 Y119.433 E21.44201
G1 X105.682 Y118.836 E21.46302
G1 X105.552 Y118.217 E21.48406
G1 X105.501 Y117.587 E21.50508
G1 X105.53 Y116.956 E21.52609
