;FLAVOR:Marlin
;TIME:856
;Filament used: 0.399305m
;Layer height: 0.2
;MINX:101.731
;MINY:98.922
;MINZ:0.2
;MAXX:133.269
;MAXY:136.078
;MAXZ:7.8
;Generated with Cura_SteamEngine 4.7.1
M140 S50
M105
M190 S50
M104 S200
M105
M109 S200
M82 ;absolute extrusion mode
; Ender 3 Custom Start G-code
G92 E0 ; Reset Extruder
G28 ; Home all axes
G1 Z2.0 F3000 ; Move Z Axis up little to prevent scratching of Heat Bed
G1 X0.1 Y20 Z0.3 F5000.0 ; Move to start position
G1 X0.1 Y200.0 Z0.3 F1500.0 E15 ; Draw the first line
G1 X0.4 Y200.0 Z0.3 F5000.0 ; Move to side a little
G1 X0.4 Y20 Z0.3 F1500.0 E30 ; Draw the second line
G92 E0 ; Reset Extruder
G1 Z2.0 F3000 ; Move Z Axis up little to prevent scratching of Heat Bed
G1 X5 Y20 Z0.3 F5000.0 ; Move over to prevent blob squish
G92 E0
G92 E0
G1 F2700 E-5
;LAYER_COUNT:39
;LAYER:0
M107
G0 F6000 X104.978 Y102.509 Z0.2
;TYPE:SKIRT
G1 F2700 E0
G1 F1200 X105.555 Y101.97 E0.02626
G1 X106.185 Y101.493 E0.05254
G1 X106.665 Y101.191 E0.07141
G1 X108.766 Y99.973 E0.15218
G1 X109.468 Y99.612 E0.17843
G1 X110.204 Y99.324 E0.20472
G1 X110.964 Y99.112 E0.23096
G1 X111.742 Y98.977 E0.25723
G1 X112.53 Y98.922 E0.2835
G1 X113.319 Y98.947 E0.30975
G1 X114.102 Y99.052 E0.33603
G1 X114.691 Y99.185 E0.35611
G1 X114.852 Y99.228 E0.36166
G1 X115.603 Y99.47 E0.3879
G1 X116.327 Y99.787 E0.41419
G1 X117.014 Y100.176 E0.44045
G1 X117.659 Y100.631 E0.4667
G1 X118.254 Y101.15 E0.49296
G1 X118.794 Y101.727 E0.51924
G1 X119.273 Y102.355 E0.54551
G1 X119.537 Y102.772 E0.56193
G1 X121.439 Y102.772 E0.62519
G1 X122.228 Y102.812 E0.65147
G1 X123.008 Y102.931 E0.67771
G1 X123.773 Y103.129 E0.70399
G1 X124.513 Y103.403 E0.73024
G1 X125.301 Y103.795 E0.75951
G1 X125.394 Y103.848 E0.76307
G1 X126.059 Y104.273 E0.78932
G1 X126.678 Y104.764 E0.8156
G1 X127.245 Y105.314 E0.84187
G1 X127.752 Y105.919 E0.86812
G1 X128.287 Y106.726 E0.90033
G1 X132.224 Y113.547 E1.16227
G1 X132.584 Y114.25 E1.18854
G1 X132.871 Y114.986 E1.21482
G1 X133.082 Y115.747 E1.24108
G1 X133.214 Y116.525 E1.26733
G1 X133.269 Y117.446 E1.29802
G1 X133.269 Y117.554 E1.30161
G1 X133.229 Y118.343 E1.32789
G1 X133.11 Y119.123 E1.35413
G1 X132.912 Y119.888 E1.38041
G1 X132.638 Y120.628 E1.40666
G1 X132.224 Y121.454 E1.43739
G1 X131.274 Y123.1 E1.5006
G1 X131.58 Y123.698 E1.52294
G1 X131.867 Y124.433 E1.54918
G1 X132.079 Y125.194 E1.57546
G1 X132.212 Y125.973 E1.60174
G1 X132.266 Y126.761 E1.62801
G1 X132.24 Y127.55 E1.65427
G1 X132.134 Y128.332 E1.68052
G1 X131.997 Y128.931 E1.70095
G1 X131.953 Y129.094 E1.70657
G1 X131.709 Y129.845 E1.73283
G1 X131.391 Y130.567 E1.75907
G1 X131 Y131.254 E1.78536
G1 X130.543 Y131.897 E1.8116
G1 X130.022 Y132.491 E1.83788
G1 X129.445 Y133.03 E1.86414
G1 X128.815 Y133.507 E1.89043
G1 X128.335 Y133.809 E1.90929
G1 X126.234 Y135.027 E1.99006
G1 X125.532 Y135.388 E2.01631
G1 X124.796 Y135.676 E2.0426
G1 X124.036 Y135.888 E2.06884
G1 X123.258 Y136.023 E2.09511
G1 X122.47 Y136.078 E2.12138
G1 X121.681 Y136.053 E2.14764
G1 X120.898 Y135.948 E2.17391
G1 X120.309 Y135.815 E2.194
G1 X120.148 Y135.772 E2.19954
G1 X119.397 Y135.53 E2.22578
G1 X118.673 Y135.213 E2.25207
G1 X117.986 Y134.824 E2.27833
G1 X117.341 Y134.369 E2.30458
G1 X116.746 Y133.85 E2.33084
G1 X116.206 Y133.273 E2.35713
G1 X115.727 Y132.645 E2.38339
G1 X115.463 Y132.228 E2.39981
G1 X113.561 Y132.228 E2.46307
G1 X112.772 Y132.188 E2.48935
G1 X111.992 Y132.069 E2.51559
G1 X111.227 Y131.871 E2.54187
G1 X110.487 Y131.597 E2.56812
G1 X109.699 Y131.205 E2.59739
G1 X109.606 Y131.152 E2.60095
G1 X108.941 Y130.727 E2.6272
G1 X108.322 Y130.236 E2.65348
G1 X107.755 Y129.686 E2.67975
G1 X107.248 Y129.081 E2.70601
G1 X106.713 Y128.274 E2.73821
G1 X102.776 Y121.453 E3.00015
G1 X102.416 Y120.75 E3.02642
G1 X102.129 Y120.014 E3.0527
G1 X101.918 Y119.253 E3.07896
G1 X101.786 Y118.475 E3.10521
G1 X101.731 Y117.554 E3.1359
G1 X101.731 Y117.446 E3.13949
G1 X101.771 Y116.657 E3.16577
G1 X101.89 Y115.877 E3.19201
G1 X102.088 Y115.112 E3.21829
G1 X102.362 Y114.372 E3.24454
G1 X102.776 Y113.546 E3.27527
G1 X103.726 Y111.9 E3.33848
G1 X103.417 Y111.296 E3.36104
G1 X103.131 Y110.56 E3.38731
G1 X102.92 Y109.799 E3.41357
G1 X102.787 Y109.021 E3.43982
G1 X102.734 Y108.233 E3.46609
G1 X102.761 Y107.444 E3.49235
G1 X102.867 Y106.661 E3.51863
G1 X103.003 Y106.069 E3.53883
G1 X103.047 Y105.906 E3.54445
G1 X103.291 Y105.155 E3.57071
G1 X103.609 Y104.433 E3.59695
G1 X104 Y103.746 E3.62324
G1 X104.457 Y103.103 E3.64948
G1 X104.978 Y102.509 E3.67576
G0 F6000 X105.335 Y102.716
G1 F1200 X105.905 Y102.2 E3.70133
G1 X106.526 Y101.746 E3.72692
G1 X106.866 Y101.537 E3.74019
G1 X108.967 Y100.319 E3.82096
G1 X109.651 Y99.968 E3.84654
G1 X110.368 Y99.691 E3.8721
G1 X111.111 Y99.489 E3.89771
G1 X111.87 Y99.365 E3.92329
G1 X112.638 Y99.321 E3.94887
G1 X113.406 Y99.357 E3.97445
G1 X114.166 Y99.472 E4.00001
G1 X114.587 Y99.572 E4.0144
G1 X114.748 Y99.615 E4.01995
G1 X115.48 Y99.851 E4.04553
G1 X116.184 Y100.163 E4.07114
G1 X116.851 Y100.546 E4.09672
G1 X117.474 Y100.996 E4.12228
G1 X118.048 Y101.508 E4.14786
G1 X118.566 Y102.077 E4.17346
G1 X119.021 Y102.697 E4.19904
G1 X119.239 Y103.049 E4.21281
G1 X119.31 Y103.172 E4.21753
G1 X121.439 Y103.172 E4.28834
G1 X122.207 Y103.212 E4.31392
G1 X122.967 Y103.331 E4.33951
G1 X123.71 Y103.529 E4.36508
G1 X124.429 Y103.803 E4.39067
G1 X125.103 Y104.143 E4.41578
G1 X125.196 Y104.196 E4.41934
G1 X125.844 Y104.611 E4.44493
G1 X126.445 Y105.091 E4.47052
G1 X126.992 Y105.631 E4.49608
G1 X127.481 Y106.224 E4.52164
G1 X127.941 Y106.926 E4.54956
G1 X131.878 Y113.747 E4.81151
G1 X132.227 Y114.432 E4.83708
G1 X132.504 Y115.15 E4.86267
G1 X132.704 Y115.892 E4.88823
G1 X132.826 Y116.652 E4.91383
G1 X132.869 Y117.446 E4.94028
G1 X132.869 Y117.554 E4.94387
G1 X132.829 Y118.322 E4.96945
G1 X132.71 Y119.082 E4.99504
G1 X132.512 Y119.825 E5.02061
G1 X132.238 Y120.544 E5.0462
G1 X131.878 Y121.254 E5.07268
G1 X130.816 Y123.094 E5.14334
G1 X130.874 Y123.195 E5.14721
G1 X131.224 Y123.88 E5.1728
G1 X131.5 Y124.598 E5.19838
G1 X131.701 Y125.34 E5.22395
G1 X131.824 Y126.1 E5.24956
G1 X131.867 Y126.868 E5.27514
G1 X131.83 Y127.636 E5.30072
G1 X131.714 Y128.396 E5.32629
G1 X131.611 Y128.827 E5.34102
G1 X131.567 Y128.99 E5.34664
G1 X131.329 Y129.721 E5.37221
G1 X131.015 Y130.423 E5.39779
G1 X130.631 Y131.089 E5.42336
G1 X130.179 Y131.712 E5.44896
G1 X129.665 Y132.284 E5.47453
G1 X129.095 Y132.8 E5.50011
G1 X128.474 Y133.254 E5.52569
G1 X128.134 Y133.463 E5.53897
G1 X126.033 Y134.681 E5.61974
G1 X125.349 Y135.032 E5.64531
G1 X124.632 Y135.309 E5.67088
G1 X123.889 Y135.511 E5.69648
G1 X123.13 Y135.635 E5.72206
G1 X122.362 Y135.679 E5.74765
G1 X121.594 Y135.643 E5.77322
G1 X120.834 Y135.528 E5.79879
G1 X120.413 Y135.428 E5.81318
G1 X120.252 Y135.385 E5.81872
G1 X119.52 Y135.149 E5.8443
G1 X118.816 Y134.837 E5.86991
G1 X118.149 Y134.454 E5.8955
G1 X117.526 Y134.004 E5.92106
G1 X116.952 Y133.492 E5.94664
G1 X116.434 Y132.923 E5.97223
G1 X115.979 Y132.303 E5.99781
G1 X115.761 Y131.951 E6.01158
G1 X115.69 Y131.828 E6.0163
G1 X113.561 Y131.828 E6.08712
G1 X112.793 Y131.788 E6.11269
G1 X112.033 Y131.669 E6.13828
G1 X111.29 Y131.471 E6.16385
G1 X110.571 Y131.197 E6.18945
G1 X109.897 Y130.857 E6.21455
G1 X109.804 Y130.804 E6.21811
G1 X109.156 Y130.389 E6.24371
G1 X108.555 Y129.909 E6.26929
G1 X108.008 Y129.369 E6.29486
G1 X107.519 Y128.776 E6.32042
G1 X107.059 Y128.074 E6.34833
G1 X103.122 Y121.253 E6.61028
G1 X102.773 Y120.568 E6.63585
G1 X102.496 Y119.85 E6.66145
G1 X102.296 Y119.108 E6.68701
G1 X102.174 Y118.348 E6.71261
G1 X102.131 Y117.554 E6.73905
G1 X102.131 Y117.446 E6.74265
G1 X102.171 Y116.678 E6.76823
G1 X102.29 Y115.918 E6.79381
G1 X102.488 Y115.175 E6.81939
G1 X102.762 Y114.456 E6.84498
G1 X103.122 Y113.746 E6.87145
G1 X104.184 Y111.906 E6.94211
G1 X104.123 Y111.8 E6.94618
G1 X103.774 Y111.114 E6.97178
G1 X103.498 Y110.396 E6.99737
G1 X103.298 Y109.654 E7.02293
G1 X103.176 Y108.894 E7.04853
G1 X103.133 Y108.126 E7.07411
G1 X103.17 Y107.358 E7.09968
G1 X103.287 Y106.598 E7.12526
G1 X103.389 Y106.173 E7.1398
G1 X103.433 Y106.01 E7.14541
G1 X103.671 Y105.279 E7.17098
G1 X103.985 Y104.577 E7.19656
G1 X104.369 Y103.911 E7.22213
G1 X104.821 Y103.288 E7.24773
G1 X105.335 Y102.716 E7.27331
G0 F6000 X105.691 Y102.926
G1 F1200 X106.254 Y102.433 E7.2982
G1 X107.066 Y101.883 E7.33082
G1 X109.167 Y100.665 E7.41159
G1 X109.834 Y100.325 E7.43649
G1 X110.532 Y100.058 E7.46135
G1 X111.256 Y99.867 E7.48625
G1 X111.995 Y99.754 E7.51111
G1 X112.742 Y99.721 E7.53598
G1 X113.489 Y99.768 E7.56088
G1 X114.484 Y99.958 E7.59457
G1 X114.645 Y100.001 E7.60011
G1 X115.357 Y100.232 E7.62501
G1 X116.039 Y100.538 E7.64987
G1 X116.685 Y100.915 E7.67475
G1 X117.288 Y101.359 E7.69966
G1 X117.839 Y101.865 E7.72454
G1 X118.333 Y102.426 E7.7494
G1 X118.893 Y103.25 E7.78254
G1 X119.08 Y103.572 E7.79492
G1 X121.439 Y103.572 E7.87338
G1 X122.186 Y103.612 E7.89826
G1 X122.924 Y103.731 E7.92312
G1 X123.646 Y103.929 E7.94802
G1 X124.342 Y104.202 E7.97289
G1 X124.905 Y104.49 E7.99392
G1 X124.998 Y104.543 E7.99748
G1 X125.627 Y104.948 E8.02237
G1 X126.21 Y105.417 E8.04725
G1 X126.739 Y105.946 E8.07214
G1 X127.208 Y106.529 E8.09702
G1 X127.595 Y107.126 E8.12069
G1 X131.532 Y113.947 E8.38263
G1 X131.87 Y114.614 E8.4075
G1 X132.136 Y115.313 E8.43238
G1 X132.326 Y116.037 E8.45727
G1 X132.437 Y116.776 E8.48213
G1 X132.469 Y117.446 E8.50444
G1 X132.469 Y117.554 E8.50803
G1 X132.429 Y118.301 E8.53291
G1 X132.31 Y119.039 E8.55777
G1 X132.112 Y119.761 E8.58267
G1 X131.839 Y120.457 E8.60754
G1 X131.531 Y121.054 E8.62988
G1 X130.354 Y123.093 E8.70819
G1 X130.528 Y123.395 E8.71978
G1 X130.867 Y124.062 E8.74467
G1 X131.133 Y124.761 E8.76954
G1 X131.323 Y125.485 E8.79444
G1 X131.435 Y126.224 E8.8193
G1 X131.467 Y126.972 E8.8442
G1 X131.419 Y127.718 E8.86906
G1 X131.225 Y128.722 E8.90307
G1 X131.181 Y128.885 E8.90869
G1 X130.948 Y129.596 E8.93357
G1 X130.64 Y130.278 E8.95846
G1 X130.261 Y130.923 E8.98334
G1 X129.816 Y131.524 E9.00822
G1 X129.309 Y132.074 E9.0331
G1 X128.746 Y132.567 E9.05799
G1 X127.934 Y133.117 E9.09061
G1 X125.833 Y134.335 E9.17138
G1 X125.166 Y134.675 E9.19628
G1 X124.468 Y134.942 E9.22114
G1 X123.744 Y135.133 E9.24604
G1 X123.005 Y135.246 E9.2709
G1 X122.258 Y135.279 E9.29577
G1 X121.511 Y135.232 E9.32067
G1 X120.516 Y135.042 E9.35436
G1 X120.355 Y134.999 E9.3599
G1 X119.643 Y134.768 E9.3848
G1 X118.961 Y134.462 E9.40966
G1 X118.315 Y134.085 E9.43454
G1 X117.712 Y133.641 E9.45944
G1 X117.161 Y133.135 E9.48433
G1 X116.667 Y132.574 E9.50919
G1 X116.107 Y131.75 E9.54232
G1 X115.92 Y131.428 E9.55471
G1 X113.561 Y131.428 E9.63317
G1 X112.814 Y131.388 E9.65805
G1 X112.076 Y131.269 E9.68291
G1 X111.354 Y131.071 E9.70781
G1 X110.658 Y130.798 E9.73268
G1 X110.095 Y130.51 E9.75371
G1 X110.002 Y130.457 E9.75727
G1 X109.373 Y130.052 E9.78216
G1 X108.79 Y129.583 E9.80704
G1 X108.261 Y129.054 E9.83193
G1 X107.792 Y128.471 E9.85681
G1 X107.405 Y127.874 E9.88047
G1 X103.468 Y121.053 E10.14242
G1 X103.13 Y120.386 E10.16729
G1 X102.864 Y119.687 E10.19217
G1 X102.674 Y118.963 E10.21706
G1 X102.563 Y118.224 E10.24192
G1 X102.531 Y117.554 E10.26423
G1 X102.531 Y117.446 E10.26782
G1 X102.571 Y116.699 E10.2927
G1 X102.69 Y115.961 E10.31756
G1 X102.888 Y115.239 E10.34246
G1 X103.161 Y114.543 E10.36733
G1 X103.469 Y113.946 E10.38967
G1 X104.646 Y111.907 E10.46798
G1 X104.469 Y111.6 E10.47976
G1 X104.131 Y110.933 E10.50463
G1 X103.865 Y110.233 E10.52954
G1 X103.676 Y109.51 E10.5544
G1 X103.565 Y108.77 E10.57928
G1 X103.533 Y108.022 E10.60418
G1 X103.582 Y107.276 E10.62905
G1 X103.775 Y106.278 E10.66286
G1 X103.819 Y106.115 E10.66847
G1 X104.052 Y105.404 E10.69336
G1 X104.36 Y104.722 E10.71825
G1 X104.739 Y104.077 E10.74313
G1 X105.184 Y103.476 E10.768
G1 X105.691 Y102.926 E10.79288
G0 F6000 X106.046 Y103.14
G1 F1200 X106.601 Y102.671 E10.81705
G1 X107.267 Y102.229 E10.84364
G1 X109.368 Y101.011 E10.92441
G1 X110.015 Y100.682 E10.94855
G1 X110.695 Y100.426 E10.97272
G1 X111.399 Y100.246 E10.99689
G1 X112.118 Y100.145 E11.02103
G1 X112.844 Y100.123 E11.04519
G1 X113.568 Y100.181 E11.06935
G1 X114.381 Y100.345 E11.09694
G1 X114.542 Y100.388 E11.10248
G1 X115.232 Y100.613 E11.12662
G1 X115.894 Y100.914 E11.1508
G1 X116.518 Y101.285 E11.17495
G1 X117.098 Y101.722 E11.1991
G1 X117.626 Y102.221 E11.22327
G1 X118.097 Y102.774 E11.24743
G1 X118.547 Y103.451 E11.27446
G1 X118.849 Y103.972 E11.29449
G1 X121.439 Y103.972 E11.38064
G1 X122.164 Y104.012 E11.40479
G1 X122.881 Y104.131 E11.42896
G1 X123.58 Y104.329 E11.45312
G1 X124.253 Y104.602 E11.47728
G1 X124.707 Y104.838 E11.4943
G1 X124.8 Y104.891 E11.49786
G1 X125.41 Y105.285 E11.52201
G1 X125.974 Y105.743 E11.54618
G1 X126.483 Y106.261 E11.57033
G1 X126.933 Y106.831 E11.59449
G1 X127.248 Y107.326 E11.614
G1 X131.185 Y114.147 E11.87595
G1 X131.513 Y114.795 E11.9001
G1 X131.768 Y115.475 E11.92426
G1 X131.946 Y116.179 E11.94841
G1 X132.046 Y116.899 E11.97259
G1 X132.069 Y117.446 E11.9908
G1 X132.069 Y117.554 E11.99439
G1 X132.029 Y118.279 E12.01854
G1 X131.91 Y118.996 E12.04271
G1 X131.712 Y119.695 E12.06687
G1 X131.439 Y120.368 E12.09103
G1 X131.185 Y120.854 E12.10927
G1 X129.892 Y123.094 E12.19529
G1 X130.181 Y123.595 E12.21453
G1 X130.51 Y124.243 E12.2387
G1 X130.765 Y124.923 E12.26286
G1 X130.944 Y125.627 E12.28702
G1 X131.044 Y126.347 E12.31119
G1 X131.065 Y127.073 E12.33535
G1 X131.006 Y127.797 E12.35951
G1 X130.839 Y128.618 E12.38738
G1 X130.795 Y128.781 E12.39299
G1 X130.567 Y129.471 E12.41716
G1 X130.265 Y130.131 E12.4413
G1 X129.893 Y130.755 E12.46547
G1 X129.454 Y131.333 E12.48961
G1 X128.954 Y131.86 E12.51377
G1 X128.399 Y132.329 E12.53794
G1 X127.733 Y132.771 E12.56452
G1 X125.632 Y133.989 E12.64529
G1 X124.985 Y134.318 E12.66944
G1 X124.305 Y134.574 E12.6936
G1 X123.601 Y134.754 E12.71777
G1 X122.882 Y134.855 E12.74192
G1 X122.156 Y134.877 E12.76608
G1 X121.432 Y134.819 E12.79023
G1 X120.619 Y134.655 E12.81782
G1 X120.458 Y134.612 E12.82336
G1 X119.768 Y134.387 E12.8475
G1 X119.106 Y134.086 E12.87169
G1 X118.482 Y133.715 E12.89583
G1 X117.902 Y133.278 E12.91999
G1 X117.374 Y132.779 E12.94415
G1 X116.903 Y132.226 E12.96831
G1 X116.453 Y131.549 E12.99535
G1 X116.151 Y131.028 E13.01538
G1 X113.561 Y131.028 E13.10152
G1 X112.836 Y130.988 E13.12567
G1 X112.119 Y130.869 E13.14985
G1 X111.42 Y130.671 E13.17401
G1 X110.747 Y130.398 E13.19816
G1 X110.293 Y130.162 E13.21518
G1 X110.2 Y130.109 E13.21874
G1 X109.59 Y129.715 E13.2429
G1 X109.026 Y129.257 E13.26706
G1 X108.517 Y128.739 E13.29122
G1 X108.067 Y128.169 E13.31537
G1 X107.752 Y127.674 E13.33488
G1 X103.815 Y120.853 E13.59683
G1 X103.487 Y120.205 E13.62099
G1 X103.232 Y119.525 E13.64514
G1 X103.054 Y118.821 E13.66929
G1 X102.954 Y118.101 E13.69347
G1 X102.931 Y117.554 E13.71168
G1 X102.931 Y117.446 E13.71527
G1 X102.971 Y116.721 E13.73942
G1 X103.09 Y116.004 E13.7636
G1 X103.288 Y115.305 E13.78776
G1 X103.561 Y114.632 E13.81191
G1 X103.815 Y114.146 E13.83015
G1 X105.108 Y111.906 E13.91618
G1 X104.816 Y111.4 E13.93561
G1 X104.488 Y110.752 E13.95976
G1 X104.234 Y110.071 E13.98394
G1 X104.055 Y109.367 E14.0081
G1 X103.956 Y108.648 E14.03224
G1 X103.935 Y107.922 E14.0564
G1 X103.995 Y107.198 E14.08056
G1 X104.161 Y106.382 E14.10825
G1 X104.205 Y106.219 E14.11387
G1 X104.433 Y105.529 E14.13804
G1 X104.735 Y104.869 E14.16218
G1 X105.107 Y104.245 E14.18634
G1 X105.546 Y103.667 E14.21048
G1 X106.046 Y103.14 E14.23465
G0 F6000 X105.908 Y103.86
G1 F1200 X106.401 Y103.357 E14.25807
G1 X106.947 Y102.913 E14.28148
G1 X107.467 Y102.575 E14.30211
G1 X109.568 Y101.357 E14.38288
G1 X110.197 Y101.039 E14.40632
G1 X110.857 Y100.795 E14.42972
G1 X111.54 Y100.626 E14.45313
G1 X112.238 Y100.537 E14.47653
G1 X112.942 Y100.527 E14.49995
G1 X113.643 Y100.597 E14.52338
G1 X114.278 Y100.731 E14.54496
G1 X114.439 Y100.774 E14.55051
G1 X115.108 Y100.994 E14.57393
G1 X115.747 Y101.288 E14.59732
G1 X116.349 Y101.653 E14.62074
G1 X116.906 Y102.084 E14.64416
G1 X117.41 Y102.575 E14.66757
G1 X117.855 Y103.121 E14.691
G1 X118.201 Y103.651 E14.71205
G1 X118.62 Y104.372 E14.73978
G1 X121.439 Y104.372 E14.83354
G1 X122.142 Y104.412 E14.85696
G1 X122.836 Y104.531 E14.88038
