;FLAVOR:Marlin
;TIME:1325
;Filament used: 0.69583m
;Layer height: 0.2
;MINX:98.161
;MINY:101.628
;MINZ:0.2
;MAXX:136.838
;MAXY:132.838
;MAXZ:8.8
;Generated with Cura_SteamEngine 4.7.1
M140 S50
M105
M190 S50
M104 S200
M105
M109 S200
M82 ;absolute extrusion mode
; Ender 3 Custom Start G-code
G92 E0 ; Reset Extruder
G28 ; Home all axes
G1 Z2.0 F3000 ; Move Z Axis up little to prevent scratching of Heat Bed
G1 X0.1 Y20 Z0.3 F5000.0 ; Move to start position
G1 X0.1 Y200.0 Z0.3 F1500.0 E15 ; Draw the first line
G1 X0.4 Y200.0 Z0.3 F5000.0 ; Move to side a little
G1 X0.4 Y20 Z0.3 F1500.0 E30 ; Draw the second line
G92 E0 ; Reset Extruder
G1 Z2.0 F3000 ; Move Z Axis up little to prevent scratching of Heat Bed
G1 X5 Y20 Z0.3 F5000.0 ; Move over to prevent blob squish
G92 E0
G92 E0
G1 F2700 E-5
;LAYER_COUNT:44
;LAYER:0
M107
G0 F6000 X101.387 Y106.746 Z0.2
;TYPE:SKIRT
G1 F2700 E0
G1 F1200 X101.991 Y106.238 E0.02625
G1 X102.644 Y105.793 E0.05253
G1 X103.125 Y105.522 E0.07089
G1 X103.27 Y105.447 E0.07632
G1 X103.988 Y105.12 E0.10257
G1 X104.737 Y104.868 E0.12885
G1 X105.507 Y104.692 E0.15512
G1 X106.29 Y104.595 E0.18136
G1 X107.08 Y104.578 E0.20764
G1 X107.867 Y104.641 E0.2339
G1 X108.644 Y104.783 E0.26017
G1 X108.925 Y104.861 E0.26987
G1 X109.03 Y104.79 E0.27409
G1 X109.461 Y104.523 E0.29095
G1 X109.87 Y104.286 E0.30667
G1 X110.579 Y103.649 E0.33838
G1 X111.193 Y103.151 E0.36467
G1 X111.853 Y102.719 E0.39091
G1 X112.554 Y102.355 E0.41718
G1 X113.288 Y102.064 E0.44344
G1 X114.138 Y101.828 E0.47278
G1 X114.244 Y101.805 E0.47639
G1 X115.023 Y101.677 E0.50264
G1 X115.811 Y101.628 E0.5289
G1 X116.6 Y101.66 E0.55517
G1 X117.382 Y101.771 E0.58144
G1 X118.309 Y102.01 E0.61328
G1 X120.958 Y102.871 E0.70592
G1 X121.156 Y102.934 E0.71283
G1 X121.211 Y102.954 E0.71478
G1 X122.433 Y103.35 E0.7575
G1 X122.511 Y103.373 E0.76021
G1 X122.779 Y103.466 E0.76964
G1 X122.78 Y103.463 E0.76975
G1 X125.795 Y104.442 E0.87518
G1 X126.533 Y104.724 E0.90146
G1 X127.238 Y105.079 E0.92771
G1 X127.904 Y105.503 E0.95397
G1 X128.524 Y105.992 E0.98023
G1 X129.187 Y106.647 E1.01123
G1 X129.258 Y106.726 E1.01477
G1 X129.756 Y107.339 E1.04103
G1 X130.189 Y108 E1.06732
G1 X130.553 Y108.701 E1.09359
G1 X130.844 Y109.435 E1.11985
G1 X131.086 Y110.315 E1.1502
G1 X131.483 Y112.18 E1.21362
G1 X132.131 Y112.429 E1.23671
G1 X132.836 Y112.785 E1.26298
G1 X133.501 Y113.211 E1.28925
G1 X134.12 Y113.702 E1.31553
G1 X134.686 Y114.252 E1.34178
G1 X135.193 Y114.858 E1.36806
G1 X135.637 Y115.511 E1.39432
G1 X135.917 Y116.014 E1.41347
G1 X135.99 Y116.157 E1.41881
G1 X136.313 Y116.877 E1.44505
G1 X136.562 Y117.627 E1.47134
G1 X136.733 Y118.398 E1.4976
G1 X136.826 Y119.182 E1.52386
G1 X136.838 Y119.971 E1.55011
G1 X136.771 Y120.758 E1.57638
G1 X136.625 Y121.534 E1.60264
G1 X136.463 Y122.109 E1.62251
G1 X135.712 Y124.425 E1.70349
G1 X135.43 Y125.163 E1.72977
G1 X135.076 Y125.868 E1.75601
G1 X134.652 Y126.535 E1.78229
G1 X134.163 Y127.155 E1.80856
G1 X133.613 Y127.722 E1.83483
G1 X133.009 Y128.231 E1.8611
G1 X132.357 Y128.676 E1.88736
G1 X131.818 Y128.977 E1.90789
G1 X131.67 Y129.052 E1.91341
G1 X130.948 Y129.372 E1.93967
G1 X130.198 Y129.619 E1.96594
G1 X129.427 Y129.788 E1.99219
G1 X128.642 Y129.878 E2.01847
G1 X127.852 Y129.889 E2.04475
G1 X127.066 Y129.819 E2.07099
G1 X126.29 Y129.671 E2.09727
G1 X126.22 Y129.651 E2.09969
G1 X125.833 Y129.934 E2.11564
G1 X125.444 Y130.194 E2.1312
G1 X125.049 Y130.441 E2.14669
G1 X124.661 Y130.668 E2.16164
G1 X124.479 Y130.766 E2.16852
G1 X124.417 Y130.822 E2.1713
G1 X123.803 Y131.319 E2.19757
G1 X123.143 Y131.751 E2.22381
G1 X122.441 Y132.114 E2.25009
G1 X121.707 Y132.405 E2.27635
G1 X120.93 Y132.623 E2.3032
G1 X120.824 Y132.647 E2.30681
G1 X120.046 Y132.783 E2.33308
G1 X119.259 Y132.838 E2.35932
G1 X118.469 Y132.814 E2.38561
G1 X117.687 Y132.71 E2.41184
G1 X117.334 Y132.621 E2.42395
G1 X116.968 Y132.621 E2.43613
G1 X116.51 Y132.606 E2.45137
G1 X116.015 Y132.574 E2.46787
G1 X115.663 Y132.539 E2.47963
G1 X115.025 Y132.461 E2.50101
G1 X114.696 Y132.406 E2.5121
G1 X114.375 Y132.346 E2.52296
G1 X114.09 Y132.286 E2.53265
G1 X113.327 Y132.084 E2.5589
G1 X112.601 Y131.798 E2.58486
G1 X111.997 Y131.649 E2.60555
G1 X111.614 Y131.523 E2.61896
G1 X111.477 Y131.474 E2.6238
G1 X110.505 Y131.05 E2.65907
G1 X110.132 Y130.856 E2.67305
G1 X109.795 Y130.67 E2.68585
G1 X109.393 Y130.435 E2.70134
G1 X108.994 Y130.186 E2.71698
G1 X108.62 Y129.936 E2.73195
G1 X108.212 Y129.644 E2.74863
G1 X108.098 Y129.557 E2.7534
G1 X107.727 Y129.368 E2.76725
G1 X107.063 Y128.94 E2.79353
G1 X106.446 Y128.447 E2.8198
G1 X105.777 Y127.779 E2.85124
G1 X105.707 Y127.7 E2.85475
G1 X105.214 Y127.083 E2.88102
G1 X104.786 Y126.42 E2.90727
G1 X104.427 Y125.716 E2.93355
G1 X104.218 Y125.178 E2.95275
G1 X103.842 Y124.547 E2.97718
G1 X103.666 Y124.198 E2.99018
G1 X103.513 Y123.877 E3.002
G1 X103.331 Y123.471 E3.0168
G1 X103.138 Y122.997 E3.03383
G1 X103.012 Y122.658 E3.04585
G1 X103.014 Y122.657 E3.04593
G1 X102.824 Y122.118 E3.06494
G1 X102.788 Y121.998 E3.0691
G1 X102.169 Y121.686 E3.09216
G1 X101.504 Y121.261 E3.11841
G1 X100.885 Y120.77 E3.14469
G1 X100.319 Y120.22 E3.17094
G1 X99.811 Y119.615 E3.19721
G1 X99.367 Y118.962 E3.22348
G1 X99.093 Y118.474 E3.24209
G1 X99.019 Y118.33 E3.24747
G1 X98.695 Y117.61 E3.27373
G1 X98.444 Y116.861 E3.30001
G1 X98.271 Y116.091 E3.32626
G1 X98.176 Y115.307 E3.35252
G1 X98.161 Y114.518 E3.37877
G1 X98.226 Y113.731 E3.40504
G1 X98.37 Y112.954 E3.43132
G1 X98.538 Y112.358 E3.45191
G1 X99.289 Y110.043 E3.53286
G1 X99.57 Y109.305 E3.55913
G1 X99.925 Y108.6 E3.58538
G1 X100.349 Y107.933 E3.61167
G1 X100.838 Y107.314 E3.6379
G1 X101.387 Y106.746 E3.66418
G0 F6000 X101.734 Y106.971
G1 F1200 X102.329 Y106.484 E3.68975
G1 X103.308 Y105.877 E3.72806
G1 X103.453 Y105.802 E3.73349
G1 X104.154 Y105.485 E3.75908
G1 X104.884 Y105.242 E3.78467
G1 X105.635 Y105.076 E3.81025
G1 X106.399 Y104.989 E3.83583
G1 X107.168 Y104.982 E3.86141
G1 X107.934 Y105.054 E3.887
G1 X108.688 Y105.206 E3.91258
G1 X108.997 Y105.295 E3.92327
G1 X109.241 Y105.13 E3.93307
G1 X109.672 Y104.863 E3.94993
G1 X110.052 Y104.643 E3.96454
G1 X110.098 Y104.618 E3.96628
G1 X110.846 Y103.946 E3.99972
G1 X111.445 Y103.463 E4.02532
G1 X112.09 Y103.044 E4.0509
G1 X112.775 Y102.694 E4.07648
G1 X113.492 Y102.417 E4.10205
G1 X114.223 Y102.219 E4.12724
G1 X114.329 Y102.196 E4.13085
G1 X115.088 Y102.072 E4.15642
G1 X115.856 Y102.028 E4.18201
G1 X116.624 Y102.064 E4.20758
G1 X117.385 Y102.179 E4.23318
G1 X118.186 Y102.39 E4.26073
G1 X121.035 Y103.315 E4.36036
G1 X121.088 Y103.335 E4.36224
G1 X122.304 Y103.729 E4.40476
G1 X122.399 Y103.757 E4.40805
G1 X122.655 Y103.846 E4.41706
G1 X122.656 Y103.844 E4.41714
G1 X125.671 Y104.823 E4.52257
G1 X126.39 Y105.098 E4.54818
G1 X127.075 Y105.446 E4.57373
G1 X127.721 Y105.864 E4.59932
G1 X128.32 Y106.346 E4.62489
G1 X128.89 Y106.915 E4.65168
G1 X128.961 Y106.994 E4.65521
G1 X129.445 Y107.592 E4.6808
G1 X129.864 Y108.237 E4.70638
G1 X130.213 Y108.922 E4.73195
G1 X130.49 Y109.639 E4.75752
G1 X130.695 Y110.398 E4.78367
G1 X131.139 Y112.483 E4.85457
G1 X131.27 Y112.526 E4.85916
G1 X131.987 Y112.803 E4.88472
G1 X132.672 Y113.153 E4.91031
G1 X133.317 Y113.572 E4.93589
G1 X133.915 Y114.055 E4.96146
G1 X134.46 Y114.598 E4.98704
G1 X134.946 Y115.195 E5.01265
G1 X135.366 Y115.839 E5.03822
G1 X135.561 Y116.195 E5.05172
G1 X135.634 Y116.338 E5.05706
G1 X135.948 Y117.041 E5.08267
G1 X136.187 Y117.772 E5.10825
G1 X136.348 Y118.524 E5.13383
G1 X136.431 Y119.288 E5.15939
G1 X136.435 Y120.058 E5.185
G1 X136.358 Y120.823 E5.21057
G1 X136.202 Y121.576 E5.23615
G1 X136.082 Y121.986 E5.25036
G1 X135.331 Y124.302 E5.33134
G1 X135.056 Y125.02 E5.35691
G1 X134.708 Y125.706 E5.38249
G1 X134.291 Y126.352 E5.40807
G1 X133.809 Y126.951 E5.43364
G1 X133.267 Y127.497 E5.45923
G1 X132.671 Y127.984 E5.48482
G1 X132.029 Y128.406 E5.51038
G1 X131.637 Y128.62 E5.52523
G1 X131.489 Y128.695 E5.53075
G1 X130.786 Y129.006 E5.55632
G1 X130.054 Y129.243 E5.58191
G1 X129.302 Y129.403 E5.60748
G1 X128.537 Y129.484 E5.63307
G1 X127.768 Y129.484 E5.65864
G1 X127.002 Y129.405 E5.68426
G1 X126.25 Y129.247 E5.70981
G1 X126.138 Y129.215 E5.71369
G1 X126.032 Y129.295 E5.71811
G1 X126.031 Y129.294 E5.71815
G1 X125.611 Y129.601 E5.73546
G1 X125.222 Y129.861 E5.75102
G1 X124.847 Y130.096 E5.76574
G1 X124.459 Y130.323 E5.78069
G1 X124.245 Y130.438 E5.78877
G1 X124.15 Y130.524 E5.79303
G1 X123.552 Y131.007 E5.8186
G1 X122.906 Y131.426 E5.84421
G1 X122.221 Y131.775 E5.86978
G1 X121.503 Y132.051 E5.89536
G1 X120.842 Y132.233 E5.91816
G1 X120.736 Y132.257 E5.92178
G1 X119.978 Y132.388 E5.94736
G1 X119.211 Y132.439 E5.97293
G1 X118.442 Y132.411 E5.99853
G1 X117.681 Y132.302 E6.02409
G1 X117.371 Y132.222 E6.03474
G1 X116.981 Y132.221 E6.04771
G1 X116.523 Y132.206 E6.06296
G1 X116.054 Y132.176 E6.07859
G1 X115.728 Y132.145 E6.08948
G1 X115.091 Y132.067 E6.11082
G1 X114.762 Y132.012 E6.12192
G1 X114.458 Y131.954 E6.13221
G1 X114.173 Y131.894 E6.1419
G1 X113.429 Y131.697 E6.1675
G1 X112.687 Y131.403 E6.19404
G1 X111.749 Y131.147 E6.22638
G1 X111.612 Y131.098 E6.23122
G1 X110.689 Y130.695 E6.26472
G1 X110.316 Y130.501 E6.2787
G1 X109.996 Y130.325 E6.29085
G1 X109.594 Y130.09 E6.30634
G1 X109.217 Y129.853 E6.32115
G1 X108.843 Y129.603 E6.33611
G1 X108.456 Y129.326 E6.35194
G1 X108.318 Y129.22 E6.35773
G1 X107.892 Y129.001 E6.37366
G1 X107.248 Y128.58 E6.39925
G1 X106.651 Y128.094 E6.42485
G1 X106.076 Y127.514 E6.45202
G1 X106.006 Y127.435 E6.45553
G1 X105.527 Y126.833 E6.48111
G1 X105.112 Y126.185 E6.50671
G1 X104.768 Y125.498 E6.53226
G1 X104.587 Y125.018 E6.54932
G1 X104.2 Y124.367 E6.57451
G1 X104.024 Y124.018 E6.58751
G1 X103.878 Y123.713 E6.59876
G1 X103.696 Y123.307 E6.61356
G1 X103.513 Y122.858 E6.62969
G1 X103.387 Y122.519 E6.64171
G1 X103.389 Y122.518 E6.64179
G1 X103.207 Y122.002 E6.65999
G1 X103.117 Y121.706 E6.67028
G1 X103.018 Y121.668 E6.6738
G1 X102.333 Y121.319 E6.69937
G1 X101.687 Y120.9 E6.72498
G1 X101.089 Y120.417 E6.75055
G1 X100.544 Y119.874 E6.77614
G1 X100.058 Y119.278 E6.80172
G1 X99.637 Y118.634 E6.82731
G1 X99.449 Y118.291 E6.84032
G1 X99.375 Y118.147 E6.8457
G1 X99.06 Y117.446 E6.87126
G1 X98.819 Y116.715 E6.89686
G1 X98.655 Y115.964 E6.92243
G1 X98.57 Y115.199 E6.94803
G1 X98.565 Y114.43 E6.97361
G1 X98.639 Y113.665 E6.99917
G1 X98.793 Y112.911 E7.02477
G1 X98.918 Y112.482 E7.03963
G1 X99.669 Y110.167 E7.12058
G1 X99.944 Y109.448 E7.14618
G1 X100.292 Y108.762 E7.17176
G1 X100.71 Y108.116 E7.19736
G1 X101.192 Y107.517 E7.22293
G1 X101.734 Y106.971 E7.24852
G0 F6000 X102.079 Y107.199
G1 F1200 X102.666 Y106.735 E7.2734
G1 X103.492 Y106.232 E7.30557
G1 X103.637 Y106.157 E7.311
G1 X104.319 Y105.85 E7.33587
G1 X105.03 Y105.617 E7.36076
G1 X105.761 Y105.461 E7.38562
G1 X106.505 Y105.384 E7.4105
G1 X107.253 Y105.386 E7.43538
G1 X107.997 Y105.469 E7.46028
G1 X108.988 Y105.709 E7.49419
G1 X109.063 Y105.733 E7.49681
G1 X109.452 Y105.47 E7.51243
G1 X109.883 Y105.203 E7.52929
G1 X110.242 Y104.995 E7.54309
G1 X110.333 Y104.946 E7.54653
G1 X111.114 Y104.244 E7.58145
G1 X111.696 Y103.774 E7.60633
G1 X112.325 Y103.37 E7.6312
G1 X112.994 Y103.034 E7.6561
G1 X113.695 Y102.773 E7.68098
G1 X114.308 Y102.61 E7.70207
G1 X114.414 Y102.587 E7.70568
G1 X115.152 Y102.468 E7.73055
G1 X115.899 Y102.428 E7.75543
G1 X116.646 Y102.468 E7.78031
G1 X117.385 Y102.588 E7.80521
G1 X118.062 Y102.771 E7.82853
G1 X120.913 Y103.697 E7.92823
G1 X120.964 Y103.718 E7.93007
G1 X120.965 Y103.715 E7.93017
G1 X122.192 Y104.113 E7.97308
G1 X122.288 Y104.141 E7.9764
G1 X122.532 Y104.226 E7.985
G1 X122.533 Y104.224 E7.98507
G1 X125.548 Y105.203 E8.09051
G1 X126.246 Y105.472 E8.11539
G1 X126.911 Y105.814 E8.14026
G1 X127.537 Y106.224 E8.16515
G1 X128.114 Y106.699 E8.19
G1 X128.592 Y107.182 E8.2126
G1 X128.663 Y107.261 E8.21614
G1 X129.133 Y107.843 E8.24102
G1 X129.538 Y108.472 E8.2659
G1 X129.873 Y109.141 E8.29079
G1 X130.135 Y109.842 E8.31568
G1 X130.303 Y110.481 E8.33765
G1 X130.795 Y112.793 E8.41627
G1 X131.145 Y112.907 E8.42851
G1 X131.843 Y113.177 E8.45341
G1 X132.508 Y113.52 E8.47829
G1 X133.132 Y113.932 E8.50316
G1 X133.709 Y114.408 E8.52804
G1 X134.232 Y114.943 E8.55293
G1 X134.694 Y115.531 E8.5778
G1 X135.205 Y116.377 E8.61067
G1 X135.278 Y116.52 E8.61601
G1 X135.582 Y117.204 E8.64091
G1 X135.811 Y117.916 E8.66578
G1 X135.963 Y118.648 E8.69065
G1 X136.036 Y119.393 E8.71554
G1 X136.029 Y120.141 E8.74042
G1 X135.943 Y120.884 E8.7653
G1 X135.702 Y121.862 E8.7988
G1 X134.951 Y124.178 E8.87978
G1 X134.682 Y124.876 E8.90466
G1 X134.341 Y125.542 E8.92955
G1 X133.93 Y126.167 E8.95443
G1 X133.455 Y126.745 E8.97931
G1 X132.922 Y127.269 E9.00417
G1 X132.335 Y127.733 E9.02906
G1 X131.456 Y128.263 E9.0632
G1 X131.308 Y128.338 E9.06871
G1 X130.624 Y128.64 E9.09358
G1 X129.911 Y128.867 E9.11847
G1 X129.178 Y129.017 E9.14336
G1 X128.434 Y129.088 E9.16821
G1 X127.685 Y129.079 E9.19313
G1 X126.943 Y128.99 E9.21798
G1 X126.06 Y128.773 E9.24823
G1 X125.791 Y128.976 E9.25943
G1 X125.79 Y128.975 E9.25948
G1 X125.389 Y129.269 E9.27602
G1 X125 Y129.529 E9.29158
G1 X124.645 Y129.751 E9.30551
G1 X124.257 Y129.978 E9.32046
G1 X124.012 Y130.11 E9.32972
G1 X123.883 Y130.226 E9.33549
G1 X123.3 Y130.695 E9.36037
G1 X122.671 Y131.1 E9.38525
G1 X122.002 Y131.434 E9.41012
G1 X121.301 Y131.696 E9.43501
G1 X120.754 Y131.843 E9.45385
G1 X120.648 Y131.867 E9.45747
G1 X119.91 Y131.993 E9.48237
G1 X119.164 Y132.04 E9.50723
G1 X118.416 Y132.006 E9.53213
G1 X117.677 Y131.893 E9.557
G1 X117.409 Y131.822 E9.56622
G1 X116.994 Y131.821 E9.58002
G1 X116.536 Y131.806 E9.59527
G1 X116.092 Y131.778 E9.61006
G1 X115.764 Y131.747 E9.62102
G1 X115.157 Y131.672 E9.64136
G1 X114.828 Y131.617 E9.65246
G1 X114.54 Y131.563 E9.6622
G1 X114.255 Y131.503 E9.67189
G1 X113.532 Y131.31 E9.69678
G1 X112.817 Y131.025 E9.72238
G1 X111.884 Y130.77 E9.75455
G1 X111.747 Y130.721 E9.75939
G1 X110.874 Y130.34 E9.79107
G1 X110.501 Y130.146 E9.80505
G1 X110.198 Y129.979 E9.81656
G1 X109.796 Y129.744 E9.83205
G1 X109.439 Y129.521 E9.84605
G1 X109.065 Y129.271 E9.86101
G1 X108.699 Y129.008 E9.876
G1 X108.538 Y128.885 E9.88274
G1 X108.058 Y128.635 E9.90074
G1 X107.435 Y128.221 E9.92562
G1 X106.859 Y127.742 E9.95054
G1 X106.376 Y127.248 E9.97351
G1 X106.306 Y127.169 E9.97702
G1 X105.84 Y126.584 E10.0019
G1 X105.44 Y125.952 E10.02678
G1 X105.109 Y125.281 E10.05166
G1 X104.952 Y124.853 E10.06683
G1 X104.557 Y124.187 E10.09258
G1 X104.381 Y123.838 E10.10558
G1 X104.243 Y123.549 E10.11623
G1 X104.061 Y123.143 E10.13103
G1 X103.888 Y122.719 E10.14626
G1 X103.762 Y122.38 E10.15829
G1 X103.763 Y122.379 E10.15834
G1 X103.59 Y121.886 E10.17571
G1 X103.515 Y121.637 E10.18436
G1 X103.499 Y121.589 E10.18605
G1 X103.448 Y121.405 E10.1924
G1 X103.162 Y121.294 E10.2026
G1 X102.497 Y120.951 E10.22749
G1 X101.872 Y120.54 E10.25237
G1 X101.295 Y120.064 E10.27725
G1 X100.772 Y119.529 E10.30213
G1 X100.309 Y118.942 E10.327
G1 X99.805 Y118.108 E10.35941
G1 X99.731 Y117.964 E10.36479
G1 X99.425 Y117.282 E10.38965
G1 X99.194 Y116.57 E10.41455
G1 X99.04 Y115.838 E10.43943
G1 X98.965 Y115.094 E10.4643
G1 X98.97 Y114.346 E10.48918
G1 X99.054 Y113.603 E10.51405
G1 X99.299 Y112.605 E10.54823
G1 X100.05 Y110.29 E10.62918
G1 X100.318 Y109.592 E10.65404
G1 X100.66 Y108.926 E10.67895
G1 X101.07 Y108.301 E10.70381
G1 X101.545 Y107.723 E10.72869
G1 X102.079 Y107.199 E10.75357
G0 F6000 X102.423 Y107.43
G1 F1200 X103.001 Y106.99 E10.77773
G1 X103.676 Y106.588 E10.80386
G1 X103.821 Y106.513 E10.80929
G1 X104.483 Y106.215 E10.83344
G1 X105.175 Y105.992 E10.85762
G1 X105.886 Y105.846 E10.88176
G1 X106.609 Y105.779 E10.90591
G1 X107.336 Y105.793 E10.9301
G1 X108.056 Y105.886 E10.95424
G1 X108.866 Y106.09 E10.98203
G1 X109.13 Y106.175 E10.99125
G1 X109.213 Y106.115 E10.99466
G1 X109.662 Y105.81 E11.01271
G1 X110.093 Y105.543 E11.02957
G1 X110.432 Y105.347 E11.0426
G1 X110.562 Y105.277 E11.04751
G1 X111.381 Y104.541 E11.08413
G1 X111.947 Y104.086 E11.10829
G1 X112.56 Y103.696 E11.13245
G1 X113.212 Y103.376 E11.15661
G1 X113.895 Y103.129 E11.18076
G1 X114.392 Y103.001 E11.19783
G1 X114.498 Y102.978 E11.20144
G1 X115.216 Y102.863 E11.22563
