;FLAVOR:Marlin
;TIME:3057
;Filament used: 1.28638m
;Layer height: 0.2
;MINX:102.428
;MINY:102.378
;MINZ:0.2
;MAXX:132.572
;MAXY:132.621
;MAXZ:44.4
;Generated with Cura_SteamEngine 4.7.1
M140 S50
M105
M190 S50
M104 S200
M105
M109 S200
M82 ;absolute extrusion mode
; Ender 3 Custom Start G-code
G92 E0 ; Reset Extruder
G28 ; Home all axes
G1 Z2.0 F3000 ; Move Z Axis up little to prevent scratching of Heat Bed
G1 X0.1 Y20 Z0.3 F5000.0 ; Move to start position
G1 X0.1 Y200.0 Z0.3 F1500.0 E15 ; Draw the first line
G1 X0.4 Y200.0 Z0.3 F5000.0 ; Move to side a little
G1 X0.4 Y20 Z0.3 F1500.0 E30 ; Draw the second line
G92 E0 ; Reset Extruder
G1 Z2.0 F3000 ; Move Z Axis up little to prevent scratching of Heat Bed
G1 X5 Y20 Z0.3 F5000.0 ; Move over to prevent blob squish
G92 E0
G92 E0
G1 F2700 E-5
;LAYER_COUNT:222
;LAYER:0
M107
G0 F6000 X106.846 Y106.767 Z0.2
;TYPE:SKIRT
G1 F2700 E0
G1 F1200 X107.067 Y106.554 E0.01021
G1 X107.344 Y106.297 E0.02278
G1 X107.768 Y105.925 E0.04154
G1 X108.13 Y105.63 E0.05707
G1 X108.515 Y105.336 E0.07318
G1 X108.871 Y105.081 E0.08775
G1 X109.276 Y104.81 E0.10395
G1 X109.666 Y104.566 E0.11925
G1 X109.975 Y104.382 E0.13122
G1 X110.191 Y104.262 E0.13943
G1 X110.514 Y104.088 E0.15164
G1 X110.769 Y103.956 E0.16119
G1 X110.958 Y103.863 E0.16819
G1 X111.684 Y103.551 E0.19448
G1 X112.451 Y103.31 E0.22122
G1 X112.722 Y103.24 E0.23052
G1 X112.878 Y103.205 E0.23584
G1 X113.668 Y102.896 E0.26406
G1 X113.807 Y102.853 E0.2689
G1 X114.882 Y102.603 E0.3056
G1 X115.12 Y102.565 E0.31362
G1 X115.388 Y102.527 E0.32262
G1 X115.745 Y102.482 E0.33459
G1 X116.341 Y102.422 E0.35451
G1 X116.703 Y102.4 E0.36658
G1 X116.703 Y102.404 E0.36671
G1 X117.262 Y102.378 E0.38532
G1 X117.726 Y102.378 E0.40076
G1 X118.225 Y102.394 E0.41736
G1 X118.693 Y102.424 E0.43296
G1 X119.194 Y102.472 E0.4497
G1 X119.635 Y102.529 E0.46449
G1 X119.908 Y102.57 E0.47367
G1 X120.168 Y102.613 E0.48243
G1 X120.939 Y102.781 E0.50868
G1 X121.744 Y103.047 E0.53688
G1 X122.004 Y103.149 E0.54617
G1 X122.144 Y103.209 E0.55123
G1 X122.662 Y103.332 E0.56894
G1 X123.05 Y103.455 E0.58248
G1 X123.182 Y103.501 E0.58713
G1 X124.103 Y103.89 E0.62038
G1 X124.289 Y103.983 E0.6273
G1 X124.557 Y104.124 E0.63737
G1 X124.952 Y104.341 E0.65236
G1 X125.345 Y104.572 E0.66752
G1 X125.735 Y104.817 E0.68284
G1 X126.115 Y105.071 E0.69804
G1 X126.488 Y105.337 E0.71328
G1 X126.9 Y105.653 E0.73055
G1 X127.253 Y105.942 E0.74572
G1 X127.621 Y106.262 E0.76194
G1 X127.945 Y106.563 E0.77665
G1 X128.225 Y106.837 E0.78968
G1 X128.262 Y106.875 E0.79145
G1 X128.462 Y107.053 E0.80035
G1 X128.996 Y107.635 E0.82662
G1 X129.468 Y108.268 E0.85288
G1 X129.812 Y108.842 E0.87514
G1 X129.932 Y108.979 E0.8812
G1 X130.463 Y109.737 E0.91198
G1 X130.634 Y110.015 E0.92284
G1 X131.026 Y110.735 E0.9501
G1 X131.227 Y111.155 E0.96559
G1 X131.421 Y111.594 E0.98155
G1 X131.551 Y111.915 E0.99307
G1 X131.547 Y111.916 E0.99321
G1 X131.76 Y112.464 E1.01276
G1 X131.874 Y112.809 E1.02485
G1 X132.042 Y113.351 E1.04372
G1 X132.158 Y113.784 E1.05863
G1 X132.261 Y114.217 E1.07344
G1 X132.354 Y114.665 E1.08865
G1 X132.439 Y115.152 E1.1051
G1 X132.471 Y115.377 E1.11265
G1 X132.511 Y115.71 E1.12381
G1 X132.532 Y115.923 E1.13093
G1 X132.57 Y116.711 E1.15717
G1 X132.537 Y117.409 E1.18041
G1 X132.524 Y117.552 E1.18519
G1 X132.572 Y118.247 E1.20836
G1 X132.572 Y118.4 E1.21345
G1 X132.532 Y119.189 E1.23972
G1 X132.464 Y119.693 E1.25664
G1 X132.367 Y120.27 E1.2761
G1 X132.25 Y120.837 E1.29535
G1 X132.166 Y121.179 E1.30707
G1 X132.162 Y121.178 E1.3072
G1 X132.025 Y121.71 E1.32547
G1 X131.956 Y121.932 E1.33321
G1 X131.936 Y122.001 E1.3356
G1 X131.726 Y122.629 E1.35762
G1 X131.597 Y122.967 E1.36965
G1 X131.594 Y122.966 E1.36976
G1 X131.397 Y123.464 E1.38757
G1 X131.202 Y123.898 E1.4034
G1 X131 Y124.313 E1.41875
G1 X130.884 Y124.535 E1.42708
G1 X130.617 Y125.006 E1.44509
G1 X130.464 Y125.255 E1.45481
G1 X130.017 Y125.907 E1.4811
G1 X129.64 Y126.351 E1.50047
G1 X129.243 Y126.982 E1.52527
G1 X129.156 Y127.101 E1.53017
G1 X128.658 Y127.715 E1.55646
G1 X128.321 Y128.066 E1.57265
G1 X128.005 Y128.376 E1.58737
G1 X128.004 Y128.375 E1.58742
G1 X127.587 Y128.769 E1.6065
G1 X127.235 Y129.074 E1.62199
G1 X126.832 Y129.4 E1.63923
G1 X126.549 Y129.614 E1.65103
G1 X126.548 Y129.612 E1.65111
G1 X126.108 Y129.934 E1.66924
G1 X125.719 Y130.194 E1.6848
G1 X125.317 Y130.445 E1.70057
G1 X124.923 Y130.675 E1.71574
G1 X124.479 Y130.916 E1.73254
G1 X124.129 Y131.091 E1.74556
G1 X123.406 Y131.407 E1.7718
G1 X122.885 Y131.584 E1.7901
G1 X122.572 Y131.678 E1.80097
G1 X122.188 Y131.772 E1.81412
G1 X121.475 Y132.058 E1.83967
G1 X121.351 Y132.099 E1.84402
G1 X120.589 Y132.308 E1.8703
G1 X120.055 Y132.407 E1.88836
G1 X119.553 Y132.482 E1.90524
G1 X119.139 Y132.533 E1.91912
G1 X118.687 Y132.576 E1.93422
G1 X118.191 Y132.607 E1.95075
G1 X117.741 Y132.621 E1.96572
G1 X117.243 Y132.621 E1.98228
G1 X116.785 Y132.606 E1.99753
G1 X116.29 Y132.574 E2.01402
G1 X115.938 Y132.539 E2.02579
G1 X115.3 Y132.461 E2.04717
G1 X114.971 Y132.406 E2.05826
G1 X114.65 Y132.346 E2.06912
G1 X114.365 Y132.286 E2.07881
G1 X113.602 Y132.084 E2.10506
G1 X112.876 Y131.798 E2.13101
G1 X112.272 Y131.649 E2.15171
G1 X111.889 Y131.523 E2.16512
G1 X111.752 Y131.474 E2.16995
G1 X110.78 Y131.05 E2.20523
G1 X110.407 Y130.856 E2.21921
G1 X110.07 Y130.67 E2.23201
G1 X109.668 Y130.435 E2.2475
G1 X109.269 Y130.186 E2.26314
G1 X108.895 Y129.936 E2.2781
G1 X108.487 Y129.644 E2.29479
G1 X108.124 Y129.366 E2.31
G1 X107.724 Y129.038 E2.3272
G1 X107.456 Y128.803 E2.33906
G1 X107.458 Y128.801 E2.33915
G1 X107.003 Y128.386 E2.35964
G1 X106.756 Y128.139 E2.37125
G1 X106.452 Y127.818 E2.38596
G1 X106.244 Y127.585 E2.39635
G1 X105.749 Y126.97 E2.42261
G1 X105.373 Y126.369 E2.44618
G1 X105.067 Y126.02 E2.46162
G1 X104.79 Y125.648 E2.47705
G1 X104.692 Y125.508 E2.48273
G1 X104.117 Y124.547 E2.51998
G1 X103.941 Y124.198 E2.53298
G1 X103.788 Y123.877 E2.54481
G1 X103.606 Y123.471 E2.55961
G1 X103.413 Y122.997 E2.57663
G1 X103.287 Y122.658 E2.58866
G1 X103.289 Y122.657 E2.58873
G1 X103.099 Y122.118 E2.60774
G1 X102.995 Y121.771 E2.61979
G1 X102.83 Y121.178 E2.64026
G1 X102.725 Y120.725 E2.65573
G1 X102.666 Y120.446 E2.66521
G1 X102.61 Y120.143 E2.67546
G1 X102.552 Y119.792 E2.68729
G1 X102.468 Y119.072 E2.7114
G1 X102.449 Y118.804 E2.72034
G1 X102.433 Y118.014 E2.74662
G1 X102.474 Y117.457 E2.76519
G1 X102.428 Y116.703 E2.79032
G1 X102.429 Y116.539 E2.79577
G1 X102.474 Y115.751 E2.82203
G1 X102.534 Y115.312 E2.83676
G1 X102.589 Y114.98 E2.84796
G1 X102.635 Y114.729 E2.85644
G1 X102.724 Y114.283 E2.87157
G1 X102.849 Y113.754 E2.88965
G1 X102.973 Y113.3 E2.9053
G1 X103.104 Y112.867 E2.92035
G1 X103.244 Y112.451 E2.93495
G1 X103.426 Y111.966 E2.95218
G1 X103.6 Y111.544 E2.96736
G1 X103.792 Y111.115 E2.98299
G1 X103.95 Y110.789 E2.99504
G1 X104.028 Y110.633 E3.00084
G1 X104.15 Y110.395 E3.00974
G1 X104.764 Y109.392 E3.04885
G1 X104.857 Y109.263 E3.05414
G1 X105.311 Y108.717 E3.07776
G1 X105.555 Y108.306 E3.09366
G1 X105.8 Y107.958 E3.10781
G1 X105.891 Y107.836 E3.11287
G1 X106.628 Y106.985 E3.15032
G1 X106.846 Y106.767 E3.16057
G0 F6000 X107.128 Y107.049
G1 F1200 X107.338 Y106.848 E3.17024
G1 X107.619 Y106.588 E3.18297
G1 X108.02 Y106.236 E3.20072
G1 X108.382 Y105.941 E3.21625
G1 X108.748 Y105.661 E3.23158
G1 X109.104 Y105.406 E3.24614
G1 X109.488 Y105.149 E3.26151
G1 X109.878 Y104.905 E3.27681
G1 X110.172 Y104.73 E3.28819
G1 X110.38 Y104.614 E3.29611
G1 X110.703 Y104.44 E3.30832
G1 X110.946 Y104.315 E3.3174
G1 X111.135 Y104.222 E3.32441
G1 X111.842 Y103.919 E3.34999
G1 X112.551 Y103.697 E3.3747
G1 X112.822 Y103.627 E3.38401
G1 X112.991 Y103.589 E3.38977
G1 X113.786 Y103.279 E3.41816
G1 X113.925 Y103.236 E3.42299
G1 X114.945 Y102.998 E3.45783
G1 X115.183 Y102.96 E3.46585
G1 X115.437 Y102.924 E3.47438
G1 X115.738 Y102.887 E3.48447
G1 X115.8 Y102.878 E3.48655
G1 X116.365 Y102.822 E3.50543
G1 X116.727 Y102.8 E3.5175
G1 X116.727 Y102.803 E3.5176
G1 X117.262 Y102.778 E3.53541
G1 X117.726 Y102.778 E3.55084
G1 X118.199 Y102.793 E3.56658
G1 X118.667 Y102.823 E3.58218
G1 X119.143 Y102.869 E3.59809
G1 X119.584 Y102.926 E3.61288
G1 X119.842 Y102.964 E3.62155
G1 X120.102 Y103.007 E3.63031
G1 X120.854 Y103.172 E3.65592
G1 X121.598 Y103.419 E3.682
G1 X121.858 Y103.521 E3.69128
G1 X122.047 Y103.602 E3.69812
G1 X122.918 Y103.833 E3.72809
G1 X123.05 Y103.879 E3.73274
G1 X123.924 Y104.248 E3.7643
G1 X124.11 Y104.341 E3.77121
G1 X124.364 Y104.474 E3.78075
G1 X124.759 Y104.691 E3.79574
G1 X125.132 Y104.911 E3.81014
G1 X125.522 Y105.156 E3.82546
G1 X125.883 Y105.397 E3.8399
G1 X126.256 Y105.663 E3.85514
G1 X126.647 Y105.962 E3.87151
G1 X127 Y106.251 E3.88668
G1 X127.349 Y106.556 E3.9021
G1 X127.673 Y106.857 E3.91681
G1 X127.939 Y107.116 E3.92915
G1 X127.996 Y107.174 E3.93186
G1 X128.195 Y107.352 E3.94074
G1 X128.713 Y107.921 E3.96633
G1 X129.169 Y108.541 E3.99193
G1 X129.481 Y109.073 E4.01244
G1 X129.631 Y109.244 E4.02001
G1 X130.122 Y109.947 E4.04853
G1 X130.293 Y110.225 E4.05938
G1 X130.665 Y110.908 E4.08525
G1 X130.866 Y111.328 E4.10074
G1 X131.05 Y111.744 E4.11587
G1 X131.18 Y112.065 E4.12739
G1 X131.177 Y112.066 E4.12749
G1 X131.38 Y112.591 E4.14621
G1 X131.464 Y112.844 E4.15508
G1 X131.482 Y112.894 E4.15685
G1 X131.656 Y113.454 E4.17635
G1 X131.772 Y113.887 E4.19126
G1 X131.87 Y114.298 E4.20531
G1 X131.963 Y114.746 E4.22053
G1 X132.043 Y115.208 E4.23613
G1 X132.075 Y115.433 E4.24369
G1 X132.113 Y115.749 E4.25427
G1 X132.134 Y115.962 E4.26139
G1 X132.17 Y116.73 E4.28696
G1 X132.138 Y117.372 E4.30834
G1 X132.123 Y117.536 E4.31382
G1 X132.172 Y118.247 E4.33752
G1 X132.172 Y118.4 E4.34261
G1 X132.132 Y119.168 E4.36819
G1 X132.07 Y119.627 E4.3836
G1 X131.973 Y120.204 E4.40306
G1 X131.861 Y120.742 E4.42133
G1 X131.777 Y121.084 E4.43305
G1 X131.774 Y121.083 E4.43315
G1 X131.643 Y121.592 E4.45063
G1 X131.552 Y121.89 E4.461
G1 X131.353 Y122.487 E4.48193
G1 X131.224 Y122.825 E4.49396
G1 X131.221 Y122.824 E4.49406
G1 X131.032 Y123.3 E4.5111
G1 X130.837 Y123.734 E4.52692
G1 X130.646 Y124.128 E4.54149
G1 X130.53 Y124.35 E4.54982
G1 X130.276 Y124.797 E4.56692
G1 X130.123 Y125.046 E4.57664
G1 X129.687 Y125.68 E4.60223
G1 X129.32 Y126.11 E4.62103
G1 X128.92 Y126.746 E4.64602
G1 X128.833 Y126.865 E4.65092
G1 X128.347 Y127.462 E4.67653
G1 X128.041 Y127.781 E4.69123
G1 X127.725 Y128.091 E4.70595
G1 X127.723 Y128.089 E4.70605
G1 X127.325 Y128.467 E4.7243
G1 X126.973 Y128.772 E4.7398
G1 X126.59 Y129.081 E4.75616
G1 X126.307 Y129.295 E4.76796
G1 X126.306 Y129.294 E4.76801
G1 X125.886 Y129.601 E4.78531
G1 X125.497 Y129.861 E4.80088
G1 X125.116 Y130.1 E4.81584
G1 X124.722 Y130.33 E4.83101
G1 X124.3 Y130.558 E4.84696
G1 X123.95 Y130.733 E4.85998
G1 X123.245 Y131.041 E4.88557
G1 X122.769 Y131.201 E4.90227
G1 X122.456 Y131.295 E4.91314
G1 X122.065 Y131.391 E4.92653
G1 X121.349 Y131.678 E4.95219
G1 X121.225 Y131.719 E4.95653
G1 X120.483 Y131.922 E4.98212
G1 X119.995 Y132.012 E4.99862
G1 X119.493 Y132.087 E5.0155
G1 X119.101 Y132.135 E5.02864
G1 X118.649 Y132.178 E5.04374
G1 X118.178 Y132.207 E5.05943
G1 X117.728 Y132.221 E5.07441
G1 X117.256 Y132.221 E5.09011
G1 X116.798 Y132.206 E5.10535
G1 X116.329 Y132.176 E5.12098
G1 X116.003 Y132.145 E5.13187
G1 X115.366 Y132.067 E5.15322
G1 X115.037 Y132.012 E5.16431
G1 X114.733 Y131.954 E5.1746
G1 X114.448 Y131.894 E5.18429
G1 X113.704 Y131.697 E5.20989
G1 X112.962 Y131.403 E5.23643
G1 X112.024 Y131.147 E5.26877
G1 X111.887 Y131.098 E5.27361
G1 X110.964 Y130.695 E5.30711
G1 X110.591 Y130.501 E5.32109
G1 X110.271 Y130.325 E5.33324
G1 X109.869 Y130.09 E5.34873
G1 X109.492 Y129.853 E5.36354
G1 X109.118 Y129.603 E5.3785
G1 X108.731 Y129.326 E5.39433
G1 X108.368 Y129.048 E5.40954
G1 X107.988 Y128.737 E5.42587
G1 X107.72 Y128.502 E5.43773
G1 X107.721 Y128.501 E5.43777
G1 X107.285 Y128.104 E5.45739
G1 X107.038 Y127.857 E5.469
G1 X106.751 Y127.552 E5.48293
G1 X106.543 Y127.319 E5.49332
G1 X106.061 Y126.719 E5.51892
G1 X105.689 Y126.121 E5.54234
G1 X105.368 Y125.755 E5.55853
G1 X105.118 Y125.419 E5.57246
G1 X105.02 Y125.279 E5.57815
G1 X104.475 Y124.367 E5.61348
G1 X104.299 Y124.018 E5.62649
G1 X104.153 Y123.713 E5.63773
G1 X103.971 Y123.307 E5.65253
G1 X103.788 Y122.858 E5.66866
G1 X103.662 Y122.519 E5.68069
G1 X103.664 Y122.518 E5.68076
G1 X103.482 Y122.002 E5.69896
G1 X103.378 Y121.655 E5.71101
G1 X103.22 Y121.088 E5.73058
G1 X103.115 Y120.635 E5.74605
G1 X103.059 Y120.37 E5.75506
G1 X103.005 Y120.077 E5.76497
G1 X102.947 Y119.726 E5.7768
G1 X102.867 Y119.043 E5.79967
G1 X102.848 Y118.775 E5.80861
G1 X102.833 Y118.006 E5.83419
G1 X102.874 Y117.465 E5.85224
G1 X102.828 Y116.706 E5.87753
G1 X102.829 Y116.542 E5.88298
G1 X102.874 Y115.774 E5.90857
G1 X102.928 Y115.378 E5.92186
G1 X102.983 Y115.046 E5.93305
G1 X103.027 Y114.807 E5.94114
G1 X103.116 Y114.361 E5.95626
G1 X103.234 Y113.859 E5.97342
G1 X103.358 Y113.405 E5.98907
G1 X103.484 Y112.995 E6.00334
G1 X103.624 Y112.579 E6.01793
G1 X103.796 Y112.118 E6.0343
G1 X103.97 Y111.696 E6.04948
G1 X104.152 Y111.29 E6.06428
G1 X104.31 Y110.964 E6.07633
G1 X104.384 Y110.815 E6.08186
G1 X104.506 Y110.577 E6.09076
G1 X105.088 Y109.625 E6.12787
G1 X105.181 Y109.496 E6.13316
G1 X105.676 Y108.902 E6.15888
G1 X106.12 Y108.198 E6.18656
G1 X106.211 Y108.076 E6.19162
G1 X106.91 Y107.267 E6.22718
G1 X107.128 Y107.049 E6.23744
G0 F6000 X107.411 Y107.332
G1 F1200 X107.61 Y107.141 E6.24661
G1 X107.893 Y106.879 E6.25944
G1 X108.273 Y106.546 E6.27624
G1 X108.635 Y106.251 E6.29177
G1 X108.981 Y105.986 E6.30627
G1 X109.337 Y105.731 E6.32083
G1 X109.7 Y105.488 E6.33536
G1 X110.09 Y105.244 E6.35066
G1 X110.368 Y105.079 E6.36142
G1 X110.57 Y104.966 E6.36911
G1 X110.893 Y104.792 E6.38132
G1 X111.122 Y104.674 E6.38989
G1 X111.311 Y104.581 E6.39689
G1 X111.999 Y104.287 E6.42178
G1 X112.651 Y104.084 E6.44449
G1 X112.922 Y104.014 E6.4538
G1 X113.101 Y103.974 E6.4599
G1 X113.904 Y103.661 E6.48856
G1 X114.043 Y103.618 E6.4934
G1 X115.008 Y103.393 E6.52636
G1 X115.246 Y103.355 E6.53438
G1 X115.486 Y103.32 E6.54244
G1 X115.855 Y103.274 E6.55481
G1 X116.389 Y103.221 E6.57266
G1 X116.751 Y103.199 E6.58472
G1 X116.751 Y103.202 E6.58482
G1 X117.262 Y103.178 E6.60184
G1 X117.726 Y103.178 E6.61727
G1 X118.174 Y103.192 E6.63218
G1 X118.642 Y103.222 E6.64777
G1 X119.091 Y103.266 E6.66278
G1 X119.532 Y103.323 E6.67757
G1 X119.777 Y103.359 E6.6858
G1 X120.037 Y103.402 E6.69457
G1 X120.768 Y103.563 E6.71947
G1 X121.451 Y103.792 E6.74343
G1 X121.711 Y103.894 E6.75271
G1 X121.904 Y103.977 E6.7597
G1 X122.787 Y104.211 E6.79008
G1 X122.919 Y104.257 E6.79473
G1 X123.745 Y104.606 E6.82456
G1 X123.931 Y104.699 E6.83147
G1 X124.171 Y104.825 E6.84049
G1 X124.566 Y105.042 E6.85548
G1 X124.92 Y105.25 E6.86914
G1 X125.31 Y105.495 E6.88446
G1 X125.65 Y105.723 E6.89807
G1 X126.023 Y105.989 E6.91331
G1 X126.393 Y106.272 E6.9288
G1 X126.746 Y106.561 E6.94398
G1 X127.076 Y106.849 E6.95854
G1 X127.4 Y107.15 E6.97325
G1 X127.652 Y107.395 E6.98494
G1 X127.719 Y107.463 E6.98812
G1 X127.928 Y107.651 E6.99747
G1 X128.429 Y108.206 E7.02233
G1 X128.868 Y108.812 E7.04722
G1 X129.146 Y109.297 E7.06582
G1 X129.33 Y109.507 E7.0751
G1 X129.781 Y110.157 E7.10142
G1 X129.952 Y110.435 E7.11227
G1 X130.304 Y111.08 E7.13671
G1 X130.505 Y111.5 E7.1522
G1 X130.679 Y111.894 E7.16652
G1 X130.809 Y112.215 E7.17804
G1 X130.807 Y112.216 E7.17812
G1 X131.001 Y112.717 E7.19599
G1 X131.105 Y113.028 E7.20689
G1 X131.27 Y113.558 E7.22536
G1 X131.386 Y113.991 E7.24026
G1 X131.478 Y114.379 E7.25353
G1 X131.571 Y114.827 E7.26875
G1 X131.647 Y115.264 E7.2835
G1 X131.679 Y115.489 E7.29106
G1 X131.715 Y115.788 E7.30107
G1 X131.736 Y116.001 E7.30819
G1 X131.77 Y116.749 E7.3331
G1 X131.74 Y117.335 E7.35261
G1 X131.722 Y117.531 E7.35916
G1 X131.772 Y118.247 E7.38303
G1 X131.772 Y118.4 E7.38812
G1 X131.732 Y119.147 E7.413
G1 X131.675 Y119.56 E7.42687
G1 X131.578 Y120.137 E7.44633
G1 X131.473 Y120.647 E7.46365
G1 X131.389 Y120.989 E7.47536
G1 X131.386 Y120.988 E7.47547
G1 X131.261 Y121.474 E7.49216
G1 X131.157 Y121.811 E7.50389
G1 X130.979 Y122.344 E7.52258
G1 X130.85 Y122.682 E7.53461
G1 X130.848 Y122.681 E7.53468
G1 X130.667 Y123.136 E7.55097
