; generated by PrusaSlicer 2.2.0+ on 2020-10-28 at 22:07:28 UTC

; 

; external perimeters extrusion width = 0.45mm
; perimeters extrusion width = 0.45mm
; infill extrusion width = 0.45mm
; solid infill extrusion width = 0.45mm
; top infill extrusion width = 0.40mm
; first layer extrusion width = 0.42mm

M201 X500 Y500 Z100 E5000 ; sets maximum accelerations, mm/sec^2
M203 X500 Y500 Z10 E60 ; sets maximum feedrates, mm/sec
M204 P500 R1000 T500 ; sets acceleration (P, T) and retract acceleration (R), mm/sec^2
M205 X8.00 Y8.00 Z0.40 E5.00 ; sets the jerk limits, mm/sec
M205 S0 T0 ; sets the minimum extruding and travel feed rate, mm/sec
M107
G90 ; use absolute coordinates
M83 ; extruder relative mode
M104 S200 ; set extruder temp
M140 S50 ; set bed temp
M190 S50 ; wait for bed temp
M109 S200 ; wait for extruder temp
G28 ; home all
G1 Z2 F240
G1 X2 Y10 F3000
G1 Z0.28 F240
G92 E0.0
G1 Y190 E15.0 F1500.0 ; intro line
G1 X2.3 F5000
G1 Y10 E30 F1200.0 ; intro line
G92 E0.0
G21 ; set units to millimeters
G90 ; use absolute coordinates
M83 ; use relative distances for extrusion
; Filament gcode
;BEFORE_LAYER_CHANGE
;0.2


G1 E-5.00000 F3600.00000
G1 Z0.200 F9000.000
;AFTER_LAYER_CHANGE
;0.2
G1 X98.820 Y96.391
G1 E5.00000 F2400.00000
G1 F1200.000
G1 X100.561 Y94.981 E0.07024
G1 X102.097 Y93.990 E0.05732
G1 X103.943 Y93.061 E0.06481
G1 X105.649 Y92.411 E0.05724
G1 X107.536 Y91.906 E0.06124
G1 X109.456 Y91.603 E0.06095
G1 X111.410 Y91.500 E0.06135
G1 X113.356 Y91.602 E0.06109
G1 X115.284 Y91.908 E0.06122
G1 X117.170 Y92.413 E0.06122
G1 X118.986 Y93.109 E0.06096
G1 X120.733 Y93.999 E0.06148
G1 X122.364 Y95.058 E0.06096
G1 X123.882 Y96.286 E0.06122
G1 X125.170 Y97.568 E0.05698
G1 X126.580 Y99.309 E0.07024
G1 X127.571 Y100.845 E0.05732
G1 X128.500 Y102.691 E0.06481
G1 X129.146 Y104.388 E0.05693
G1 X129.655 Y106.286 E0.06160
G1 X129.958 Y108.204 E0.06089
G1 X130.061 Y110.154 E0.06122
G1 X129.958 Y112.104 E0.06123
G1 X129.655 Y114.024 E0.06096
G1 X129.153 Y115.901 E0.06090
G1 X128.499 Y117.620 E0.05767
G1 X127.572 Y119.463 E0.06468
G1 X126.580 Y121.000 E0.05736
G1 X125.170 Y122.741 E0.07024
G1 X123.883 Y124.022 E0.05694
G1 X122.362 Y125.253 E0.06135
G1 X120.730 Y126.311 E0.06097
G1 X118.983 Y127.201 E0.06148
G1 X117.171 Y127.895 E0.06084
G1 X115.285 Y128.401 E0.06124
G1 X113.357 Y128.706 E0.06120
G1 X111.407 Y128.809 E0.06122
G1 X109.457 Y128.707 E0.06122
G1 X107.537 Y128.403 E0.06097
G1 X105.650 Y127.898 E0.06122
G1 X103.941 Y127.247 E0.05737
G1 X102.098 Y126.320 E0.06468
G1 X100.561 Y125.328 E0.05736
G1 X98.820 Y123.918 E0.07024
G1 X97.539 Y122.631 E0.05694
G1 X96.308 Y121.110 E0.06135
G1 X95.250 Y119.479 E0.06097
G1 X94.360 Y117.731 E0.06147
G1 X93.669 Y115.929 E0.06053
G1 X93.160 Y114.031 E0.06160
G1 X92.855 Y112.105 E0.06114
G1 X92.752 Y110.155 E0.06122
G1 X92.854 Y108.205 E0.06123
G1 X93.160 Y106.277 E0.06122
G1 X93.662 Y104.400 E0.06090
G1 X94.361 Y102.575 E0.06127
G1 X95.251 Y100.828 E0.06148
G1 X96.310 Y99.197 E0.06096
G1 X97.538 Y97.679 E0.06123
G1 X98.777 Y96.434 E0.05509
G1 X99.045 Y96.700 F9000.000
G1 F1200.000
G1 X100.766 Y95.297 E0.06961
G1 X102.282 Y94.318 E0.05660
G1 X104.079 Y93.413 E0.06308
G1 X105.763 Y92.770 E0.05652
G1 X107.612 Y92.276 E0.06000
G1 X109.497 Y91.977 E0.05985
G1 X111.411 Y91.877 E0.06010
G1 X113.318 Y91.978 E0.05986
G1 X115.208 Y92.277 E0.05999
G1 X117.055 Y92.772 E0.05998
G1 X118.834 Y93.455 E0.05974
G1 X120.543 Y94.325 E0.06011
G1 X122.144 Y95.364 E0.05986
G1 X123.631 Y96.568 E0.05999
G1 X124.903 Y97.834 E0.05628
G1 X126.263 Y99.514 E0.06777
G1 X127.243 Y101.030 E0.05660
G1 X128.148 Y102.827 E0.06308
G1 X128.787 Y104.502 E0.05622
G1 X129.286 Y106.362 E0.06036
G1 X129.583 Y108.245 E0.05979
G1 X129.683 Y110.156 E0.05999
G1 X129.583 Y112.066 E0.05999
G1 X129.284 Y113.956 E0.05998
G1 X128.791 Y115.794 E0.05967
G1 X128.106 Y117.583 E0.06005
G1 X127.234 Y119.294 E0.06022
G1 X126.197 Y120.892 E0.05974
G1 X124.993 Y122.380 E0.05999
G1 X123.726 Y123.651 E0.05627
G1 X122.047 Y125.011 E0.06777
G1 X120.531 Y125.991 E0.05660
G1 X118.734 Y126.896 E0.06308
G1 X117.049 Y127.539 E0.05652
G1 X115.201 Y128.033 E0.06000
G1 X113.316 Y128.332 E0.05985
G1 X111.405 Y128.432 E0.05998
G1 X109.495 Y128.331 E0.05998
G1 X107.605 Y128.032 E0.05999
G1 X105.757 Y127.537 E0.05998
G1 X103.978 Y126.854 E0.05974
G1 X102.270 Y125.984 E0.06011
G1 X100.669 Y124.945 E0.05986
G1 X99.181 Y123.741 E0.05999
G1 X97.910 Y122.475 E0.05628
G1 X96.549 Y120.795 E0.06777
G1 X95.570 Y119.279 E0.05660
G1 X94.665 Y117.482 E0.06308
G1 X94.026 Y115.807 E0.05622
G1 X93.527 Y113.947 E0.06036
G1 X93.229 Y112.064 E0.05979
G1 X93.129 Y110.153 E0.05999
G1 X93.230 Y108.243 E0.05999
G1 X93.529 Y106.353 E0.05998
G1 X94.022 Y104.515 E0.05967
G1 X94.707 Y102.726 E0.06005
G1 X95.579 Y101.015 E0.06022
G1 X96.616 Y99.417 E0.05974
G1 X97.820 Y97.929 E0.05999
G1 X99.002 Y96.742 E0.05253
G1 E-3.50000 F3600.00000
G1 F7200.000
G1 X100.766 Y95.297 E-1.08295
G1 X101.371 Y94.907 E-0.34205
G1 E-0.07500 F3600.00000
G1 X97.508 Y94.931 F9000.000
G1 E5.00000 F2400.00000
G1 F1200.000
G1 X99.174 Y93.563 E0.06760
G1 X100.976 Y92.375 E0.06765
G1 X102.891 Y91.382 E0.06765
G1 X104.900 Y90.595 E0.06765
G1 X106.980 Y90.022 E0.06765
G1 X109.113 Y89.669 E0.06779
G1 X111.567 Y89.543 E0.07704
G1 X113.683 Y89.667 E0.06643
G1 X115.769 Y90.008 E0.06630
G1 X117.829 Y90.567 E0.06691
G1 X119.801 Y91.328 E0.06629
G1 X121.686 Y92.287 E0.06629
G1 X123.478 Y93.445 E0.06690
G1 X125.126 Y94.770 E0.06631
G1 X126.635 Y96.261 E0.06651
G1 X128.197 Y98.201 E0.07809
G1 X129.329 Y99.973 E0.06592
G1 X130.296 Y101.902 E0.06765
G1 X131.055 Y103.921 E0.06765
G1 X131.599 Y106.009 E0.06764
G1 X131.921 Y108.142 E0.06765
G1 X132.019 Y110.296 E0.06759
G1 X131.896 Y112.407 E0.06632
G1 X131.553 Y114.514 E0.06693
G1 X131.001 Y116.556 E0.06631
G1 X130.233 Y118.548 E0.06693
G1 X129.274 Y120.433 E0.06632
G1 X128.127 Y122.210 E0.06631
G1 X126.791 Y123.874 E0.06693
G1 X125.302 Y125.381 E0.06641
G1 X123.409 Y126.913 E0.07636
G1 X121.588 Y128.077 E0.06776
G1 X119.659 Y129.044 E0.06765
G1 X117.639 Y129.803 E0.06765
G1 X115.552 Y130.347 E0.06765
G1 X113.418 Y130.669 E0.06765
G1 X111.265 Y130.767 E0.06760
G1 X109.153 Y130.644 E0.06633
G1 X107.046 Y130.301 E0.06694
G1 X105.004 Y129.748 E0.06630
G1 X103.013 Y128.982 E0.06691
G1 X101.128 Y128.022 E0.06631
G1 X99.336 Y126.864 E0.06691
G1 X97.687 Y125.539 E0.06630
G1 X96.178 Y124.048 E0.06652
G1 X94.616 Y122.108 E0.07811
G1 X93.483 Y120.336 E0.06592
G1 X92.517 Y118.407 E0.06765
G1 X91.758 Y116.388 E0.06765
G1 X91.214 Y114.300 E0.06764
G1 X90.892 Y112.167 E0.06765
G1 X90.794 Y110.013 E0.06759
G1 X90.917 Y107.902 E0.06632
G1 X91.259 Y105.795 E0.06692
G1 X91.812 Y103.754 E0.06630
G1 X92.579 Y101.762 E0.06693
G1 X93.538 Y99.877 E0.06632
G1 X94.697 Y98.084 E0.06692
G1 X96.022 Y96.435 E0.06632
G1 X97.466 Y94.974 E0.06443
G1 X97.734 Y95.239 F9000.000
G1 F1200.000
G1 X99.406 Y93.861 E0.06793
G1 X101.175 Y92.695 E0.06641
G1 X103.056 Y91.722 E0.06641
G1 X105.028 Y90.950 E0.06642
G1 X107.071 Y90.388 E0.06641
G1 X109.164 Y90.043 E0.06653
G1 X111.556 Y89.920 E0.07507
G1 X113.651 Y90.043 E0.06580
G1 X115.699 Y90.379 E0.06508
G1 X117.721 Y90.929 E0.06569
G1 X119.656 Y91.676 E0.06507
G1 X121.506 Y92.619 E0.06507
G1 X123.265 Y93.757 E0.06569
G1 X124.882 Y95.058 E0.06509
G1 X126.362 Y96.522 E0.06527
G1 X127.885 Y98.413 E0.07613
G1 X128.997 Y100.150 E0.06467
G1 X129.946 Y102.044 E0.06641
G1 X130.692 Y104.026 E0.06642
G1 X131.227 Y106.076 E0.06641
G1 X131.545 Y108.170 E0.06641
G1 X131.642 Y110.284 E0.06636
G1 X131.522 Y112.357 E0.06510
G1 X131.187 Y114.426 E0.06571
G1 X130.645 Y116.430 E0.06509
G1 X129.893 Y118.386 E0.06571
G1 X128.943 Y120.253 E0.06570
G1 X127.816 Y121.997 E0.06509
G1 X126.503 Y123.630 E0.06571
G1 X125.041 Y125.108 E0.06517
G1 X123.197 Y126.601 E0.07440
G1 X121.411 Y127.745 E0.06650
G1 X119.517 Y128.694 E0.06642
G1 X117.535 Y129.440 E0.06641
G1 X115.485 Y129.975 E0.06641
G1 X113.391 Y130.293 E0.06641
G1 X111.276 Y130.390 E0.06637
G1 X109.203 Y130.270 E0.06511
G1 X107.135 Y129.935 E0.06572
G1 X105.131 Y129.393 E0.06509
G1 X103.175 Y128.641 E0.06570
G1 X101.324 Y127.700 E0.06509
G1 X99.564 Y126.564 E0.06568
G1 X97.931 Y125.252 E0.06569
G1 X96.451 Y123.788 E0.06527
G1 X94.928 Y121.896 E0.07615
G1 X93.816 Y120.159 E0.06467
G1 X92.867 Y118.265 E0.06641
G1 X92.120 Y116.283 E0.06642
G1 X91.586 Y114.233 E0.06641
G1 X91.268 Y112.139 E0.06641
G1 X91.171 Y110.025 E0.06636
G1 X91.290 Y107.952 E0.06510
G1 X91.626 Y105.884 E0.06570
G1 X92.168 Y103.880 E0.06508
G1 X92.920 Y101.924 E0.06571
G1 X93.860 Y100.073 E0.06510
G1 X94.997 Y98.312 E0.06570
G1 X96.297 Y96.693 E0.06510
G1 X97.692 Y95.281 E0.06224
G1 X97.960 Y95.547 F9000.000
G1 F1200.000
G1 X99.637 Y94.158 E0.06826
G1 X101.374 Y93.016 E0.06518
G1 X103.220 Y92.061 E0.06517
G1 X105.156 Y91.305 E0.06518
G1 X107.161 Y90.755 E0.06518
G1 X109.215 Y90.416 E0.06528
G1 X111.544 Y90.297 E0.07311
G1 X113.599 Y90.417 E0.06456
G1 X115.610 Y90.745 E0.06386
G1 X117.594 Y91.284 E0.06447
G1 X119.494 Y92.017 E0.06386
G1 X121.309 Y92.941 E0.06385
G1 X123.036 Y94.057 E0.06446
G1 X124.638 Y95.346 E0.06448
G1 X126.089 Y96.782 E0.06402
G1 X127.573 Y98.625 E0.07418
G1 X128.664 Y100.328 E0.06343
G1 X129.597 Y102.186 E0.06518
G1 X130.330 Y104.131 E0.06518
G1 X130.856 Y106.142 E0.06517
G1 X131.169 Y108.197 E0.06517
G1 X131.265 Y110.272 E0.06513
G1 X131.146 Y112.325 E0.06448
G1 X130.816 Y114.355 E0.06449
G1 X130.284 Y116.322 E0.06388
G1 X129.545 Y118.241 E0.06449
G1 X128.611 Y120.073 E0.06448
G1 X127.504 Y121.784 E0.06387
G1 X126.215 Y123.386 E0.06449
G1 X124.780 Y124.835 E0.06393
G1 X122.985 Y126.289 E0.07245
G1 X121.232 Y127.412 E0.06525
G1 X119.375 Y128.345 E0.06518
G1 X117.430 Y129.078 E0.06518
G1 X115.419 Y129.604 E0.06517
G1 X113.364 Y129.917 E0.06518
G1 X111.288 Y130.013 E0.06514
G1 X109.235 Y129.895 E0.06449
G1 X107.205 Y129.564 E0.06449
G1 X105.239 Y129.032 E0.06387
G1 X103.320 Y128.293 E0.06448
G1 X101.504 Y127.369 E0.06387
G1 X99.777 Y126.253 E0.06446
G1 X98.175 Y124.964 E0.06447
G1 X96.724 Y123.527 E0.06403
G1 X95.240 Y121.684 E0.07420
G1 X94.149 Y119.981 E0.06343
G1 X93.216 Y118.123 E0.06518
G1 X92.483 Y116.178 E0.06518
G1 X91.957 Y114.167 E0.06517
G1 X91.644 Y112.112 E0.06517
G1 X91.548 Y110.037 E0.06513
G1 X91.666 Y107.984 E0.06448
G1 X91.997 Y105.954 E0.06448
G1 X92.529 Y103.988 E0.06386
G1 X93.268 Y102.068 E0.06449
G1 X94.192 Y100.253 E0.06388
G1 X95.308 Y98.525 E0.06449
G1 X96.585 Y96.937 E0.06388
G1 X97.918 Y95.589 E0.05945
G1 X98.186 Y95.855 F9000.000
G1 F1200.000
G1 X98.292 Y95.748 E0.00471
G1 X99.868 Y94.457 E0.06390
G1 X101.573 Y93.337 E0.06394
G1 X103.384 Y92.401 E0.06394
G1 X105.284 Y91.659 E0.06394
G1 X107.251 Y91.121 E0.06394
G1 X109.266 Y90.790 E0.06402
G1 X111.532 Y90.674 E0.07116
G1 X113.549 Y90.791 E0.06332
G1 X115.520 Y91.112 E0.06264
G1 X117.468 Y91.639 E0.06326
G1 X119.332 Y92.357 E0.06264
G1 X121.129 Y93.272 E0.06324
G1 X122.823 Y94.368 E0.06324
G1 X124.394 Y95.633 E0.06326
G1 X125.816 Y97.043 E0.06278
G1 X127.261 Y98.837 E0.07224
G1 X128.332 Y100.507 E0.06219
G1 X129.248 Y102.329 E0.06394
G1 X129.968 Y104.237 E0.06394
G1 X130.485 Y106.209 E0.06393
G1 X130.793 Y108.225 E0.06394
G1 X130.888 Y110.260 E0.06390
G1 X130.773 Y112.275 E0.06325
G1 X130.450 Y114.266 E0.06327
G1 X129.928 Y116.195 E0.06266
G1 X129.204 Y118.079 E0.06326
G1 X128.289 Y119.877 E0.06326
G1 X127.204 Y121.555 E0.06265
G1 X125.940 Y123.128 E0.06327
G1 X124.520 Y124.563 E0.06330
G1 X122.772 Y125.978 E0.07051
G1 X121.054 Y127.080 E0.06400
G1 X119.232 Y127.996 E0.06394
G1 X117.324 Y128.716 E0.06394
G1 X115.352 Y129.233 E0.06393
G1 X113.336 Y129.541 E0.06394
G1 X111.300 Y129.636 E0.06390
G1 X109.286 Y129.521 E0.06326
G1 X107.294 Y129.197 E0.06327
G1 X105.365 Y128.676 E0.06265
G1 X103.482 Y127.952 E0.06325
G1 X101.684 Y127.037 E0.06326
G1 X99.990 Y125.941 E0.06324
G1 X98.419 Y124.676 E0.06324
G1 X96.997 Y123.267 E0.06279
G1 X95.552 Y121.472 E0.07226
G1 X94.481 Y119.802 E0.06219
G1 X93.565 Y117.980 E0.06394
G1 X92.845 Y116.072 E0.06394
G1 X92.328 Y114.100 E0.06393
G1 X92.020 Y112.084 E0.06394
G1 X91.925 Y110.049 E0.06390
G1 X92.040 Y108.034 E0.06325
G1 X92.363 Y106.043 E0.06326
G1 X92.884 Y104.114 E0.06264
G1 X93.609 Y102.231 E0.06327
G1 X94.524 Y100.432 E0.06327
G1 X95.620 Y98.738 E0.06326
G1 X96.872 Y97.181 E0.06266
G1 X98.144 Y95.897 E0.05666
G1 X98.552 Y96.020 F9000.000
G1 F1200.000
G1 X100.099 Y94.755 E0.06267
G1 X101.771 Y93.657 E0.06270
G1 X103.548 Y92.740 E0.06270
G1 X105.412 Y92.014 E0.06270
G1 X107.341 Y91.487 E0.06270
G1 X109.316 Y91.164 E0.06277
G1 X111.521 Y91.051 E0.06922
G1 X113.498 Y91.164 E0.06208
G1 X115.431 Y91.478 E0.06142
G1 X117.341 Y91.995 E0.06203
G1 X119.187 Y92.706 E0.06202
G1 X120.949 Y93.604 E0.06202
G1 X122.609 Y94.679 E0.06201
G1 X124.150 Y95.921 E0.06203
G1 X125.543 Y97.303 E0.06154
G1 X126.949 Y99.049 E0.07031
G1 X127.999 Y100.685 E0.06094
G1 X128.898 Y102.471 E0.06270
G1 X129.606 Y104.342 E0.06270
G1 X130.113 Y106.276 E0.06270
G1 X130.416 Y108.253 E0.06270
G1 X130.511 Y110.249 E0.06266
G1 X130.399 Y112.224 E0.06203
G1 X130.083 Y114.177 E0.06204
G1 X129.567 Y116.088 E0.06204
G1 X128.856 Y117.934 E0.06204
G1 X127.957 Y119.697 E0.06204
G1 X126.893 Y121.342 E0.06144
G1 X125.653 Y122.884 E0.06205
G1 X124.259 Y124.290 E0.06206
G1 X122.560 Y125.666 E0.06857
G1 X120.876 Y126.748 E0.06274
G1 X119.089 Y127.646 E0.06270
G1 X117.219 Y128.354 E0.06270
G1 X115.285 Y128.862 E0.06270
G1 X113.308 Y129.165 E0.06270
G1 X111.312 Y129.259 E0.06267
G1 X109.336 Y129.147 E0.06204
G1 X107.383 Y128.831 E0.06205
G1 X105.473 Y128.315 E0.06203
G1 X103.627 Y127.604 E0.06203
G1 X101.864 Y126.706 E0.06204
G1 X100.204 Y125.630 E0.06202
G1 X98.664 Y124.389 E0.06202
G1 X97.270 Y123.006 E0.06154
G1 X95.864 Y121.260 E0.07032
G1 X94.813 Y119.624 E0.06094
G1 X93.914 Y117.838 E0.06270
G1 X93.207 Y115.967 E0.06270
G1 X92.699 Y114.033 E0.06270
G1 X92.396 Y112.056 E0.06270
G1 X92.302 Y110.060 E0.06266
G1 X92.414 Y108.085 E0.06203
G1 X92.730 Y106.132 E0.06204
G1 X93.240 Y104.240 E0.06143
G1 X93.949 Y102.393 E0.06205
G1 X94.846 Y100.629 E0.06204
G1 X95.920 Y98.967 E0.06203
G1 X97.160 Y97.425 E0.06205
G1 X98.510 Y96.063 E0.06014
G1 X99.312 Y96.860 F9000.000
G1 F1200.000
G1 X100.792 Y95.650 E0.05993
G1 X102.366 Y94.620 E0.05899
G1 X104.039 Y93.760 E0.05899
G1 X105.793 Y93.080 E0.05899
G1 X107.609 Y92.587 E0.05899
G1 X109.467 Y92.286 E0.05902
G1 X111.488 Y92.182 E0.06345
G1 X113.347 Y92.286 E0.05836
G1 X115.184 Y92.582 E0.05836
G1 X116.981 Y93.067 E0.05836
G1 X118.718 Y93.735 E0.05835
G1 X120.376 Y94.579 E0.05834
G1 X121.938 Y95.590 E0.05833
G1 X123.403 Y96.770 E0.05897
G1 X124.723 Y98.083 E0.05840
G1 X126.014 Y99.687 E0.06455
G1 X127.003 Y101.221 E0.05723
G1 X127.851 Y102.901 E0.05899
G1 X128.519 Y104.659 E0.05899
G1 X129.000 Y106.478 E0.05898
G1 X129.288 Y108.337 E0.05899
G1 X129.380 Y110.216 E0.05897
G1 X129.277 Y112.073 E0.05834
G1 X128.979 Y113.930 E0.05897
G1 X128.494 Y115.728 E0.05836
G1 X127.826 Y117.465 E0.05836
G1 X126.982 Y119.124 E0.05836
G1 X125.960 Y120.702 E0.05898
G1 X124.791 Y122.151 E0.05836
G1 X123.478 Y123.471 E0.05836
G1 X121.921 Y124.732 E0.06282
G1 X120.340 Y125.751 E0.05900
G1 X118.660 Y126.599 E0.05899
G1 X116.902 Y127.268 E0.05899
G1 X115.083 Y127.748 E0.05899
G1 X113.224 Y128.036 E0.05899
G1 X111.345 Y128.128 E0.05897
G1 X109.487 Y128.025 E0.05835
G1 X107.629 Y127.727 E0.05898
G1 X105.833 Y127.242 E0.05835
G1 X104.096 Y126.574 E0.05835
G1 X102.420 Y125.720 E0.05896
G1 X100.859 Y124.708 E0.05833
G1 X99.411 Y123.540 E0.05835
G1 X98.090 Y122.226 E0.05842
G1 X96.799 Y120.622 E0.06456
G1 X95.810 Y119.088 E0.05723
G1 X94.961 Y117.408 E0.05899
G1 X94.293 Y115.650 E0.05899
G1 X93.813 Y113.831 E0.05898
G1 X93.525 Y111.972 E0.05899
G1 X93.433 Y110.093 E0.05897
G1 X93.535 Y108.236 E0.05834
G1 X93.834 Y106.379 E0.05897
G1 X94.318 Y104.582 E0.05835
G1 X94.986 Y102.844 E0.05837
G1 X95.831 Y101.185 E0.05837
G1 X96.842 Y99.622 E0.05836
G1 X98.022 Y98.158 E0.05898
G1 X99.270 Y96.903 E0.05549
G1 X99.537 Y97.169 F9000.000
G1 F1200.000
G1 X101.022 Y95.949 E0.06026
G1 X102.564 Y94.941 E0.05775
G1 X104.203 Y94.100 E0.05775
G1 X105.920 Y93.435 E0.05775
