; generated by PrusaSlicer 2.2.0+ on 2020-10-28 at 23:06:26 UTC

; 

; external perimeters extrusion width = 0.45mm
; perimeters extrusion width = 0.45mm
; infill extrusion width = 0.45mm
; solid infill extrusion width = 0.45mm
; top infill extrusion width = 0.40mm
; first layer extrusion width = 0.42mm

M201 X500 Y500 Z100 E5000 ; sets maximum accelerations, mm/sec^2
M203 X500 Y500 Z10 E60 ; sets maximum feedrates, mm/sec
M204 P500 R1000 T500 ; sets acceleration (P, T) and retract acceleration (R), mm/sec^2
M205 X8.00 Y8.00 Z0.40 E5.00 ; sets the jerk limits, mm/sec
M205 S0 T0 ; sets the minimum extruding and travel feed rate, mm/sec
M107
G90 ; use absolute coordinates
M83 ; extruder relative mode
M104 S210 ; set extruder temp
M140 S60 ; set bed temp
M190 S60 ; wait for bed temp
M109 S210 ; wait for extruder temp
G28 ; home all
G1 Z2 F240
G1 X2 Y10 F3000
G1 Z0.28 F240
G92 E0.0
G1 Y190 E15.0 F1500.0 ; intro line
G1 X2.3 F5000
G1 Y10 E30 F1200.0 ; intro line
G92 E0.0
G21 ; set units to millimeters
G90 ; use absolute coordinates
M83 ; use relative distances for extrusion
; Filament gcode
;BEFORE_LAYER_CHANGE
;0.2


G1 E-5.00000 F3600.00000
G1 Z0.200 F9000.000
;AFTER_LAYER_CHANGE
;0.2
G1 X105.602 Y104.946
G1 E5.00000 F2400.00000
G1 F1200.000
G1 X106.806 Y103.736 E0.05353
G1 X108.548 Y102.327 E0.07025
G1 X110.084 Y101.336 E0.05732
G1 X111.928 Y100.408 E0.06473
G1 X113.635 Y99.757 E0.05727
G1 X115.521 Y99.252 E0.06124
G1 X117.444 Y98.948 E0.06103
G1 X119.397 Y98.845 E0.06131
G1 X121.343 Y98.948 E0.06112
G1 X123.269 Y99.253 E0.06112
G1 X125.155 Y99.759 E0.06122
G1 X126.971 Y100.455 E0.06098
G1 X128.717 Y101.345 E0.06146
G1 X130.348 Y102.403 E0.06095
G1 X131.865 Y103.629 E0.06116
G1 X133.156 Y104.914 E0.05711
G1 X134.565 Y106.654 E0.07020
G1 X135.556 Y108.190 E0.05732
G1 X136.484 Y110.035 E0.06475
G1 X137.135 Y111.744 E0.05734
G1 X137.638 Y113.620 E0.06089
G1 X137.944 Y115.549 E0.06126
G1 X138.045 Y117.500 E0.06124
G1 X137.944 Y119.451 E0.06124
G1 X137.639 Y121.379 E0.06123
G1 X137.133 Y123.262 E0.06112
G1 X136.441 Y125.069 E0.06068
G1 X135.547 Y126.827 E0.06185
G1 X134.490 Y128.455 E0.06083
G1 X133.261 Y129.976 E0.06130
G1 X131.978 Y131.264 E0.05702
G1 X130.236 Y132.673 E0.07025
G1 X128.700 Y133.664 E0.05732
G1 X126.856 Y134.592 E0.06473
G1 X125.149 Y135.243 E0.05727
G1 X123.263 Y135.748 E0.06124
G1 X121.343 Y136.052 E0.06093
G1 X119.389 Y136.155 E0.06136
G1 X117.442 Y136.052 E0.06112
G1 X115.524 Y135.749 E0.06090
G1 X113.633 Y135.242 E0.06136
G1 X111.915 Y134.587 E0.05764
G1 X110.081 Y133.663 E0.06441
G1 X108.534 Y132.664 E0.05773
G1 X106.686 Y131.145 E0.07500
G1 X105.518 Y129.968 E0.05199
G1 X104.289 Y128.447 E0.06133
G1 X103.234 Y126.825 E0.06066
G1 X102.342 Y125.066 E0.06183
G1 X101.653 Y123.272 E0.06025
G1 X101.147 Y121.387 E0.06120
G1 X100.840 Y119.451 E0.06147
G1 X100.739 Y117.499 E0.06129
G1 X100.840 Y115.549 E0.06120
G1 X101.145 Y113.620 E0.06125
G1 X101.649 Y111.737 E0.06112
G1 X102.347 Y109.923 E0.06095
G1 X103.234 Y108.175 E0.06145
G1 X104.294 Y106.543 E0.06103
G1 X105.560 Y104.989 E0.06284
G1 X105.827 Y105.255 F9000.000
G1 F1200.000
G1 X106.953 Y104.122 E0.05007
G1 X108.740 Y102.651 E0.07257
G1 X110.266 Y101.666 E0.05695
G1 X112.053 Y100.764 E0.06277
G1 X113.748 Y100.117 E0.05688
G1 X115.598 Y99.621 E0.06003
G1 X117.481 Y99.323 E0.05980
G1 X119.395 Y99.222 E0.06007
G1 X121.306 Y99.323 E0.06001
G1 X123.192 Y99.622 E0.05989
G1 X125.040 Y100.118 E0.05998
G1 X126.820 Y100.801 E0.05976
G1 X128.530 Y101.673 E0.06020
G1 X130.128 Y102.710 E0.05974
G1 X131.615 Y103.911 E0.05993
G1 X132.890 Y105.180 E0.05640
G1 X134.249 Y106.859 E0.06772
G1 X135.228 Y108.375 E0.05660
G1 X136.134 Y110.174 E0.06314
G1 X136.776 Y111.858 E0.05650
G1 X137.269 Y113.696 E0.05966
G1 X137.569 Y115.590 E0.06015
G1 X137.668 Y117.501 E0.05999
G1 X137.569 Y119.409 E0.05990
G1 X137.271 Y121.299 E0.05999
G1 X136.774 Y123.147 E0.06001
G1 X136.095 Y124.918 E0.05946
G1 X135.221 Y126.637 E0.06047
G1 X134.183 Y128.235 E0.05974
G1 X132.980 Y129.725 E0.06006
G1 X131.712 Y130.998 E0.05632
G1 X130.031 Y132.357 E0.06777
G1 X128.518 Y133.334 E0.05648
G1 X126.720 Y134.241 E0.06313
G1 X125.036 Y134.883 E0.05652
G1 X123.186 Y135.379 E0.06003
G1 X121.302 Y135.677 E0.05983
G1 X119.391 Y135.778 E0.06000
G1 X117.484 Y135.677 E0.05988
G1 X115.599 Y135.380 E0.05981
G1 X113.751 Y134.884 E0.05999
G1 X112.052 Y134.236 E0.05702
G1 X110.267 Y133.335 E0.06270
G1 X108.740 Y132.349 E0.05699
G1 X106.953 Y130.878 E0.07257
G1 X105.801 Y129.718 E0.05126
G1 X104.596 Y128.229 E0.06007
G1 X103.562 Y126.638 E0.05949
G1 X102.688 Y124.916 E0.06054
G1 X102.012 Y123.157 E0.05908
G1 X101.516 Y121.311 E0.05996
G1 X101.215 Y119.413 E0.06023
G1 X101.116 Y117.501 E0.06004
G1 X101.215 Y115.591 E0.05998
G1 X101.514 Y113.700 E0.06001
G1 X102.009 Y111.852 E0.06001
G1 X102.688 Y110.084 E0.05937
G1 X103.562 Y108.362 E0.06056
G1 X104.596 Y106.769 E0.05956
G1 X105.787 Y105.299 E0.05931
G1 E-3.50000 F3600.00000
G1 F7200.000
G1 X106.953 Y104.122 E-0.78701
G1 X107.990 Y103.268 E-0.63799
G1 E-0.07500 F3600.00000
G1 X104.127 Y103.662 F9000.000
G1 E5.00000 F2400.00000
G1 F1200.000
G1 X105.492 Y102.278 E0.06096
G1 X107.163 Y100.907 E0.06778
G1 X108.963 Y99.721 E0.06757
G1 X110.876 Y98.729 E0.06757
G1 X112.835 Y97.961 E0.06598
G1 X115.241 Y97.308 E0.07817
G1 X117.383 Y96.985 E0.06793
G1 X119.556 Y96.887 E0.06818
G1 X121.668 Y97.013 E0.06634
G1 X123.755 Y97.354 E0.06632
G1 X125.813 Y97.913 E0.06686
G1 X127.787 Y98.674 E0.06633
G1 X129.671 Y99.634 E0.06631
G1 X131.462 Y100.791 E0.06685
G1 X133.111 Y102.114 E0.06628
G1 X134.620 Y103.605 E0.06652
G1 X136.151 Y105.497 E0.07633
G1 X137.314 Y107.317 E0.06772
G1 X138.281 Y109.248 E0.06770
G1 X139.039 Y111.264 E0.06753
G1 X139.585 Y113.354 E0.06770
G1 X139.907 Y115.490 E0.06773
G1 X140.004 Y117.640 E0.06751
G1 X139.882 Y119.751 E0.06630
G1 X139.543 Y121.843 E0.06645
G1 X138.985 Y123.902 E0.06689
G1 X138.219 Y125.893 E0.06688
G1 X137.259 Y127.780 E0.06637
G1 X136.101 Y129.570 E0.06683
G1 X134.778 Y131.218 E0.06628
G1 X133.289 Y132.726 E0.06645
G1 X131.621 Y134.093 E0.06764
G1 X129.821 Y135.279 E0.06756
G1 X127.927 Y136.262 E0.06693
G1 X127.455 Y136.462 E0.01607
G1 X125.626 Y137.147 E0.06123
G1 X123.537 Y137.693 E0.06769
G1 X121.406 Y138.015 E0.06757
G1 X119.249 Y138.114 E0.06773
G1 X117.163 Y137.992 E0.06551
G1 X115.115 Y137.665 E0.06502
G1 X113.094 Y137.127 E0.06558
G1 X111.137 Y136.388 E0.06560
G1 X109.209 Y135.421 E0.06759
G1 X107.388 Y134.257 E0.06777
G1 X105.444 Y132.675 E0.07860
G1 X103.979 Y131.186 E0.06548
G1 X102.634 Y129.502 E0.06757
G1 X101.467 Y127.682 E0.06781
G1 X100.504 Y125.754 E0.06756
G1 X99.743 Y123.733 E0.06772
G1 X99.199 Y121.645 E0.06764
G1 X98.877 Y119.511 E0.06769
G1 X98.780 Y117.362 E0.06744
G1 X98.904 Y115.228 E0.06700
G1 X99.244 Y113.140 E0.06635
G1 X99.797 Y111.098 E0.06633
G1 X100.565 Y109.109 E0.06686
G1 X101.521 Y107.223 E0.06630
G1 X102.660 Y105.460 E0.06582
G1 X104.085 Y103.705 E0.07087
G1 X104.352 Y103.969 F9000.000
G1 F1200.000
G1 X105.753 Y102.550 E0.06252
G1 X107.395 Y101.205 E0.06654
G1 X109.162 Y100.042 E0.06634
G1 X111.040 Y99.068 E0.06633
G1 X112.963 Y98.316 E0.06473
G1 X115.308 Y97.680 E0.07620
G1 X117.410 Y97.361 E0.06666
G1 X119.543 Y97.264 E0.06695
G1 X121.617 Y97.386 E0.06512
G1 X123.666 Y97.720 E0.06510
G1 X125.687 Y98.269 E0.06565
G1 X127.625 Y99.015 E0.06511
G1 X129.475 Y99.956 E0.06509
G1 X131.234 Y101.091 E0.06563
G1 X132.867 Y102.402 E0.06566
G1 X134.347 Y103.866 E0.06527
G1 X135.839 Y105.710 E0.07437
G1 X136.982 Y107.495 E0.06647
G1 X137.932 Y109.390 E0.06647
G1 X138.676 Y111.369 E0.06630
G1 X139.213 Y113.420 E0.06646
G1 X139.531 Y115.517 E0.06649
G1 X139.627 Y117.629 E0.06629
G1 X139.508 Y119.701 E0.06508
G1 X139.177 Y121.754 E0.06522
G1 X138.629 Y123.776 E0.06568
G1 X137.878 Y125.731 E0.06566
G1 X136.937 Y127.583 E0.06515
G1 X135.801 Y129.341 E0.06561
G1 X134.490 Y130.975 E0.06567
G1 X133.028 Y132.453 E0.06522
G1 X131.389 Y133.795 E0.06640
G1 X129.622 Y134.958 E0.06633
G1 X127.760 Y135.924 E0.06577
G1 X127.319 Y136.110 E0.01502
G1 X125.521 Y136.785 E0.06020
G1 X123.471 Y137.321 E0.06645
G1 X121.379 Y137.639 E0.06633
G1 X119.260 Y137.737 E0.06650
G1 X117.213 Y137.618 E0.06431
G1 X115.184 Y137.294 E0.06442
G1 X113.200 Y136.765 E0.06438
G1 X111.279 Y136.038 E0.06440
G1 X109.388 Y135.089 E0.06636
G1 X107.601 Y133.945 E0.06651
G1 X105.705 Y132.403 E0.07663
G1 X104.268 Y130.943 E0.06424
G1 X102.946 Y129.290 E0.06635
G1 X101.800 Y127.504 E0.06656
G1 X100.853 Y125.612 E0.06633
G1 X100.105 Y123.628 E0.06648
G1 X99.570 Y121.579 E0.06640
G1 X99.253 Y119.484 E0.06645
G1 X99.157 Y117.374 E0.06622
G1 X99.278 Y115.279 E0.06578
G1 X99.611 Y113.229 E0.06514
G1 X100.152 Y111.224 E0.06510
G1 X100.905 Y109.270 E0.06565
G1 X101.844 Y107.419 E0.06507
G1 X102.972 Y105.672 E0.06520
G1 X104.310 Y104.012 E0.06688
G1 X104.571 Y104.283 F9000.000
G1 F1200.000
G1 X106.014 Y102.822 E0.06439
G1 X107.626 Y101.503 E0.06529
G1 X109.361 Y100.362 E0.06510
G1 X111.205 Y99.408 E0.06510
G1 X113.091 Y98.671 E0.06348
G1 X115.376 Y98.051 E0.07424
G1 X117.438 Y97.737 E0.06539
G1 X119.531 Y97.641 E0.06572
G1 X121.566 Y97.760 E0.06390
G1 X123.596 Y98.091 E0.06448
G1 X125.578 Y98.630 E0.06442
G1 X127.480 Y99.363 E0.06390
G1 X129.295 Y100.288 E0.06388
G1 X131.021 Y101.403 E0.06442
G1 X132.623 Y102.690 E0.06444
G1 X134.074 Y104.127 E0.06403
G1 X135.527 Y105.922 E0.07242
G1 X136.649 Y107.673 E0.06521
G1 X137.582 Y109.533 E0.06523
G1 X138.314 Y111.475 E0.06507
G1 X138.842 Y113.487 E0.06522
G1 X139.155 Y115.544 E0.06525
G1 X139.250 Y117.617 E0.06507
G1 X139.132 Y119.670 E0.06447
G1 X138.806 Y121.684 E0.06399
G1 X138.268 Y123.668 E0.06445
G1 X137.530 Y125.586 E0.06444
G1 X136.605 Y127.404 E0.06393
G1 X135.490 Y129.128 E0.06439
G1 X134.203 Y130.731 E0.06445
G1 X132.767 Y132.181 E0.06399
G1 X131.158 Y133.497 E0.06517
G1 X129.423 Y134.638 E0.06510
G1 X127.593 Y135.585 E0.06461
G1 X127.182 Y135.758 E0.01397
G1 X125.416 Y136.422 E0.05917
G1 X123.404 Y136.950 E0.06521
G1 X121.351 Y137.262 E0.06510
G1 X119.272 Y137.360 E0.06526
G1 X117.244 Y137.243 E0.06370
G1 X115.253 Y136.923 E0.06321
G1 X113.307 Y136.403 E0.06317
G1 X111.422 Y135.689 E0.06320
G1 X109.566 Y134.756 E0.06514
G1 X107.813 Y133.634 E0.06526
G1 X105.967 Y132.130 E0.07466
G1 X104.556 Y130.700 E0.06300
G1 X103.258 Y129.078 E0.06512
G1 X102.132 Y127.326 E0.06530
G1 X101.203 Y125.469 E0.06510
G1 X100.467 Y123.523 E0.06524
G1 X99.942 Y121.512 E0.06516
G1 X99.629 Y119.456 E0.06521
G1 X99.534 Y117.385 E0.06500
G1 X99.652 Y115.330 E0.06455
G1 X99.982 Y113.299 E0.06452
G1 X100.514 Y111.332 E0.06388
G1 X101.254 Y109.415 E0.06443
G1 X102.175 Y107.599 E0.06387
G1 X103.283 Y105.885 E0.06397
G1 X104.533 Y104.330 E0.06258
G1 X104.827 Y104.565 F9000.000
G1 F1200.000
G1 X106.276 Y103.094 E0.06474
G1 X107.857 Y101.801 E0.06404
G1 X109.559 Y100.683 E0.06387
G1 X111.369 Y99.747 E0.06387
G1 X113.218 Y99.025 E0.06224
G1 X115.443 Y98.422 E0.07228
G1 X117.465 Y98.114 E0.06413
G1 X119.519 Y98.018 E0.06448
G1 X121.515 Y98.134 E0.06268
G1 X123.506 Y98.457 E0.06326
G1 X125.452 Y98.985 E0.06321
G1 X127.317 Y99.703 E0.06268
G1 X129.115 Y100.619 E0.06326
G1 X130.808 Y101.714 E0.06320
G1 X132.379 Y102.977 E0.06322
G1 X133.801 Y104.387 E0.06279
G1 X135.216 Y106.134 E0.07047
G1 X136.317 Y107.851 E0.06396
G1 X137.233 Y109.675 E0.06399
G1 X137.952 Y111.580 E0.06384
G1 X138.471 Y113.553 E0.06397
G1 X138.778 Y115.571 E0.06400
G1 X138.873 Y117.605 E0.06384
G1 X138.759 Y119.619 E0.06325
G1 X138.439 Y121.595 E0.06276
G1 X137.912 Y123.542 E0.06323
G1 X137.189 Y125.424 E0.06322
G1 X136.274 Y127.224 E0.06331
G1 X135.179 Y128.915 E0.06317
G1 X133.915 Y130.487 E0.06324
G1 X132.506 Y131.908 E0.06276
G1 X130.927 Y133.199 E0.06394
G1 X129.225 Y134.317 E0.06387
G1 X127.427 Y135.247 E0.06346
G1 X127.046 Y135.407 E0.01294
G1 X125.311 Y136.060 E0.05815
G1 X123.337 Y136.579 E0.06397
G1 X121.324 Y136.886 E0.06386
G1 X119.284 Y136.983 E0.06403
G1 X117.294 Y136.869 E0.06249
G1 X115.341 Y136.557 E0.06201
G1 X113.431 Y136.047 E0.06197
G1 X111.565 Y135.340 E0.06259
G1 X109.744 Y134.424 E0.06390
G1 X108.026 Y133.322 E0.06400
G1 X106.228 Y131.858 E0.07270
G1 X104.844 Y130.456 E0.06176
G1 X103.570 Y128.866 E0.06390
G1 X102.465 Y127.148 E0.06405
G1 X101.552 Y125.327 E0.06387
G1 X100.829 Y123.418 E0.06400
G1 X100.313 Y121.446 E0.06392
G1 X100.006 Y119.429 E0.06397
G1 X99.911 Y117.397 E0.06378
G1 X100.025 Y115.380 E0.06333
G1 X100.348 Y113.388 E0.06330
G1 X100.869 Y111.459 E0.06265
G1 X101.594 Y109.577 E0.06322
G1 X102.498 Y107.795 E0.06264
G1 X103.583 Y106.114 E0.06275
G1 X104.789 Y104.612 E0.06039
G1 X105.083 Y104.848 F9000.000
G1 F1200.000
G1 X106.537 Y103.366 E0.06509
G1 X108.088 Y102.099 E0.06280
G1 X109.758 Y101.003 E0.06264
G1 X111.533 Y100.087 E0.06264
G1 X113.346 Y99.380 E0.06099
G1 X115.511 Y98.793 E0.07034
G1 X117.493 Y98.490 E0.06286
G1 X119.508 Y98.395 E0.06325
G1 X121.464 Y98.508 E0.06145
G1 X123.417 Y98.824 E0.06203
G1 X125.325 Y99.341 E0.06199
G1 X127.173 Y100.052 E0.06206
G1 X128.935 Y100.951 E0.06203
G1 X130.595 Y102.025 E0.06199
G1 X132.135 Y103.265 E0.06200
G1 X133.528 Y104.648 E0.06155
G1 X134.904 Y106.347 E0.06854
G1 X135.984 Y108.030 E0.06271
G1 X136.884 Y109.818 E0.06275
G1 X137.590 Y111.686 E0.06262
G1 X138.100 Y113.620 E0.06273
G1 X138.402 Y115.599 E0.06276
G1 X138.496 Y117.594 E0.06262
G1 X138.385 Y119.569 E0.06203
G1 X138.073 Y121.506 E0.06153
G1 X137.551 Y123.434 E0.06262
G1 X136.841 Y125.280 E0.06200
G1 X135.942 Y127.044 E0.06209
G1 X134.868 Y128.702 E0.06194
G1 X133.627 Y130.243 E0.06202
G1 X132.245 Y131.636 E0.06153
G1 X130.696 Y132.901 E0.06270
G1 X129.026 Y133.997 E0.06264
G1 X127.261 Y134.908 E0.06230
G1 X125.205 Y135.698 E0.06904
G1 X123.270 Y136.207 E0.06274
G1 X121.296 Y136.510 E0.06263
G1 X119.295 Y136.606 E0.06279
G1 X117.344 Y136.495 E0.06128
G1 X115.410 Y136.186 E0.06140
G1 X113.538 Y135.685 E0.06076
G1 X111.708 Y134.991 E0.06138
G1 X109.923 Y134.092 E0.06267
G1 X108.239 Y133.010 E0.06275
G1 X106.489 Y131.586 E0.07074
G1 X105.132 Y130.213 E0.06052
G1 X103.882 Y128.653 E0.06267
G1 X102.797 Y126.970 E0.06280
G1 X101.901 Y125.184 E0.06264
G1 X101.192 Y123.312 E0.06276
G1 X100.684 Y121.379 E0.06268
G1 X100.382 Y119.401 E0.06273
G1 X100.288 Y117.408 E0.06255
G1 X100.399 Y115.431 E0.06210
G1 X100.715 Y113.476 E0.06207
G1 X101.225 Y111.585 E0.06143
G1 X101.935 Y109.739 E0.06201
G1 X102.829 Y107.974 E0.06203
G1 X103.894 Y106.327 E0.06152
G1 X105.045 Y104.895 E0.05760
G1 X105.926 Y105.605 F9000.000
G1 F1200.000
G1 X107.319 Y104.184 E0.06239
G1 X108.779 Y102.995 E0.05905
G1 X110.353 Y101.966 E0.05895
G1 X112.024 Y101.106 E0.05894
G1 X113.727 Y100.446 E0.05727
G1 X115.715 Y99.906 E0.06456
G1 X117.577 Y99.618 E0.05908
G1 X119.474 Y99.526 E0.05955
G1 X121.314 Y99.629 E0.05779
G1 X123.151 Y99.924 E0.05833
G1 X124.965 Y100.413 E0.05893
G1 X126.703 Y101.081 E0.05838
G1 X128.362 Y101.926 E0.05835
G1 X129.939 Y102.947 E0.05893
G1 X131.388 Y104.114 E0.05832
G1 X132.709 Y105.428 E0.05844
G1 X133.969 Y106.985 E0.06278
G1 X134.988 Y108.566 E0.05897
G1 X135.837 Y110.247 E0.05904
G1 X136.504 Y112.004 E0.05893
G1 X136.986 Y113.822 E0.05899
G1 X137.274 Y115.683 E0.05903
G1 X137.365 Y117.561 E0.05895
G1 X137.263 Y119.419 E0.05835
G1 X136.969 Y121.259 E0.05843
G1 X136.479 Y123.074 E0.05893
G1 X135.811 Y124.811 E0.05833
G1 X134.967 Y126.471 E0.05840
G1 X133.945 Y128.046 E0.05889
G1 X132.778 Y129.496 E0.05835
G1 X131.464 Y130.817 E0.05844
G1 X130.005 Y132.005 E0.05899
G1 X128.431 Y133.034 E0.05894
G1 X126.764 Y133.892 E0.05879
G1 X124.887 Y134.612 E0.06302
G1 X123.068 Y135.094 E0.05902
G1 X121.211 Y135.382 E0.05892
G1 X119.329 Y135.475 E0.05908
G1 X117.474 Y135.371 E0.05824
G1 X115.655 Y135.081 E0.05775
G1 X113.859 Y134.600 E0.05832
G1 X112.138 Y133.944 E0.05774
G1 X110.459 Y133.095 E0.05898
G1 X108.877 Y132.076 E0.05900
G1 X107.271 Y130.768 E0.06495
G1 X105.995 Y129.481 E0.05683
G1 X104.816 Y128.015 E0.05900
G1 X103.794 Y126.434 E0.05903
G1 X102.948 Y124.755 E0.05896
G1 X102.278 Y122.995 E0.05904
G1 X101.798 Y121.177 E0.05895
G1 X101.510 Y119.317 E0.05901
G1 X101.419 Y117.441 E0.05889
G1 X101.521 Y115.581 E0.05841
