; generated by PrusaSlicer 2.2.0+ on 2020-11-15 at 20:27:16 UTC

; 

; external perimeters extrusion width = 0.45mm
; perimeters extrusion width = 0.45mm
; infill extrusion width = 0.45mm
; solid infill extrusion width = 0.45mm
; top infill extrusion width = 0.40mm
; first layer extrusion width = 0.42mm

M201 X500 Y500 Z100 E5000 ; sets maximum accelerations, mm/sec^2
M203 X500 Y500 Z10 E60 ; sets maximum feedrates, mm/sec
M204 P500 R1000 T500 ; sets acceleration (P, T) and retract acceleration (R), mm/sec^2
M205 X8.00 Y8.00 Z0.40 E5.00 ; sets the jerk limits, mm/sec
M205 S0 T0 ; sets the minimum extruding and travel feed rate, mm/sec
M107
G90 ; use absolute coordinates
M83 ; extruder relative mode
M104 S200 ; set extruder temp
M140 S60 ; set bed temp
M190 S60 ; wait for bed temp
M109 S200 ; wait for extruder temp
G28 ; home all
G1 Z2 F240
G1 X2 Y10 F3000
G1 Z0.28 F240
G92 E0.0
G1 Y190 E15.0 F1500.0 ; intro line
G1 X2.3 F5000
G1 Y10 E30 F1200.0 ; intro line
G92 E0.0
G21 ; set units to millimeters
G90 ; use absolute coordinates
M83 ; use relative distances for extrusion
; Filament gcode
;BEFORE_LAYER_CHANGE
;0.2


G1 E-5.00000 F3600.00000
G1 Z0.200 F9000.000
;AFTER_LAYER_CHANGE
;0.2
G1 X83.244 Y74.751
G1 E5.00000 F2400.00000
G1 F1200.000
G1 X83.590 Y74.085 E0.02355
G1 X83.964 Y73.685 E0.01716
G1 X84.417 Y73.384 E0.01704
G1 X84.926 Y73.193 E0.01704
G1 X85.465 Y73.123 E0.01704
G1 X149.504 Y73.123 E2.00790
G1 X150.151 Y73.214 E0.02048
G1 X150.748 Y73.477 E0.02048
G1 X151.254 Y73.896 E0.02060
G1 X151.625 Y74.434 E0.02048
G1 X151.835 Y75.052 E0.02048
G1 X151.868 Y75.704 E0.02048
G1 X151.723 Y76.341 E0.02048
G1 X151.410 Y76.914 E0.02048
G1 X87.360 Y160.980 E3.31369
G1 X86.669 Y161.570 E0.02849
G1 X85.808 Y161.857 E0.02849
G1 X84.901 Y161.800 E0.02849
G1 X84.085 Y161.410 E0.02837
G1 X83.683 Y161.033 E0.01728
G1 X83.379 Y160.573 E0.01728
G1 X83.190 Y160.059 E0.01716
G1 X83.123 Y159.512 E0.01728
G1 X83.123 Y75.489 E2.63451
G1 X83.234 Y74.810 E0.02155
G1 E-3.50000 F3600.00000
G1 F7200.000
G1 X83.590 Y74.085 E-0.38392
G1 X83.964 Y73.685 E-0.25996
G1 X84.417 Y73.384 E-0.25816
G1 X84.926 Y73.193 E-0.25816
G1 X85.465 Y73.123 E-0.25816
G1 X85.479 Y73.123 E-0.00663
G1 E-0.07500 F3600.00000
G1 X108.141 Y118.441 F9000.000
G1 E5.00000 F2400.00000
G1 F1200.000
G1 X109.023 Y117.992 E0.03103
G1 X109.981 Y117.840 E0.03043
G1 X110.977 Y117.992 E0.03158
G1 X111.859 Y118.441 E0.03105
G1 X112.559 Y119.141 E0.03102
G1 X113.008 Y120.023 E0.03103
G1 X113.163 Y121.000 E0.03102
G1 X113.008 Y121.977 E0.03102
G1 X112.559 Y122.859 E0.03103
G1 X111.859 Y123.559 E0.03102
G1 X110.977 Y124.008 E0.03103
G1 X110.000 Y124.163 E0.03102
G1 X109.023 Y124.008 E0.03102
G1 X108.141 Y123.559 E0.03103
G1 X107.441 Y122.859 E0.03102
G1 X106.992 Y121.977 E0.03103
G1 X106.837 Y121.000 E0.03102
G1 X106.992 Y120.023 E0.03102
G1 X107.441 Y119.141 E0.03103
G1 X108.099 Y118.484 E0.02914
G1 X108.099 Y118.044 F9000.000
G1 X109.720 Y117.500
G1 F1200.000
G1 X108.905 Y117.629 E0.02587
G1 X107.917 Y118.133 E0.03477
G1 X107.133 Y118.917 E0.03477
G1 X106.629 Y119.905 E0.03477
G1 X106.500 Y120.720 E0.02587
G1 X106.371 Y119.905 E0.02587
G1 X105.867 Y118.917 E0.03477
G1 X105.083 Y118.133 E0.03477
G1 X104.094 Y117.628 E0.03483
G1 X103.266 Y117.502 E0.02625
G1 X104.095 Y117.371 E0.02633
G1 X105.083 Y116.867 E0.03477
G1 X105.853 Y116.098 E0.03413
G1 X106.371 Y115.097 E0.03532
G1 X106.500 Y114.280 E0.02593
G1 X106.629 Y115.095 E0.02587
G1 X107.133 Y116.083 E0.03477
G1 X107.917 Y116.867 E0.03477
G1 X108.905 Y117.371 E0.03477
G1 X109.660 Y117.491 E0.02399
G1 X110.000 Y117.163 F9000.000
G1 F1200.000
G1 X109.023 Y117.008 E0.03102
G1 X108.141 Y116.559 E0.03103
G1 X107.441 Y115.859 E0.03102
G1 X106.992 Y114.977 E0.03103
G1 X106.837 Y114.000 E0.03102
G1 X106.992 Y113.023 E0.03102
G1 X107.441 Y112.141 E0.03103
G1 X108.141 Y111.441 E0.03102
G1 X109.023 Y110.992 E0.03103
G1 X109.981 Y110.840 E0.03043
G1 X110.977 Y110.992 E0.03158
G1 X111.859 Y111.441 E0.03105
G1 X112.559 Y112.141 E0.03102
G1 X113.008 Y113.023 E0.03103
G1 X113.163 Y114.000 E0.03102
G1 X113.008 Y114.977 E0.03102
G1 X112.559 Y115.859 E0.03103
G1 X111.859 Y116.559 E0.03102
G1 X110.977 Y117.008 E0.03103
G1 X110.059 Y117.153 E0.02914
G1 X109.800 Y117.509 F9000.000
G1 E-3.50000 F3600.00000
G1 F7200.000
G1 X109.023 Y117.008 E-0.49719
G1 X108.141 Y116.559 E-0.47001
G1 X107.460 Y115.877 E-0.45780
G1 E-0.07500 F3600.00000
G1 X106.500 Y113.720 F9000.000
G1 E5.00000 F2400.00000
G1 F1200.000
G1 X106.371 Y112.905 E0.02587
G1 X105.867 Y111.917 E0.03477
G1 X105.083 Y111.133 E0.03477
G1 X104.094 Y110.628 E0.03483
G1 X103.266 Y110.502 E0.02625
G1 X104.095 Y110.371 E0.02633
G1 X105.083 Y109.867 E0.03477
G1 X105.853 Y109.098 E0.03413
G1 X106.371 Y108.097 E0.03532
G1 X106.500 Y107.280 E0.02593
G1 X106.629 Y108.095 E0.02587
G1 X107.133 Y109.083 E0.03477
G1 X107.917 Y109.867 E0.03477
G1 X108.905 Y110.371 E0.03477
G1 X109.720 Y110.500 E0.02587
G1 X108.905 Y110.629 E0.02587
G1 X107.917 Y111.133 E0.03477
G1 X107.133 Y111.917 E0.03477
G1 X106.629 Y112.905 E0.03477
G1 X106.509 Y113.660 E0.02399
G1 E-3.50000 F3600.00000
G1 F7200.000
G1 X106.371 Y112.905 E-0.36494
G1 X105.867 Y111.917 E-0.52675
G1 X105.083 Y111.133 E-0.52673
G1 X105.071 Y111.126 E-0.00657
G1 E-0.07500 F3600.00000
G1 X108.141 Y109.559 F9000.000
G1 E5.00000 F2400.00000
G1 F1200.000
G1 X107.441 Y108.859 E0.03102
G1 X106.992 Y107.977 E0.03103
G1 X106.837 Y107.000 E0.03102
G1 X106.992 Y106.023 E0.03102
G1 X107.441 Y105.141 E0.03103
G1 X108.141 Y104.441 E0.03102
G1 X109.023 Y103.992 E0.03103
G1 X109.981 Y103.840 E0.03043
G1 X110.977 Y103.992 E0.03158
G1 X111.859 Y104.441 E0.03105
G1 X112.559 Y105.141 E0.03102
G1 X113.008 Y106.023 E0.03103
G1 X113.163 Y107.000 E0.03102
G1 X113.008 Y107.977 E0.03102
G1 X112.559 Y108.859 E0.03103
G1 X111.859 Y109.559 E0.03102
G1 X110.977 Y110.008 E0.03103
G1 X110.000 Y110.163 E0.03102
G1 X109.023 Y110.008 E0.03102
G1 X108.194 Y109.586 E0.02914
G1 X107.776 Y109.721 F9000.000
G1 E-3.50000 F3600.00000
G1 F7200.000
G1 X107.441 Y108.859 E-0.49717
G1 X106.992 Y107.977 E-0.47002
G1 X106.841 Y107.025 E-0.45781
G1 E-0.07500 F3600.00000
G1 X106.500 Y106.720 F9000.000
G1 E5.00000 F2400.00000
G1 F1200.000
G1 X106.371 Y105.905 E0.02587
G1 X105.867 Y104.917 E0.03477
G1 X105.083 Y104.133 E0.03477
G1 X104.094 Y103.628 E0.03483
G1 X103.266 Y103.502 E0.02625
G1 X104.095 Y103.371 E0.02633
G1 X105.083 Y102.867 E0.03477
G1 X105.867 Y102.083 E0.03477
G1 X106.371 Y101.095 E0.03477
G1 X106.500 Y100.280 E0.02587
G1 X106.629 Y101.095 E0.02587
G1 X107.133 Y102.083 E0.03477
G1 X107.917 Y102.867 E0.03477
G1 X108.905 Y103.371 E0.03477
G1 X109.720 Y103.500 E0.02587
G1 X108.905 Y103.629 E0.02587
G1 X107.917 Y104.133 E0.03477
G1 X107.133 Y104.917 E0.03477
G1 X106.629 Y105.905 E0.03477
G1 X106.509 Y106.660 E0.02399
G1 E-3.50000 F3600.00000
G1 F7200.000
G1 X106.371 Y105.905 E-0.36495
G1 X105.867 Y104.917 E-0.52675
G1 X105.083 Y104.133 E-0.52673
G1 X105.071 Y104.126 E-0.00657
G1 E-0.07500 F3600.00000
G1 X108.141 Y102.559 F9000.000
G1 E5.00000 F2400.00000
G1 F1200.000
G1 X107.441 Y101.859 E0.03102
G1 X106.992 Y100.977 E0.03103
G1 X106.837 Y100.000 E0.03102
G1 X106.992 Y99.023 E0.03102
G1 X107.441 Y98.141 E0.03103
G1 X108.141 Y97.441 E0.03102
G1 X109.023 Y96.992 E0.03103
G1 X110.000 Y96.837 E0.03102
G1 X110.977 Y96.992 E0.03102
G1 X111.859 Y97.441 E0.03103
G1 X112.559 Y98.141 E0.03102
G1 X113.008 Y99.023 E0.03103
G1 X113.163 Y100.000 E0.03102
G1 X113.008 Y100.977 E0.03102
G1 X112.559 Y101.859 E0.03103
G1 X111.859 Y102.559 E0.03102
G1 X110.977 Y103.008 E0.03103
G1 X110.000 Y103.163 E0.03102
G1 X109.023 Y103.008 E0.03102
G1 X108.194 Y102.586 E0.02914
G1 X107.776 Y102.721 F9000.000
G1 E-3.50000 F3600.00000
G1 F7200.000
G1 X107.441 Y101.859 E-0.49717
G1 X106.992 Y100.977 E-0.47001
G1 X106.841 Y100.025 E-0.45782
G1 E-0.07500 F3600.00000
G1 X106.500 Y99.720 F9000.000
G1 E5.00000 F2400.00000
G1 F1200.000
G1 X106.371 Y98.905 E0.02587
G1 X105.867 Y97.917 E0.03477
G1 X105.083 Y97.133 E0.03477
G1 X104.095 Y96.629 E0.03477
G1 X103.280 Y96.500 E0.02587
G1 X104.095 Y96.371 E0.02587
G1 X105.083 Y95.867 E0.03477
G1 X105.867 Y95.083 E0.03477
G1 X106.371 Y94.095 E0.03477
G1 X106.500 Y93.280 E0.02587
G1 X106.629 Y94.095 E0.02587
G1 X107.133 Y95.083 E0.03477
G1 X107.917 Y95.867 E0.03477
G1 X108.905 Y96.371 E0.03477
G1 X109.720 Y96.500 E0.02587
G1 X108.905 Y96.629 E0.02587
G1 X107.917 Y97.133 E0.03477
G1 X107.133 Y97.917 E0.03477
G1 X106.629 Y98.905 E0.03477
G1 X106.509 Y99.660 E0.02399
G1 E-3.50000 F3600.00000
G1 F7200.000
G1 X106.371 Y98.905 E-0.36494
G1 X105.867 Y97.917 E-0.52675
G1 X105.083 Y97.133 E-0.52673
G1 X105.071 Y97.126 E-0.00658
G1 E-0.07500 F3600.00000
G1 X108.141 Y95.559 F9000.000
G1 E5.00000 F2400.00000
G1 F1200.000
G1 X107.441 Y94.859 E0.03102
G1 X106.992 Y93.977 E0.03103
G1 X106.837 Y93.000 E0.03102
G1 X106.992 Y92.023 E0.03102
G1 X107.441 Y91.141 E0.03103
G1 X108.141 Y90.441 E0.03102
G1 X109.023 Y89.992 E0.03103
G1 X110.000 Y89.837 E0.03102
G1 X110.977 Y89.992 E0.03102
G1 X111.859 Y90.441 E0.03103
G1 X112.559 Y91.141 E0.03102
G1 X113.008 Y92.023 E0.03103
G1 X113.163 Y93.000 E0.03102
G1 X113.008 Y93.977 E0.03102
G1 X112.559 Y94.859 E0.03103
G1 X111.859 Y95.559 E0.03102
G1 X110.977 Y96.008 E0.03103
G1 X110.000 Y96.163 E0.03102
G1 X109.023 Y96.008 E0.03102
G1 X108.194 Y95.586 E0.02914
G1 X107.776 Y95.721 F9000.000
G1 E-3.50000 F3600.00000
G1 F7200.000
G1 X107.441 Y94.859 E-0.49717
G1 X106.992 Y93.977 E-0.47001
G1 X106.841 Y93.025 E-0.45782
G1 E-0.07500 F3600.00000
G1 X106.500 Y92.720 F9000.000
G1 E5.00000 F2400.00000
G1 F1200.000
G1 X106.371 Y91.905 E0.02587
G1 X105.867 Y90.917 E0.03477
G1 X105.083 Y90.133 E0.03477
G1 X104.095 Y89.629 E0.03477
G1 X103.280 Y89.500 E0.02587
G1 X104.095 Y89.371 E0.02587
G1 X105.083 Y88.867 E0.03477
G1 X105.853 Y88.098 E0.03413
G1 X106.371 Y87.097 E0.03532
G1 X106.500 Y86.280 E0.02593
G1 X106.629 Y87.095 E0.02587
G1 X107.133 Y88.083 E0.03477
G1 X107.917 Y88.867 E0.03477
G1 X108.905 Y89.371 E0.03477
G1 X109.720 Y89.500 E0.02587
G1 X108.905 Y89.629 E0.02587
G1 X107.917 Y90.133 E0.03477
G1 X107.133 Y90.917 E0.03477
G1 X106.629 Y91.905 E0.03477
G1 X106.509 Y92.660 E0.02399
G1 E-3.50000 F3600.00000
G1 F7200.000
G1 X106.371 Y91.905 E-0.36494
G1 X105.867 Y90.917 E-0.52675
G1 X105.083 Y90.133 E-0.52673
G1 X105.071 Y90.126 E-0.00658
G1 E-0.07500 F3600.00000
G1 X108.141 Y88.559 F9000.000
G1 E5.00000 F2400.00000
G1 F1200.000
G1 X107.441 Y87.859 E0.03102
G1 X106.992 Y86.977 E0.03103
G1 X106.837 Y86.000 E0.03102
G1 X106.992 Y85.023 E0.03102
G1 X107.441 Y84.141 E0.03102
G1 X108.141 Y83.441 E0.03102
G1 X109.023 Y82.992 E0.03103
G1 X109.981 Y82.840 E0.03043
G1 X110.977 Y82.992 E0.03158
G1 X111.859 Y83.441 E0.03105
G1 X112.559 Y84.141 E0.03102
G1 X113.008 Y85.023 E0.03102
G1 X113.163 Y86.000 E0.03102
G1 X113.008 Y86.977 E0.03102
G1 X112.559 Y87.859 E0.03103
G1 X111.859 Y88.559 E0.03102
G1 X110.977 Y89.008 E0.03103
G1 X110.000 Y89.163 E0.03102
G1 X109.023 Y89.008 E0.03102
G1 X108.194 Y88.586 E0.02914
G1 X107.776 Y88.721 F9000.000
G1 E-3.50000 F3600.00000
G1 F7200.000
G1 X107.441 Y87.859 E-0.49717
G1 X106.992 Y86.977 E-0.47002
G1 X106.841 Y86.025 E-0.45782
G1 E-0.07500 F3600.00000
G1 X106.500 Y85.720 F9000.000
G1 E5.00000 F2400.00000
G1 F1200.000
G1 X106.371 Y84.905 E0.02587
G1 X105.877 Y83.935 E0.03413
G1 X105.085 Y83.133 E0.03532
G1 X104.094 Y82.628 E0.03489
G1 X103.266 Y82.502 E0.02625
G1 X104.095 Y82.371 E0.02633
G1 X105.083 Y81.867 E0.03477
G1 X105.867 Y81.083 E0.03477
G1 X106.371 Y80.095 E0.03477
G1 X106.500 Y79.280 E0.02587
G1 X106.629 Y80.095 E0.02587
G1 X107.123 Y81.065 E0.03413
G1 X107.915 Y81.867 E0.03532
G1 X108.905 Y82.371 E0.03483
G1 X109.720 Y82.500 E0.02587
G1 X108.905 Y82.629 E0.02587
G1 X107.917 Y83.133 E0.03477
G1 X107.133 Y83.917 E0.03477
G1 X106.629 Y84.905 E0.03477
G1 X106.509 Y85.660 E0.02399
G1 E-3.50000 F3600.00000
G1 F7200.000
G1 X106.371 Y84.905 E-0.36495
G1 X105.877 Y83.935 E-0.51710
G1 X105.085 Y83.133 E-0.53508
G1 X105.070 Y83.126 E-0.00787
G1 E-0.07500 F3600.00000
G1 X106.500 Y78.720 F9000.000
G1 E5.00000 F2400.00000
G1 F1200.000
G1 X106.371 Y77.905 E0.02587
G1 X105.877 Y76.935 E0.03413
G1 X105.085 Y76.133 E0.03532
G1 X104.994 Y76.087 E0.00320
G1 X108.006 Y76.087 E0.09443
G1 X107.917 Y76.133 E0.00314
G1 X107.133 Y76.917 E0.03477
G1 X106.629 Y77.905 E0.03477
G1 X106.509 Y78.660 E0.02399
G1 X106.837 Y79.000 F9000.000
G1 F1200.000
G1 X106.992 Y78.023 E0.03102
G1 X107.441 Y77.141 E0.03102
G1 X108.141 Y76.441 E0.03102
G1 X109.023 Y75.992 E0.03103
G1 X109.981 Y75.840 E0.03043
G1 X110.977 Y75.992 E0.03158
G1 X111.859 Y76.441 E0.03105
G1 X112.559 Y77.141 E0.03102
G1 X113.008 Y78.023 E0.03102
G1 X113.163 Y79.000 E0.03102
G1 X113.008 Y79.977 E0.03102
G1 X112.559 Y80.859 E0.03102
G1 X111.859 Y81.559 E0.03102
G1 X110.977 Y82.008 E0.03103
G1 X110.000 Y82.163 E0.03102
G1 X109.023 Y82.008 E0.03102
G1 X108.140 Y81.558 E0.03105
G1 X107.433 Y80.842 E0.03157
G1 X106.992 Y79.977 E0.03043
G1 X106.847 Y79.059 E0.02914
G1 X106.491 Y78.800 F9000.000
G1 X106.163 Y79.000
G1 F1200.000
G1 X106.008 Y79.977 E0.03102
G1 X105.559 Y80.859 E0.03102
G1 X104.859 Y81.559 E0.03102
G1 X103.977 Y82.008 E0.03103
G1 X103.000 Y82.163 E0.03102
G1 X102.023 Y82.008 E0.03102
G1 X101.140 Y81.558 E0.03105
G1 X100.433 Y80.842 E0.03157
G1 X99.992 Y79.977 E0.03043
G1 X99.837 Y79.000 E0.03102
G1 X99.992 Y78.023 E0.03102
G1 X100.441 Y77.141 E0.03102
G1 X101.141 Y76.441 E0.03102
G1 X102.023 Y75.992 E0.03103
G1 X102.981 Y75.840 E0.03043
G1 X103.977 Y75.992 E0.03158
G1 X104.860 Y76.442 E0.03107
G1 X105.567 Y77.158 E0.03157
G1 X106.008 Y78.023 E0.03043
G1 X106.153 Y78.941 E0.02914
G1 X106.509 Y79.200 F9000.000
G1 E-3.50000 F3600.00000
G1 F7200.000
G1 X106.008 Y79.977 E-0.49719
G1 X105.559 Y80.859 E-0.47000
G1 X104.877 Y81.540 E-0.45781
G1 E-0.07500 F3600.00000
G1 X101.006 Y76.087 F9000.000
G1 E5.00000 F2400.00000
G1 F1200.000
G1 X100.917 Y76.133 E0.00314
G1 X100.133 Y76.917 E0.03477
G1 X99.629 Y77.905 E0.03477
G1 X99.500 Y78.720 E0.02587
G1 X99.371 Y77.905 E0.02587
G1 X98.877 Y76.935 E0.03413
G1 X98.085 Y76.133 E0.03532
G1 X97.994 Y76.087 E0.00320
G1 X100.946 Y76.087 E0.09255
G1 E-3.50000 F3600.00000
G1 F7200.000
G1 X100.917 Y76.133 E-0.02566
G1 X100.133 Y76.917 E-0.52673
G1 X99.629 Y77.905 E-0.52674
G1 X99.515 Y78.624 E-0.34587
G1 E-0.07500 F3600.00000
G1 X99.500 Y79.280 F9000.000
G1 E5.00000 F2400.00000
G1 F1200.000
G1 X99.629 Y80.095 E0.02587
G1 X100.123 Y81.065 E0.03413
G1 X100.915 Y81.867 E0.03532
G1 X101.905 Y82.371 E0.03483
G1 X102.720 Y82.500 E0.02587
G1 X101.905 Y82.629 E0.02587
G1 X100.917 Y83.133 E0.03477
G1 X100.133 Y83.917 E0.03477
G1 X99.629 Y84.905 E0.03477
G1 X99.500 Y85.720 E0.02587
G1 X99.371 Y84.905 E0.02587
G1 X98.877 Y83.935 E0.03413
G1 X98.085 Y83.133 E0.03532
G1 X97.094 Y82.628 E0.03489
G1 X96.266 Y82.502 E0.02625
G1 X97.095 Y82.371 E0.02633
G1 X98.083 Y81.867 E0.03477
G1 X98.867 Y81.083 E0.03477
G1 X99.371 Y80.095 E0.03477
G1 X99.491 Y79.340 E0.02399
G1 E-3.50000 F3600.00000
G1 F7200.000
G1 X99.629 Y80.095 E-0.36495
G1 X100.123 Y81.065 E-0.51710
G1 X100.915 Y81.867 E-0.53508
G1 X100.930 Y81.874 E-0.00787
G1 E-0.07500 F3600.00000
G1 X101.141 Y83.441 F9000.000
G1 E5.00000 F2400.00000
G1 F1200.000
G1 X102.023 Y82.992 E0.03103
G1 X102.981 Y82.840 E0.03043
G1 X103.977 Y82.992 E0.03158
G1 X104.860 Y83.442 E0.03107
G1 X105.567 Y84.158 E0.03157
G1 X106.008 Y85.023 E0.03043
G1 X106.163 Y86.000 E0.03102
G1 X106.008 Y86.978 E0.03105
G1 X105.545 Y87.872 E0.03158
G1 X104.859 Y88.559 E0.03042
G1 X103.977 Y89.008 E0.03103
G1 X103.000 Y89.163 E0.03102
G1 X102.023 Y89.008 E0.03102
G1 X101.141 Y88.559 E0.03103
G1 X100.441 Y87.859 E0.03102
G1 X99.992 Y86.977 E0.03103
G1 X99.837 Y86.000 E0.03102
G1 X99.992 Y85.023 E0.03102
G1 X100.441 Y84.141 E0.03102
G1 X101.099 Y83.484 E0.02914
G1 X101.099 Y83.044 F9000.000
G1 E-3.50000 F3600.00000
G1 F7200.000
G1 X102.023 Y82.992 E-0.49720
G1 X102.981 Y82.840 E-0.46093
G1 X103.953 Y82.988 E-0.46687
G1 E-0.07500 F3600.00000
G1 X99.500 Y86.280 F9000.000
G1 E5.00000 F2400.00000
G1 F1200.000
G1 X99.629 Y87.095 E0.02587
G1 X100.133 Y88.083 E0.03477
