; generated by PrusaSlicer 2.2.0+ on 2020-11-16 at 04:00:18 UTC

; 

; external perimeters extrusion width = 0.45mm
; perimeters extrusion width = 0.45mm
; infill extrusion width = 0.45mm
; solid infill extrusion width = 0.45mm
; top infill extrusion width = 0.40mm
; first layer extrusion width = 0.42mm

M201 X500 Y500 Z100 E5000 ; sets maximum accelerations, mm/sec^2
M203 X500 Y500 Z10 E60 ; sets maximum feedrates, mm/sec
M204 P500 R1000 T500 ; sets acceleration (P, T) and retract acceleration (R), mm/sec^2
M205 X8.00 Y8.00 Z0.40 E5.00 ; sets the jerk limits, mm/sec
M205 S0 T0 ; sets the minimum extruding and travel feed rate, mm/sec
M107
G90 ; use absolute coordinates
M83 ; extruder relative mode
M104 S200 ; set extruder temp
M140 S60 ; set bed temp
M190 S60 ; wait for bed temp
M109 S200 ; wait for extruder temp
G28 ; home all
G1 Z2 F240
G1 X2 Y10 F3000
G1 Z0.28 F240
G92 E0.0
G1 Y190 E15.0 F1500.0 ; intro line
G1 X2.3 F5000
G1 Y10 E30 F1200.0 ; intro line
G92 E0.0
G21 ; set units to millimeters
G90 ; use absolute coordinates
M83 ; use relative distances for extrusion
; Filament gcode
;BEFORE_LAYER_CHANGE
;0.2


G1 E-5.00000 F3600.00000
G1 Z0.200 F9000.000
;AFTER_LAYER_CHANGE
;0.2
G1 X83.244 Y74.751
G1 E5.00000 F2400.00000
G1 F1200.000
G1 X83.590 Y74.085 E0.02355
G1 X83.964 Y73.685 E0.01716
G1 X84.417 Y73.384 E0.01704
G1 X84.926 Y73.193 E0.01704
G1 X85.465 Y73.123 E0.01704
G1 X149.504 Y73.123 E2.00790
G1 X150.151 Y73.214 E0.02048
G1 X150.748 Y73.477 E0.02048
G1 X151.254 Y73.896 E0.02060
G1 X151.625 Y74.434 E0.02048
G1 X151.835 Y75.052 E0.02048
G1 X151.868 Y75.704 E0.02048
G1 X151.723 Y76.341 E0.02048
G1 X151.410 Y76.914 E0.02048
G1 X87.360 Y160.980 E3.31369
G1 X86.669 Y161.570 E0.02849
G1 X85.808 Y161.857 E0.02849
G1 X84.904 Y161.801 E0.02837
G1 X84.085 Y161.410 E0.02849
G1 X83.685 Y161.035 E0.01716
G1 X83.381 Y160.576 E0.01728
G1 X83.190 Y160.059 E0.01728
G1 X83.123 Y159.512 E0.01728
G1 X83.123 Y75.489 E2.63451
G1 X83.234 Y74.810 E0.02155
G1 E-3.50000 F3600.00000
G1 F7200.000
G1 X83.590 Y74.085 E-0.38392
G1 X83.964 Y73.685 E-0.25996
G1 X84.417 Y73.384 E-0.25816
G1 X84.926 Y73.193 E-0.25816
G1 X85.465 Y73.123 E-0.25816
G1 X85.479 Y73.123 E-0.00663
G1 E-0.07500 F3600.00000
G1 X104.492 Y124.398 F9000.000
G1 E5.00000 F2400.00000
G1 F1200.000
G1 X105.159 Y124.257 E0.02138
G1 X105.841 Y124.257 E0.02138
G1 X106.508 Y124.398 E0.02138
G1 X107.131 Y124.676 E0.02138
G1 X107.682 Y125.076 E0.02138
G1 X108.138 Y125.583 E0.02138
G1 X108.479 Y126.174 E0.02138
G1 X108.690 Y126.822 E0.02138
G1 X108.761 Y127.500 E0.02138
G1 X108.690 Y128.178 E0.02138
G1 X108.479 Y128.826 E0.02138
G1 X108.138 Y129.417 E0.02138
G1 X107.682 Y129.924 E0.02138
G1 X107.131 Y130.324 E0.02138
G1 X106.508 Y130.602 E0.02138
G1 X105.841 Y130.743 E0.02138
G1 X105.159 Y130.743 E0.02138
G1 X104.492 Y130.602 E0.02138
G1 X103.869 Y130.324 E0.02138
G1 X103.318 Y129.924 E0.02138
G1 X102.862 Y129.417 E0.02138
G1 X102.521 Y128.826 E0.02138
G1 X102.310 Y128.178 E0.02138
G1 X102.239 Y127.500 E0.02138
G1 X102.310 Y126.822 E0.02138
G1 X102.521 Y126.174 E0.02138
G1 X102.862 Y125.583 E0.02138
G1 X103.318 Y125.076 E0.02138
G1 X103.869 Y124.676 E0.02138
G1 X104.437 Y124.423 E0.01949
G1 X104.575 Y124.007 F9000.000
G1 E-3.50000 F3600.00000
G1 F7200.000
G1 X105.159 Y124.257 E-0.35177
G1 X105.841 Y124.257 E-0.32383
G1 X106.508 Y124.398 E-0.32384
G1 X107.131 Y124.676 E-0.32383
G1 X107.304 Y124.802 E-0.10172
G1 E-0.07500 F3600.00000
G1 X91.682 Y141.076 F9000.000
G1 E5.00000 F2400.00000
G1 F1200.000
G1 X92.138 Y141.583 E0.02138
G1 X92.479 Y142.174 E0.02138
G1 X92.690 Y142.822 E0.02138
G1 X92.761 Y143.500 E0.02138
G1 X92.690 Y144.178 E0.02138
G1 X92.479 Y144.826 E0.02138
G1 X92.138 Y145.417 E0.02138
G1 X91.682 Y145.924 E0.02138
G1 X91.131 Y146.324 E0.02138
G1 X90.508 Y146.602 E0.02138
G1 X89.841 Y146.743 E0.02138
G1 X89.159 Y146.743 E0.02138
G1 X88.492 Y146.602 E0.02138
G1 X87.869 Y146.324 E0.02138
G1 X87.318 Y145.924 E0.02138
G1 X86.862 Y145.417 E0.02138
G1 X86.521 Y144.826 E0.02138
G1 X86.310 Y144.178 E0.02138
G1 X86.239 Y143.500 E0.02138
G1 X86.310 Y142.822 E0.02138
G1 X86.521 Y142.174 E0.02138
G1 X86.862 Y141.583 E0.02138
G1 X87.318 Y141.076 E0.02138
G1 X87.869 Y140.676 E0.02138
G1 X88.492 Y140.398 E0.02138
G1 X89.159 Y140.257 E0.02138
G1 X89.841 Y140.257 E0.02138
G1 X90.508 Y140.398 E0.02138
G1 X91.131 Y140.676 E0.02138
G1 X91.634 Y141.041 E0.01950
G1 X92.063 Y140.953 F9000.000
G1 E-3.50000 F3600.00000
G1 F7200.000
G1 X92.138 Y141.583 E-0.35178
G1 X92.479 Y142.174 E-0.32384
G1 X92.690 Y142.822 E-0.32383
G1 X92.761 Y143.500 E-0.32383
G1 X92.739 Y143.713 E-0.10172
G1 E-0.07500 F3600.00000
G1 X90.541 Y138.587 F9000.000
G1 E5.00000 F2400.00000
G1 F1200.000
G1 X89.841 Y138.743 E0.02249
G1 X89.159 Y138.743 E0.02138
G1 X88.492 Y138.602 E0.02138
G1 X87.869 Y138.324 E0.02138
G1 X87.318 Y137.924 E0.02138
G1 X86.862 Y137.417 E0.02138
G1 X86.521 Y136.826 E0.02138
G1 X86.310 Y136.178 E0.02138
G1 X86.239 Y135.500 E0.02138
G1 X86.310 Y134.822 E0.02138
G1 X86.521 Y134.174 E0.02138
G1 X86.862 Y133.583 E0.02138
G1 X87.318 Y133.076 E0.02138
G1 X87.869 Y132.676 E0.02138
G1 X88.492 Y132.398 E0.02138
G1 X89.159 Y132.257 E0.02138
G1 X89.841 Y132.257 E0.02138
G1 X90.508 Y132.398 E0.02138
G1 X91.131 Y132.676 E0.02138
G1 X91.682 Y133.076 E0.02138
G1 X92.138 Y133.583 E0.02138
G1 X92.479 Y134.174 E0.02138
G1 X92.690 Y134.822 E0.02138
G1 X92.761 Y135.500 E0.02138
G1 X92.690 Y136.178 E0.02138
G1 X92.479 Y136.826 E0.02138
G1 X92.138 Y137.417 E0.02138
G1 X91.682 Y137.924 E0.02138
G1 X91.131 Y138.324 E0.02138
G1 X90.596 Y138.562 E0.01835
G1 X90.461 Y138.979 F9000.000
G1 E-3.50000 F3600.00000
G1 F7200.000
G1 X89.841 Y138.743 E-0.36875
G1 X89.159 Y138.743 E-0.32384
G1 X88.492 Y138.602 E-0.32384
G1 X87.869 Y138.324 E-0.32383
G1 X87.725 Y138.219 E-0.08474
G1 E-0.07500 F3600.00000
G1 X89.841 Y130.743 F9000.000
G1 E5.00000 F2400.00000
G1 F1200.000
G1 X89.159 Y130.743 E0.02138
G1 X88.492 Y130.602 E0.02138
G1 X87.869 Y130.324 E0.02138
G1 X87.318 Y129.924 E0.02138
G1 X86.862 Y129.417 E0.02138
G1 X86.521 Y128.826 E0.02138
G1 X86.310 Y128.178 E0.02138
G1 X86.239 Y127.500 E0.02138
G1 X86.310 Y126.822 E0.02138
G1 X86.521 Y126.174 E0.02138
G1 X86.862 Y125.583 E0.02138
G1 X87.318 Y125.076 E0.02138
G1 X87.869 Y124.676 E0.02138
G1 X88.492 Y124.398 E0.02138
G1 X89.159 Y124.257 E0.02138
G1 X89.841 Y124.257 E0.02138
G1 X90.508 Y124.398 E0.02138
G1 X91.131 Y124.676 E0.02138
G1 X91.682 Y125.076 E0.02138
G1 X92.138 Y125.583 E0.02138
G1 X92.479 Y126.174 E0.02138
G1 X92.690 Y126.822 E0.02138
G1 X92.761 Y127.500 E0.02138
G1 X92.690 Y128.178 E0.02138
G1 X92.479 Y128.826 E0.02138
G1 X92.138 Y129.417 E0.02138
G1 X91.682 Y129.924 E0.02138
G1 X91.131 Y130.324 E0.02138
G1 X90.508 Y130.602 E0.02138
G1 X89.900 Y130.731 E0.01950
G1 X89.678 Y131.109 F9000.000
G1 E-3.50000 F3600.00000
G1 F7200.000
G1 X89.159 Y130.743 E-0.35177
G1 X88.492 Y130.602 E-0.32384
G1 X87.869 Y130.324 E-0.32383
G1 X87.318 Y129.924 E-0.32385
G1 X87.175 Y129.764 E-0.10171
G1 E-0.07500 F3600.00000
G1 X89.841 Y122.743 F9000.000
G1 E5.00000 F2400.00000
G1 F1200.000
G1 X89.159 Y122.743 E0.02138
G1 X88.492 Y122.602 E0.02138
G1 X87.869 Y122.324 E0.02138
G1 X87.318 Y121.924 E0.02138
G1 X86.862 Y121.417 E0.02138
G1 X86.521 Y120.826 E0.02138
G1 X86.310 Y120.178 E0.02138
G1 X86.239 Y119.500 E0.02138
G1 X86.310 Y118.822 E0.02138
G1 X86.521 Y118.174 E0.02138
G1 X86.862 Y117.583 E0.02138
G1 X87.318 Y117.076 E0.02138
G1 X87.869 Y116.676 E0.02138
G1 X88.492 Y116.398 E0.02138
G1 X89.159 Y116.257 E0.02138
G1 X89.841 Y116.257 E0.02138
G1 X90.508 Y116.398 E0.02138
G1 X91.131 Y116.676 E0.02138
G1 X91.682 Y117.076 E0.02138
G1 X92.138 Y117.583 E0.02138
G1 X92.479 Y118.174 E0.02138
G1 X92.690 Y118.822 E0.02138
G1 X92.761 Y119.500 E0.02138
G1 X92.690 Y120.178 E0.02138
G1 X92.479 Y120.826 E0.02138
G1 X92.138 Y121.417 E0.02138
G1 X91.682 Y121.924 E0.02138
G1 X91.131 Y122.324 E0.02138
G1 X90.508 Y122.602 E0.02138
G1 X89.900 Y122.731 E0.01949
G1 X89.678 Y123.109 F9000.000
G1 E-3.50000 F3600.00000
G1 F7200.000
G1 X89.159 Y122.743 E-0.35177
G1 X88.492 Y122.602 E-0.32384
G1 X87.869 Y122.324 E-0.32383
G1 X87.318 Y121.924 E-0.32385
G1 X87.175 Y121.764 E-0.10171
G1 E-0.07500 F3600.00000
G1 X89.841 Y114.743 F9000.000
G1 E5.00000 F2400.00000
G1 F1200.000
G1 X89.159 Y114.743 E0.02138
G1 X88.492 Y114.602 E0.02138
G1 X87.869 Y114.324 E0.02138
G1 X87.318 Y113.924 E0.02138
G1 X86.862 Y113.417 E0.02138
G1 X86.521 Y112.826 E0.02138
G1 X86.310 Y112.178 E0.02138
G1 X86.239 Y111.500 E0.02138
G1 X86.310 Y110.822 E0.02138
G1 X86.521 Y110.174 E0.02138
G1 X86.862 Y109.583 E0.02138
G1 X87.318 Y109.076 E0.02138
G1 X87.869 Y108.676 E0.02138
G1 X88.492 Y108.398 E0.02138
G1 X89.159 Y108.257 E0.02138
G1 X89.841 Y108.257 E0.02138
G1 X90.508 Y108.398 E0.02138
G1 X91.131 Y108.676 E0.02138
G1 X91.682 Y109.076 E0.02138
G1 X92.138 Y109.583 E0.02138
G1 X92.479 Y110.174 E0.02138
G1 X92.690 Y110.822 E0.02138
G1 X92.761 Y111.500 E0.02138
G1 X92.690 Y112.178 E0.02138
G1 X92.479 Y112.826 E0.02138
G1 X92.138 Y113.417 E0.02138
G1 X91.682 Y113.924 E0.02138
G1 X91.131 Y114.324 E0.02138
G1 X90.508 Y114.602 E0.02138
G1 X89.900 Y114.731 E0.01950
G1 X89.678 Y115.109 F9000.000
G1 E-3.50000 F3600.00000
G1 F7200.000
G1 X89.159 Y114.743 E-0.35177
G1 X88.492 Y114.602 E-0.32384
G1 X87.869 Y114.324 E-0.32383
G1 X87.318 Y113.924 E-0.32385
G1 X87.175 Y113.764 E-0.10171
G1 E-0.07500 F3600.00000
G1 X89.841 Y106.743 F9000.000
G1 E5.00000 F2400.00000
G1 F1200.000
G1 X89.159 Y106.743 E0.02138
G1 X88.492 Y106.602 E0.02138
G1 X87.869 Y106.324 E0.02138
G1 X87.318 Y105.924 E0.02138
G1 X86.862 Y105.417 E0.02138
G1 X86.521 Y104.826 E0.02138
G1 X86.310 Y104.178 E0.02138
G1 X86.239 Y103.500 E0.02138
G1 X86.310 Y102.822 E0.02138
G1 X86.521 Y102.174 E0.02138
G1 X86.862 Y101.583 E0.02138
G1 X87.318 Y101.076 E0.02138
G1 X87.869 Y100.676 E0.02138
G1 X88.492 Y100.398 E0.02138
G1 X89.159 Y100.257 E0.02138
G1 X89.841 Y100.257 E0.02138
G1 X90.508 Y100.398 E0.02138
G1 X91.131 Y100.676 E0.02138
G1 X91.682 Y101.076 E0.02138
G1 X92.138 Y101.583 E0.02138
G1 X92.479 Y102.174 E0.02138
G1 X92.690 Y102.822 E0.02138
G1 X92.761 Y103.500 E0.02138
G1 X92.690 Y104.178 E0.02138
G1 X92.479 Y104.826 E0.02138
G1 X92.138 Y105.417 E0.02138
G1 X91.682 Y105.924 E0.02138
G1 X91.131 Y106.324 E0.02138
G1 X90.508 Y106.602 E0.02138
G1 X89.900 Y106.731 E0.01950
G1 X89.678 Y107.109 F9000.000
G1 E-3.50000 F3600.00000
G1 F7200.000
G1 X89.159 Y106.743 E-0.35177
G1 X88.492 Y106.602 E-0.32384
G1 X87.869 Y106.324 E-0.32383
G1 X87.318 Y105.924 E-0.32385
G1 X87.175 Y105.764 E-0.10171
G1 E-0.07500 F3600.00000
G1 X89.841 Y98.743 F9000.000
G1 E5.00000 F2400.00000
G1 F1200.000
G1 X89.159 Y98.743 E0.02138
G1 X88.492 Y98.602 E0.02138
G1 X87.869 Y98.324 E0.02138
G1 X87.318 Y97.924 E0.02138
G1 X86.862 Y97.417 E0.02138
G1 X86.521 Y96.826 E0.02138
G1 X86.310 Y96.178 E0.02138
G1 X86.239 Y95.500 E0.02138
G1 X86.310 Y94.822 E0.02138
G1 X86.521 Y94.174 E0.02138
G1 X86.862 Y93.583 E0.02138
G1 X87.318 Y93.076 E0.02138
G1 X87.869 Y92.676 E0.02138
G1 X88.492 Y92.398 E0.02138
G1 X89.159 Y92.257 E0.02138
G1 X89.841 Y92.257 E0.02138
G1 X90.508 Y92.398 E0.02138
G1 X91.131 Y92.676 E0.02138
G1 X91.682 Y93.076 E0.02138
G1 X92.138 Y93.583 E0.02138
G1 X92.479 Y94.174 E0.02138
G1 X92.690 Y94.822 E0.02138
G1 X92.761 Y95.500 E0.02138
G1 X92.690 Y96.178 E0.02138
G1 X92.479 Y96.826 E0.02138
G1 X92.138 Y97.417 E0.02138
G1 X91.682 Y97.924 E0.02138
G1 X91.131 Y98.324 E0.02138
G1 X90.508 Y98.602 E0.02138
G1 X89.900 Y98.731 E0.01950
G1 X89.678 Y99.109 F9000.000
G1 E-3.50000 F3600.00000
G1 F7200.000
G1 X89.159 Y98.743 E-0.35177
G1 X88.492 Y98.602 E-0.32384
G1 X87.869 Y98.324 E-0.32383
G1 X87.318 Y97.924 E-0.32385
G1 X87.175 Y97.764 E-0.10171
G1 E-0.07500 F3600.00000
G1 X89.841 Y90.743 F9000.000
G1 E5.00000 F2400.00000
G1 F1200.000
G1 X89.159 Y90.743 E0.02138
G1 X88.492 Y90.602 E0.02138
G1 X87.869 Y90.324 E0.02138
G1 X87.318 Y89.924 E0.02138
G1 X86.862 Y89.417 E0.02138
G1 X86.521 Y88.826 E0.02138
G1 X86.310 Y88.178 E0.02138
G1 X86.239 Y87.500 E0.02138
G1 X86.310 Y86.822 E0.02138
G1 X86.521 Y86.174 E0.02138
G1 X86.862 Y85.583 E0.02138
G1 X87.318 Y85.076 E0.02138
G1 X87.869 Y84.676 E0.02138
G1 X88.492 Y84.398 E0.02138
G1 X89.159 Y84.257 E0.02138
G1 X89.841 Y84.257 E0.02138
G1 X90.508 Y84.398 E0.02138
G1 X91.131 Y84.676 E0.02138
G1 X91.682 Y85.076 E0.02138
G1 X92.138 Y85.583 E0.02138
G1 X92.479 Y86.174 E0.02138
G1 X92.690 Y86.822 E0.02138
G1 X92.761 Y87.500 E0.02138
G1 X92.690 Y88.178 E0.02138
G1 X92.479 Y88.826 E0.02138
G1 X92.138 Y89.417 E0.02138
G1 X91.682 Y89.924 E0.02138
G1 X91.131 Y90.324 E0.02138
G1 X90.508 Y90.602 E0.02138
G1 X89.900 Y90.731 E0.01950
G1 X89.678 Y91.109 F9000.000
G1 E-3.50000 F3600.00000
G1 F7200.000
G1 X89.159 Y90.743 E-0.35177
G1 X88.492 Y90.602 E-0.32384
G1 X87.869 Y90.324 E-0.32383
G1 X87.318 Y89.924 E-0.32385
G1 X87.175 Y89.764 E-0.10171
G1 E-0.07500 F3600.00000
G1 X86.087 Y78.288 F9000.000
G1 E5.00000 F2400.00000
G1 F1200.000
G1 X86.087 Y76.087 E0.06901
G1 X88.265 Y76.087 E0.06827
G1 X87.680 Y76.347 E0.02007
G1 X87.064 Y76.795 E0.02386
G1 X86.555 Y77.360 E0.02386
G1 X86.174 Y78.019 E0.02386
G1 X86.106 Y78.231 E0.00698
G1 X86.521 Y78.174 F9000.000
G1 F1200.000
G1 X86.862 Y77.583 E0.02138
G1 X87.318 Y77.076 E0.02138
G1 X87.869 Y76.676 E0.02138
G1 X88.492 Y76.398 E0.02138
G1 X89.159 Y76.257 E0.02138
G1 X89.841 Y76.257 E0.02138
G1 X90.508 Y76.398 E0.02138
G1 X91.131 Y76.676 E0.02138
G1 X91.682 Y77.076 E0.02138
G1 X92.138 Y77.583 E0.02138
G1 X92.479 Y78.174 E0.02138
G1 X92.690 Y78.822 E0.02138
G1 X92.761 Y79.500 E0.02138
G1 X92.690 Y80.178 E0.02138
G1 X92.479 Y80.826 E0.02138
G1 X92.138 Y81.417 E0.02138
G1 X91.682 Y81.924 E0.02138
G1 X91.131 Y82.324 E0.02138
G1 X90.508 Y82.602 E0.02138
G1 X89.841 Y82.743 E0.02138
G1 X89.159 Y82.743 E0.02138
G1 X88.492 Y82.602 E0.02138
G1 X87.869 Y82.324 E0.02138
G1 X87.318 Y81.924 E0.02138
G1 X86.862 Y81.417 E0.02138
G1 X86.521 Y80.826 E0.02138
G1 X86.310 Y80.178 E0.02138
G1 X86.239 Y79.500 E0.02138
G1 X86.310 Y78.822 E0.02138
G1 X86.502 Y78.231 E0.01950
G1 X86.286 Y77.850 F9000.000
G1 E-3.50000 F3600.00000
G1 F7200.000
G1 X86.862 Y77.583 E-0.35177
G1 X87.318 Y77.076 E-0.32384
G1 X87.869 Y76.676 E-0.32384
G1 X88.492 Y76.398 E-0.32384
G1 X88.702 Y76.354 E-0.10172
G1 E-0.07500 F3600.00000
G1 X111.064 Y108.795 F9000.000
G1 E5.00000 F2400.00000
G1 F1200.000
G1 X111.680 Y108.347 E0.02386
G1 X112.375 Y108.038 E0.02386
G1 X113.119 Y107.880 E0.02386
G1 X113.881 Y107.880 E0.02386
G1 X114.625 Y108.038 E0.02386
G1 X115.320 Y108.347 E0.02386
G1 X115.936 Y108.795 E0.02386
G1 X116.445 Y109.360 E0.02386
G1 X116.826 Y110.019 E0.02386
G1 X117.061 Y110.743 E0.02386
G1 X117.140 Y111.500 E0.02386
G1 X117.061 Y112.257 E0.02386
G1 X116.826 Y112.981 E0.02386
G1 X116.445 Y113.640 E0.02386
G1 X115.936 Y114.205 E0.02386
G1 X115.320 Y114.653 E0.02386
G1 X114.625 Y114.962 E0.02386
G1 X113.881 Y115.120 E0.02386
G1 X113.119 Y115.120 E0.02386
G1 X112.375 Y114.962 E0.02386
G1 X111.680 Y114.653 E0.02386
G1 X111.064 Y114.205 E0.02386
G1 X110.555 Y113.640 E0.02386
G1 X110.174 Y112.981 E0.02386
G1 X109.939 Y112.257 E0.02386
G1 X109.860 Y111.500 E0.02386
G1 X109.939 Y110.743 E0.02386
G1 X110.174 Y110.019 E0.02386
G1 X110.555 Y109.360 E0.02386
G1 X111.024 Y108.839 E0.02198
G1 X111.304 Y109.092 F9000.000
G1 F1200.000
G1 X111.869 Y108.676 E0.02200
G1 X112.492 Y108.398 E0.02138
G1 X113.159 Y108.257 E0.02138
G1 X113.841 Y108.257 E0.02138
G1 X114.508 Y108.398 E0.02138
G1 X115.131 Y108.676 E0.02138
G1 X115.682 Y109.076 E0.02138
G1 X116.138 Y109.583 E0.02138
G1 X116.479 Y110.174 E0.02138
G1 X116.690 Y110.822 E0.02138
G1 X116.761 Y111.500 E0.02138
G1 X116.690 Y112.178 E0.02138
G1 X116.479 Y112.826 E0.02138
G1 X116.138 Y113.417 E0.02138
G1 X115.682 Y113.924 E0.02138
G1 X115.131 Y114.324 E0.02138
G1 X114.508 Y114.602 E0.02138
G1 X113.841 Y114.743 E0.02138
G1 X113.159 Y114.743 E0.02138
G1 X112.492 Y114.602 E0.02138
G1 X111.869 Y114.324 E0.02138
G1 X111.318 Y113.924 E0.02138
G1 X110.862 Y113.417 E0.02138
G1 X110.521 Y112.826 E0.02138
G1 X110.310 Y112.178 E0.02138
G1 X110.239 Y111.500 E0.02138
G1 X110.310 Y110.822 E0.02138
