; generated by PrusaSlicer 2.2.0+ on 2020-11-12 at 18:52:34 UTC

; 

; external perimeters extrusion width = 0.45mm
; perimeters extrusion width = 0.45mm
; infill extrusion width = 0.45mm
; solid infill extrusion width = 0.45mm
; top infill extrusion width = 0.40mm
; first layer extrusion width = 0.42mm

M201 X500 Y500 Z100 E5000 ; sets maximum accelerations, mm/sec^2
M203 X500 Y500 Z10 E60 ; sets maximum feedrates, mm/sec
M204 P500 R1000 T500 ; sets acceleration (P, T) and retract acceleration (R), mm/sec^2
M205 X8.00 Y8.00 Z0.40 E5.00 ; sets the jerk limits, mm/sec
M205 S0 T0 ; sets the minimum extruding and travel feed rate, mm/sec
M107
G90 ; use absolute coordinates
M83 ; extruder relative mode
M104 S200 ; set extruder temp
M140 S50 ; set bed temp
M190 S50 ; wait for bed temp
M109 S200 ; wait for extruder temp
G28 ; home all
G1 Z2 F240
G1 X2 Y10 F3000
G1 Z0.28 F240
G92 E0.0
G1 Y190 E15.0 F1500.0 ; intro line
G1 X2.3 F5000
G1 Y10 E30 F1200.0 ; intro line
G92 E0.0
G21 ; set units to millimeters
G90 ; use absolute coordinates
M83 ; use relative distances for extrusion
; Filament gcode
;BEFORE_LAYER_CHANGE
;0.2


G1 E-5.00000 F3600.00000
G1 Z0.200 F9000.000
;AFTER_LAYER_CHANGE
;0.2
G1 X116.705 Y89.305
G1 E5.00000 F2400.00000
G1 F1200.000
G1 X117.607 Y89.718 E0.03112
G1 X118.274 Y90.279 E0.02735
G1 X118.823 Y91.096 E0.03084
G1 X131.396 Y125.064 E1.13567
G1 X131.578 Y125.774 E0.02297
G1 X131.637 Y126.426 E0.02054
G1 X131.616 Y132.596 E0.19346
G1 X131.437 Y133.228 E0.02060
G1 X131.092 Y133.787 E0.02060
G1 X121.534 Y145.015 E0.46232
G1 X120.892 Y145.535 E0.02590
G1 X120.353 Y145.753 E0.01823
G1 X119.781 Y145.833 E0.01811
G1 X108.727 Y145.833 E0.34659
G1 X107.901 Y145.766 E0.02600
G1 X106.941 Y145.521 E0.03105
G1 X106.100 Y145.135 E0.02903
G1 X105.326 Y144.599 E0.02951
G1 X104.694 Y143.976 E0.02784
G1 X104.132 Y143.188 E0.03034
G1 X103.746 Y142.376 E0.02820
G1 X103.495 Y141.477 E0.02927
G1 X103.413 Y140.700 E0.02450
G1 X103.405 Y93.496 E1.48003
G1 X103.457 Y92.836 E0.02077
G1 X103.736 Y91.847 E0.03222
G1 X104.010 Y91.292 E0.01939
G1 X104.427 Y90.704 E0.02261
G1 X104.925 Y90.204 E0.02214
G1 X105.431 Y89.835 E0.01963
G1 X106.388 Y89.384 E0.03317
G1 X107.007 Y89.229 E0.01999
G1 X107.683 Y89.167 E0.02130
G1 X115.700 Y89.167 E0.25137
G1 X116.645 Y89.296 E0.02990
G1 E-3.50000 F3600.00000
G1 F7200.000
G1 X117.607 Y89.718 E-0.49874
G1 X118.274 Y90.279 E-0.41438
G1 X118.823 Y91.096 E-0.46721
G1 X118.856 Y91.184 E-0.04467
G1 E-0.07500 F3600.00000
G1 X122.389 Y125.204 F9000.000
G1 E5.00000 F2400.00000
G1 F1200.000
G1 X122.818 Y125.101 E0.01382
G1 X123.138 Y125.073 E0.01009
G1 X123.520 Y125.106 E0.01201
G1 X123.890 Y125.205 E0.01201
G1 X124.237 Y125.367 E0.01201
G1 X124.551 Y125.587 E0.01201
G1 X124.821 Y125.858 E0.01201
G1 X125.041 Y126.171 E0.01201
G1 X125.203 Y126.519 E0.01201
G1 X125.302 Y126.888 E0.01201
G1 X125.335 Y127.270 E0.01201
G1 X125.302 Y127.652 E0.01201
G1 X125.202 Y128.024 E0.01209
G1 X125.006 Y128.419 E0.01382
G1 X124.821 Y128.682 E0.01009
G1 X124.551 Y128.953 E0.01201
G1 X124.237 Y129.173 E0.01201
G1 X123.890 Y129.335 E0.01201
G1 X123.520 Y129.434 E0.01201
G1 X123.138 Y129.467 E0.01201
G1 X122.757 Y129.434 E0.01201
G1 X122.387 Y129.335 E0.01201
G1 X122.040 Y129.173 E0.01201
G1 X121.724 Y128.952 E0.01209
G1 X121.420 Y128.632 E0.01382
G1 X121.236 Y128.369 E0.01009
G1 X121.074 Y128.021 E0.01201
G1 X120.975 Y127.652 E0.01201
G1 X120.941 Y127.267 E0.01209
G1 X120.991 Y126.829 E0.01382
G1 X121.074 Y126.519 E0.01009
G1 X121.236 Y126.171 E0.01201
G1 X121.455 Y125.858 E0.01201
G1 X121.726 Y125.587 E0.01201
G1 X122.040 Y125.367 E0.01201
G1 X122.335 Y125.230 E0.01021
G1 X122.465 Y124.812 F9000.000
G1 E-3.50000 F3600.00000
G1 F7200.000
G1 X122.818 Y125.101 E-0.23736
G1 X123.138 Y125.073 E-0.15285
G1 X123.520 Y125.106 E-0.18191
G1 X123.890 Y125.205 E-0.18191
G1 X124.237 Y125.367 E-0.18191
G1 X124.551 Y125.587 E-0.18191
G1 X124.821 Y125.858 E-0.18191
G1 X124.973 Y126.074 E-0.12523
G1 E-0.07500 F3600.00000
G1 X118.833 Y127.978 F9000.000
G1 E5.00000 F2400.00000
G1 F1200.000
G1 X119.045 Y128.325 E0.01274
G1 X119.201 Y128.700 E0.01274
G1 X119.295 Y129.095 E0.01274
G1 X119.325 Y129.477 E0.01201
G1 X119.325 Y132.523 E0.09551
G1 X119.295 Y132.905 E0.01201
G1 X119.201 Y133.300 E0.01274
G1 X119.045 Y133.675 E0.01274
G1 X118.833 Y134.022 E0.01274
G1 X118.569 Y134.331 E0.01274
G1 X118.260 Y134.594 E0.01274
G1 X117.914 Y134.807 E0.01274
G1 X117.538 Y134.962 E0.01274
G1 X117.143 Y135.057 E0.01274
G1 X116.761 Y135.087 E0.01201
G1 X112.715 Y135.087 E0.12686
G1 X112.333 Y135.057 E0.01201
G1 X111.938 Y134.962 E0.01274
G1 X111.563 Y134.807 E0.01274
G1 X111.217 Y134.594 E0.01274
G1 X110.908 Y134.331 E0.01274
G1 X110.644 Y134.022 E0.01274
G1 X110.432 Y133.675 E0.01274
G1 X110.276 Y133.300 E0.01274
G1 X110.181 Y132.905 E0.01274
G1 X110.151 Y132.523 E0.01201
G1 X110.151 Y129.477 E0.09551
G1 X110.181 Y129.095 E0.01201
G1 X110.276 Y128.700 E0.01274
G1 X110.432 Y128.325 E0.01274
G1 X110.644 Y127.978 E0.01274
G1 X110.908 Y127.669 E0.01274
G1 X111.217 Y127.406 E0.01274
G1 X111.563 Y127.193 E0.01274
G1 X111.938 Y127.038 E0.01274
G1 X112.333 Y126.943 E0.01274
G1 X112.715 Y126.913 E0.01201
G1 X116.761 Y126.913 E0.12686
G1 X117.143 Y126.943 E0.01201
G1 X117.538 Y127.038 E0.01274
G1 X117.914 Y127.193 E0.01274
G1 X118.260 Y127.406 E0.01274
G1 X118.569 Y127.669 E0.01274
G1 X118.794 Y127.933 E0.01086
G1 X118.507 Y128.178 F9000.000
G1 F1200.000
G1 X118.708 Y128.496 E0.01182
G1 X118.841 Y128.817 E0.01088
G1 X118.922 Y129.154 E0.01088
G1 X118.948 Y129.492 E0.01062
G1 X118.948 Y132.508 E0.09458
G1 X118.922 Y132.846 E0.01062
G1 X118.841 Y133.183 E0.01088
G1 X118.708 Y133.504 E0.01088
G1 X118.527 Y133.799 E0.01088
G1 X118.302 Y134.063 E0.01088
G1 X118.038 Y134.288 E0.01088
G1 X117.742 Y134.470 E0.01088
G1 X117.422 Y134.602 E0.01088
G1 X117.084 Y134.683 E0.01088
G1 X116.747 Y134.710 E0.01062
G1 X112.730 Y134.710 E0.12593
G1 X112.393 Y134.683 E0.01062
G1 X112.055 Y134.602 E0.01088
G1 X111.735 Y134.470 E0.01088
G1 X111.439 Y134.288 E0.01088
G1 X111.175 Y134.063 E0.01088
G1 X110.950 Y133.799 E0.01088
G1 X110.769 Y133.504 E0.01088
G1 X110.636 Y133.183 E0.01088
G1 X110.555 Y132.846 E0.01088
G1 X110.528 Y132.508 E0.01062
G1 X110.528 Y129.492 E0.09458
G1 X110.555 Y129.154 E0.01062
G1 X110.636 Y128.817 E0.01088
G1 X110.769 Y128.496 E0.01088
G1 X110.950 Y128.201 E0.01088
G1 X111.175 Y127.937 E0.01088
G1 X111.439 Y127.712 E0.01088
G1 X111.735 Y127.530 E0.01088
G1 X112.055 Y127.398 E0.01088
G1 X112.393 Y127.317 E0.01088
G1 X112.730 Y127.290 E0.01062
G1 X116.747 Y127.290 E0.12593
G1 X117.084 Y127.317 E0.01062
G1 X117.422 Y127.398 E0.01088
G1 X117.742 Y127.530 E0.01088
G1 X118.038 Y127.712 E0.01088
G1 X118.302 Y127.937 E0.01088
G1 X118.468 Y128.132 E0.00804
G1 X118.882 Y128.135 F9000.000
G1 E-3.50000 F3600.00000
G1 F7200.000
G1 X118.708 Y128.496 E-0.20726
G1 X118.841 Y128.817 E-0.16477
G1 X118.922 Y129.154 E-0.16477
G1 X118.948 Y129.492 E-0.16084
G1 X118.948 Y131.023 E-0.72735
G1 E-0.07500 F3600.00000
G1 X115.529 Y94.662 F9000.000
G1 E5.00000 F2400.00000
G1 F1200.000
G1 X114.797 Y94.457 E0.02383
G1 X114.571 Y94.308 E0.00847
G1 X114.476 Y94.202 E0.00448
G1 X114.344 Y93.950 E0.00893
G1 X114.306 Y93.667 E0.00893
G1 X114.323 Y93.526 E0.00448
G1 X114.427 Y93.261 E0.00893
G1 X114.614 Y93.046 E0.00893
G1 X114.867 Y92.905 E0.00907
G1 X115.301 Y92.785 E0.01413
G1 X115.479 Y92.423 E0.01266
G1 X115.578 Y92.341 E0.00403
G1 X115.734 Y92.296 E0.00510
G1 X115.859 Y92.316 E0.00395
G1 X115.948 Y92.380 E0.00345
G1 X115.944 Y110.710 E0.57474
G1 X111.151 Y110.710 E0.15027
G1 X111.151 Y122.523 E0.37039
G1 X111.181 Y122.905 E0.01201
G1 X111.276 Y123.300 E0.01274
G1 X111.432 Y123.675 E0.01274
G1 X111.644 Y124.022 E0.01274
G1 X111.908 Y124.331 E0.01274
G1 X112.217 Y124.594 E0.01274
G1 X112.563 Y124.807 E0.01274
G1 X112.938 Y124.962 E0.01274
G1 X113.333 Y125.057 E0.01274
G1 X113.715 Y125.087 E0.01201
G1 X121.783 Y125.087 E0.25294
G1 X121.483 Y125.297 E0.01147
G1 X121.165 Y125.614 E0.01408
G1 X120.908 Y125.982 E0.01408
G1 X120.718 Y126.389 E0.01408
G1 X120.619 Y126.759 E0.01201
G1 X120.562 Y127.263 E0.01589
G1 X120.602 Y127.717 E0.01431
G1 X120.718 Y128.151 E0.01408
G1 X120.908 Y128.558 E0.01408
G1 X121.128 Y128.872 E0.01201
G1 X121.477 Y129.239 E0.01589
G1 X121.851 Y129.501 E0.01431
G1 X122.257 Y129.690 E0.01408
G1 X122.691 Y129.806 E0.01408
G1 X123.138 Y129.846 E0.01408
G1 X123.586 Y129.806 E0.01408
G1 X124.019 Y129.690 E0.01408
G1 X124.426 Y129.501 E0.01408
G1 X124.794 Y129.243 E0.01408
G1 X125.111 Y128.926 E0.01408
G1 X125.331 Y128.612 E0.01201
G1 X125.557 Y128.158 E0.01589
G1 X125.675 Y127.717 E0.01431
G1 X125.714 Y127.270 E0.01408
G1 X125.675 Y126.823 E0.01408
G1 X125.559 Y126.389 E0.01408
G1 X125.369 Y125.982 E0.01408
G1 X125.111 Y125.614 E0.01408
G1 X124.794 Y125.297 E0.01408
G1 X124.494 Y125.087 E0.01147
G1 X127.239 Y125.087 E0.08605
G1 X127.482 Y125.106 E0.00767
G1 X127.698 Y125.158 E0.00694
G1 X127.902 Y125.243 E0.00694
G1 X128.091 Y125.358 E0.00694
G1 X128.259 Y125.502 E0.00694
G1 X128.403 Y125.671 E0.00694
G1 X128.519 Y125.859 E0.00694
G1 X128.604 Y126.064 E0.00694
G1 X128.655 Y126.279 E0.00694
G1 X128.675 Y126.523 E0.00767
G1 X128.675 Y131.683 E0.16178
G1 X120.151 Y131.683 E0.26724
G1 X120.151 Y136.683 E0.15677
G1 X108.151 Y136.683 E0.37625
G1 X108.151 Y141.087 E0.13809
G1 X119.151 Y141.087 E0.34490
G1 X119.151 Y142.710 E0.05089
G1 X108.764 Y142.710 E0.32569
G1 X108.355 Y142.674 E0.01287
G1 X107.983 Y142.575 E0.01207
G1 X107.634 Y142.412 E0.01207
G1 X107.319 Y142.191 E0.01207
G1 X107.047 Y141.919 E0.01207
G1 X106.826 Y141.604 E0.01207
G1 X106.664 Y141.255 E0.01207
G1 X106.564 Y140.883 E0.01207
G1 X106.528 Y140.474 E0.01287
G1 X106.526 Y93.526 E1.47204
G1 X106.547 Y93.290 E0.00742
G1 X106.602 Y93.086 E0.00661
G1 X106.691 Y92.895 E0.00661
G1 X106.812 Y92.722 E0.00661
G1 X106.961 Y92.573 E0.00661
G1 X107.133 Y92.452 E0.00661
G1 X107.325 Y92.363 E0.00661
G1 X107.528 Y92.309 E0.00661
G1 X107.764 Y92.288 E0.00741
G1 X109.715 Y92.290 E0.06118
G1 X109.927 Y92.307 E0.00668
G1 X110.112 Y92.351 E0.00594
G1 X110.287 Y92.423 E0.00594
G1 X110.449 Y92.523 E0.00594
G1 X110.593 Y92.646 E0.00594
G1 X110.716 Y92.790 E0.00594
G1 X110.815 Y92.951 E0.00594
G1 X110.888 Y93.127 E0.00594
G1 X110.932 Y93.311 E0.00594
G1 X110.948 Y93.523 E0.00667
G1 X110.948 Y109.051 E0.48688
G1 X111.013 Y109.418 E0.01169
G1 X111.125 Y109.659 E0.00831
G1 X111.309 Y109.897 E0.00943
G1 X111.574 Y110.111 E0.01068
G1 X111.820 Y110.225 E0.00851
G1 X112.189 Y110.290 E0.01173
G1 X114.465 Y110.279 E0.07139
G1 X114.888 Y110.125 E0.01410
G1 X115.224 Y109.843 E0.01376
G1 X115.399 Y109.567 E0.01025
G1 X115.518 Y109.220 E0.01149
G1 X115.529 Y94.722 E0.45457
G1 X115.152 Y94.948 F9000.000
G1 F1200.000
G1 X114.655 Y94.809 E0.01617
G1 X114.477 Y94.713 E0.00634
G1 X114.314 Y94.585 E0.00651
G1 X114.174 Y94.431 E0.00651
G1 X114.063 Y94.256 E0.00651
G1 X113.984 Y94.064 E0.00651
G1 X113.938 Y93.862 E0.00651
G1 X113.927 Y93.655 E0.00651
G1 X113.952 Y93.449 E0.00651
G1 X114.012 Y93.250 E0.00651
G1 X114.104 Y93.064 E0.00651
G1 X114.227 Y92.897 E0.00651
G1 X114.376 Y92.753 E0.00651
G1 X114.548 Y92.636 E0.00651
G1 X114.738 Y92.550 E0.00656
G1 X115.035 Y92.468 E0.00966
G1 X115.142 Y92.243 E0.00779
G1 X115.203 Y92.161 E0.00323
G1 X115.386 Y92.010 E0.00742
G1 X115.604 Y91.928 E0.00729
G1 X115.747 Y91.917 E0.00449
G1 X115.946 Y91.946 E0.00633
G1 X116.039 Y91.982 E0.00311
G1 X116.236 Y92.121 E0.00757
G1 X116.310 Y92.214 E0.00373
G1 X116.326 Y92.280 E0.00211
G1 X116.321 Y111.015 E0.58742
G1 X116.292 Y111.064 E0.00180
G1 X116.220 Y111.087 E0.00238
G1 X111.528 Y111.087 E0.14710
G1 X111.528 Y122.508 E0.35810
G1 X111.555 Y122.846 E0.01062
G1 X111.636 Y123.183 E0.01088
G1 X111.769 Y123.504 E0.01088
G1 X111.950 Y123.799 E0.01088
G1 X112.175 Y124.063 E0.01088
G1 X112.439 Y124.288 E0.01088
G1 X112.735 Y124.470 E0.01088
G1 X113.055 Y124.602 E0.01088
G1 X113.393 Y124.683 E0.01088
G1 X113.730 Y124.710 E0.01062
G1 X127.253 Y124.710 E0.42401
G1 X127.542 Y124.733 E0.00906
G1 X127.815 Y124.798 E0.00880
G1 X128.074 Y124.906 E0.00880
G1 X128.313 Y125.052 E0.00880
G1 X128.527 Y125.235 E0.00880
G1 X128.709 Y125.448 E0.00880
G1 X128.856 Y125.688 E0.00880
G1 X128.963 Y125.947 E0.00880
G1 X129.029 Y126.220 E0.00880
G1 X129.052 Y126.508 E0.00906
G1 X129.052 Y132.060 E0.17407
G1 X120.528 Y132.060 E0.26724
G1 X120.528 Y137.060 E0.15677
G1 X108.528 Y137.060 E0.37625
G1 X108.528 Y140.710 E0.11444
G1 X119.528 Y140.710 E0.34490
G1 X119.528 Y143.087 E0.07453
G1 X108.748 Y143.087 E0.33803
G1 X108.289 Y143.047 E0.01442
G1 X107.854 Y142.930 E0.01414
G1 X107.445 Y142.740 E0.01414
G1 X107.076 Y142.481 E0.01414
G1 X106.757 Y142.162 E0.01414
G1 X106.499 Y141.793 E0.01414
G1 X106.308 Y141.385 E0.01414
G1 X106.191 Y140.949 E0.01414
G1 X106.151 Y140.491 E0.01442
G1 X106.149 Y93.509 E1.47308
G1 X106.174 Y93.224 E0.00897
G1 X106.246 Y92.957 E0.00868
G1 X106.363 Y92.706 E0.00868
G1 X106.522 Y92.479 E0.00868
G1 X106.717 Y92.283 E0.00868
G1 X106.944 Y92.124 E0.00868
G1 X107.195 Y92.007 E0.00868
G1 X107.463 Y91.936 E0.00868
G1 X107.747 Y91.911 E0.00897
G1 X109.730 Y91.913 E0.06216
G1 X109.987 Y91.933 E0.00807
G1 X110.229 Y91.991 E0.00781
G1 X110.459 Y92.086 E0.00781
G1 X110.671 Y92.216 E0.00781
G1 X110.860 Y92.378 E0.00781
G1 X111.022 Y92.567 E0.00781
G1 X111.152 Y92.780 E0.00781
G1 X111.247 Y93.010 E0.00781
G1 X111.305 Y93.252 E0.00781
G1 X111.326 Y93.508 E0.00807
G1 X111.326 Y109.018 E0.48631
G1 X111.376 Y109.304 E0.00910
G1 X111.449 Y109.461 E0.00544
G1 X111.580 Y109.631 E0.00672
G1 X111.775 Y109.788 E0.00785
G1 X111.934 Y109.862 E0.00551
G1 X112.221 Y109.913 E0.00911
G1 X114.398 Y109.902 E0.06827
G1 X114.696 Y109.793 E0.00996
G1 X114.937 Y109.592 E0.00984
G1 X115.057 Y109.403 E0.00702
G1 X115.141 Y109.157 E0.00814
G1 X115.152 Y95.008 E0.44364
G1 X115.225 Y94.555 F9000.000
G1 X115.835 Y93.891
G1 F1200.000
G1 X115.083 Y93.139 E0.03390
G1 X114.975 Y93.169 E0.00356
G1 X114.795 Y93.269 E0.00657
G1 X114.737 Y93.336 E0.00280
G1 X115.665 Y94.263 E0.04182
G1 X115.665 Y94.406 E0.00456
G1 X115.111 Y94.251 E0.01834
G1 X114.431 Y93.571 E0.03065
G1 X115.542 Y92.895 F9000.000
G1 F1200.000
G1 X115.736 Y92.487 E0.00566
G1 E-3.50000 F3600.00000
G1 F7200.000
G1 X115.542 Y92.895 E-0.21477
G1 E-1.28523 F3600.00000
G1 X110.803 Y93.257 F9000.000
G1 E5.00000 F2400.00000
G1 F1200.000
G1 X110.387 Y92.842 E0.01852
G1 X110.158 Y92.676 E0.00891
G1 X109.883 Y92.587 E0.00912
G1 X109.582 Y92.573 E0.00952
G1 X110.666 Y93.657 E0.04834
G1 X110.666 Y94.193 E0.01691
G1 X109.045 Y92.572 E0.07228
G1 X108.508 Y92.571 E0.01692
G1 X110.666 Y94.729 E0.09621
G1 X110.666 Y95.265 E0.01691
G1 X107.971 Y92.571 E0.12015
G1 X107.578 Y92.588 E0.01242
G1 X107.479 Y92.615 E0.00323
G1 X110.666 Y95.802 E0.14211
G1 X110.666 Y96.338 E0.01691
G1 X107.131 Y92.803 E0.15762
G1 X107.029 Y92.905 E0.00454
G1 X106.902 Y93.111 E0.00762
G1 X110.666 Y96.874 E0.16781
G1 X110.666 Y97.410 E0.01691
G1 X106.809 Y93.554 E0.17196
G1 X106.809 Y94.090 E0.01691
G1 X110.666 Y97.947 E0.17196
G1 X110.666 Y98.483 E0.01691
G1 X106.809 Y94.626 E0.17196
G1 X106.809 Y95.163 E0.01691
G1 X110.666 Y99.019 E0.17196
G1 X110.666 Y99.555 E0.01691
G1 X106.809 Y95.699 E0.17196
G1 X106.809 Y96.235 E0.01691
G1 X110.666 Y100.092 E0.17196
G1 X110.666 Y100.628 E0.01691
G1 X106.809 Y96.771 E0.17196
G1 X106.809 Y97.308 E0.01691
G1 X110.666 Y101.164 E0.17195
G1 X110.666 Y101.700 E0.01691
G1 X106.809 Y97.844 E0.17195
G1 X106.809 Y98.380 E0.01691
G1 X110.666 Y102.237 E0.17195
G1 X110.666 Y102.773 E0.01691
G1 X106.809 Y98.917 E0.17195
G1 X106.809 Y99.453 E0.01691
G1 X110.666 Y103.309 E0.17195
G1 X110.666 Y103.845 E0.01691
G1 X106.809 Y99.989 E0.17195
G1 X106.809 Y100.525 E0.01691
G1 X110.666 Y104.382 E0.17195
G1 X110.666 Y104.918 E0.01691
G1 X106.809 Y101.062 E0.17195
G1 X106.809 Y101.598 E0.01691
G1 X110.666 Y105.454 E0.17195
G1 X110.666 Y105.990 E0.01691
G1 X106.809 Y102.134 E0.17194
G1 X106.809 Y102.670 E0.01691
G1 X110.666 Y106.527 E0.17194
G1 X110.666 Y107.063 E0.01691
G1 X106.810 Y103.207 E0.17194
G1 X106.810 Y103.743 E0.01691
G1 X110.666 Y107.599 E0.17194
