; generated by PrusaSlicer 2.2.0+ on 2020-11-19 at 16:28:04 UTC

; 

; external perimeters extrusion width = 0.45mm
; perimeters extrusion width = 0.45mm
; infill extrusion width = 0.45mm
; solid infill extrusion width = 0.45mm
; top infill extrusion width = 0.40mm
; first layer extrusion width = 0.42mm

M201 X500 Y500 Z100 E5000 ; sets maximum accelerations, mm/sec^2
M203 X500 Y500 Z10 E60 ; sets maximum feedrates, mm/sec
M204 P500 R1000 T500 ; sets acceleration (P, T) and retract acceleration (R), mm/sec^2
M205 X8.00 Y8.00 Z0.40 E5.00 ; sets the jerk limits, mm/sec
M205 S0 T0 ; sets the minimum extruding and travel feed rate, mm/sec
M107
G90 ; use absolute coordinates
M83 ; extruder relative mode
M104 S255 ; set extruder temp
M140 S105 ; set bed temp
M190 S105 ; wait for bed temp
M109 S255 ; wait for extruder temp
G28 ; home all
G1 Z2 F240
G1 X2 Y10 F3000
G1 Z0.28 F240
G92 E0.0
G1 Y190 E15.0 F1500.0 ; intro line
G1 X2.3 F5000
G1 Y10 E30 F1200.0 ; intro line
G92 E0.0
G21 ; set units to millimeters
G90 ; use absolute coordinates
M83 ; use relative distances for extrusion
; Filament gcode
;BEFORE_LAYER_CHANGE
;0.2


G1 E-5.00000 F3600.00000
G1 Z0.200 F9000.000
;AFTER_LAYER_CHANGE
;0.2
G1 X88.507 Y41.311
G1 E5.00000 F2400.00000
G1 F1200.000
G1 X89.319 Y41.061 E0.02663
G1 X144.978 Y41.032 E1.74517
G1 X145.627 Y41.053 E0.02033
G1 X146.185 Y41.183 E0.01796
G1 X146.721 Y41.436 E0.01860
G1 X147.192 Y41.798 E0.01860
G1 X155.052 Y49.663 E0.34864
G1 X155.546 Y50.451 E0.02917
G1 X155.751 Y51.358 E0.02917
G1 X152.954 Y191.560 E4.39680
G1 X152.757 Y192.523 E0.03082
G1 X152.355 Y193.215 E0.02511
G1 X151.770 Y193.763 E0.02511
G1 X151.053 Y194.119 E0.02511
G1 X150.260 Y194.254 E0.02523
G1 X84.792 Y194.254 E2.05270
G1 X83.776 Y194.057 E0.03246
G1 X83.087 Y193.656 E0.02498
G1 X82.544 Y193.079 E0.02485
G1 X82.186 Y192.367 E0.02498
G1 X82.047 Y191.583 E0.02498
G1 X79.246 Y53.552 E4.32875
G1 X79.251 Y51.324 E0.06986
G1 X79.443 Y50.476 E0.02727
G1 X79.688 Y50.003 E0.01669
G1 X80.016 Y49.589 E0.01656
G1 X87.813 Y41.793 E0.34571
G1 X88.458 Y41.345 E0.02462
G1 E-3.50000 F3600.00000
G1 F7200.000
G1 X89.319 Y41.061 E-0.43070
G1 X91.412 Y41.060 E-0.99430
G1 E-0.07500 F3600.00000
G1 X79.794 Y50.615 F9000.000
G1 E5.00000 F2400.00000
G1 F1200.000
G1 X80.292 Y49.847 E0.02872
G1 X88.071 Y42.068 E0.34492
G1 X88.675 Y41.648 E0.02308
G1 X89.383 Y41.433 E0.02319
G1 X144.978 Y41.409 E1.74317
G1 X145.564 Y41.426 E0.01838
G1 X146.050 Y41.535 E0.01562
G1 X146.522 Y41.756 E0.01633
G1 X146.932 Y42.071 E0.01621
G1 X154.762 Y49.905 E0.34728
G1 X155.196 Y50.590 E0.02543
G1 X155.374 Y51.381 E0.02543
G1 X152.577 Y191.552 E4.39583
G1 X152.407 Y192.384 E0.02661
G1 X152.057 Y192.984 E0.02178
G1 X151.549 Y193.457 E0.02178
G1 X150.926 Y193.764 E0.02178
G1 X150.244 Y193.877 E0.02166
G1 X84.792 Y193.877 E2.05220
G1 X83.915 Y193.706 E0.02802
G1 X83.321 Y193.361 E0.02154
G1 X82.851 Y192.861 E0.02154
G1 X82.543 Y192.246 E0.02154
G1 X82.424 Y191.570 E0.02154
G1 X79.623 Y53.544 E4.32857
G1 X79.627 Y51.363 E0.06840
G1 X79.781 Y50.674 E0.02214
G1 E-3.50000 F3600.00000
G1 F7200.000
G1 X80.292 Y49.847 E-0.46193
G1 X81.726 Y48.413 E-0.96307
G1 E-0.07500 F3600.00000
G1 X65.003 Y63.505 F9000.000
G1 E5.00000 F2400.00000
G1 F1200.000
G1 X63.681 Y61.081 E0.08657
G1 X62.313 Y55.882 E0.16855
G1 X62.226 Y50.174 E0.17900
G1 X63.439 Y44.595 E0.17900
G1 X67.073 Y38.430 E0.22440
G1 X76.237 Y29.266 E0.40633
G1 X80.314 Y26.499 E0.15449
G1 X84.932 Y24.748 E0.15485
G1 X85.397 Y24.690 E0.01469
G1 X149.774 Y24.698 E2.01852
G1 X154.156 Y26.233 E0.14557
G1 X157.933 Y28.593 E0.13963
G1 X167.825 Y38.326 E0.43513
G1 X171.275 Y43.880 E0.20500
G1 X172.797 Y50.224 E0.20454
G1 X172.777 Y55.054 E0.15147
G1 X171.806 Y59.798 E0.15182
G1 X169.997 Y63.443 E0.12757
G1 X169.997 Y192.823 E4.05663
G1 X168.627 Y198.827 E0.19309
G1 X165.910 Y203.592 E0.17198
G1 X161.993 Y207.430 E0.17192
G1 X157.224 Y210.045 E0.17055
G1 X151.907 Y211.257 E0.17098
G1 X83.478 Y211.297 E2.14555
G1 X77.473 Y209.927 E0.19311
G1 X72.622 Y207.142 E0.17539
G1 X68.771 Y203.158 E0.17371
G1 X66.157 Y198.261 E0.17405
G1 X65.003 Y192.837 E0.17390
G1 X65.003 Y63.565 E4.05322
G1 X65.380 Y63.408 F9000.000
G1 F1200.000
G1 X64.040 Y60.962 E0.08746
G1 X62.689 Y55.853 E0.16569
G1 X62.599 Y50.233 E0.17625
G1 X63.801 Y44.705 E0.17737
G1 X67.357 Y38.680 E0.21936
G1 X76.491 Y29.546 E0.40502
G1 X80.507 Y26.824 E0.15212
G1 X85.002 Y25.119 E0.15072
G1 X85.409 Y25.067 E0.01287
G1 X149.742 Y25.076 E2.01712
G1 X154.011 Y26.582 E0.14193
G1 X157.715 Y28.901 E0.13705
G1 X167.545 Y38.579 E0.43250
G1 X170.915 Y43.998 E0.20009
G1 X172.420 Y50.245 E0.20146
G1 X172.400 Y55.034 E0.15017
G1 X171.441 Y59.698 E0.14929
G1 X169.620 Y63.354 E0.12806
G1 X169.620 Y192.802 E4.05875
G1 X168.266 Y198.716 E0.19022
G1 X165.595 Y203.382 E0.16856
G1 X161.748 Y207.142 E0.16867
G1 X157.066 Y209.702 E0.16732
G1 X151.844 Y210.884 E0.16787
G1 X83.499 Y210.920 E2.14293
G1 X77.636 Y209.586 E0.18852
G1 X72.874 Y206.861 E0.17204
G1 X69.091 Y202.957 E0.17043
G1 X66.520 Y198.157 E0.17074
G1 X65.380 Y192.817 E0.17120
G1 X65.380 Y63.468 E4.05563
G1 X65.758 Y63.311 F9000.000
G1 F1200.000
G1 X64.399 Y60.843 E0.08835
G1 X63.066 Y55.824 E0.16281
G1 X62.977 Y50.249 E0.17484
G1 X64.163 Y44.815 E0.17438
G1 X67.640 Y38.930 E0.21434
G1 X76.745 Y29.825 E0.40372
G1 X80.662 Y27.168 E0.14840
G1 X85.073 Y25.490 E0.14798
G1 X85.421 Y25.444 E0.01102
G1 X149.709 Y25.453 E2.01570
G1 X153.865 Y26.930 E0.13827
G1 X157.497 Y29.210 E0.13447
G1 X167.264 Y38.832 E0.42988
G1 X170.579 Y44.171 E0.19705
G1 X172.043 Y50.266 E0.19654
G1 X172.027 Y54.977 E0.14770
G1 X171.077 Y59.598 E0.14792
G1 X169.242 Y63.264 E0.12855
G1 X169.242 Y192.780 E4.06088
G1 X167.905 Y198.604 E0.18735
G1 X165.282 Y203.171 E0.16513
G1 X161.504 Y206.853 E0.16542
G1 X156.909 Y209.358 E0.16408
G1 X151.782 Y210.512 E0.16477
G1 X83.520 Y210.543 E2.14031
G1 X77.747 Y209.225 E0.18565
G1 X73.085 Y206.547 E0.16858
G1 X69.381 Y202.714 E0.16712
G1 X66.866 Y198.003 E0.16746
G1 X65.758 Y192.797 E0.16687
G1 X65.758 Y63.371 E4.05806
G1 X66.135 Y63.213 F9000.000
G1 F1200.000
G1 X64.757 Y60.723 E0.08924
G1 X63.443 Y55.794 E0.15993
G1 X63.350 Y50.307 E0.17206
G1 X64.525 Y44.925 E0.17275
G1 X67.924 Y39.179 E0.20930
G1 X76.999 Y30.104 E0.40242
G1 X80.817 Y27.513 E0.14468
G1 X85.146 Y25.861 E0.14527
G1 X85.435 Y25.821 E0.00914
G1 X149.677 Y25.830 E2.01427
G1 X153.718 Y27.278 E0.13460
G1 X157.279 Y29.518 E0.13192
G1 X166.984 Y39.085 E0.42727
G1 X170.219 Y44.289 E0.19215
G1 X171.666 Y50.288 E0.19347
G1 X171.650 Y54.956 E0.14639
G1 X170.713 Y59.497 E0.14537
G1 X168.865 Y63.175 E0.12904
G1 X168.865 Y192.759 E4.06302
G1 X167.564 Y198.441 E0.18276
G1 X164.999 Y202.920 E0.16182
G1 X161.300 Y206.535 E0.16217
G1 X156.752 Y209.014 E0.16243
G1 X151.720 Y210.139 E0.16166
G1 X83.541 Y210.165 E2.13771
G1 X77.859 Y208.864 E0.18277
G1 X73.296 Y206.234 E0.16513
G1 X69.671 Y202.471 E0.16383
G1 X67.229 Y197.898 E0.16256
G1 X66.135 Y192.777 E0.16418
G1 X66.135 Y63.273 E4.06049
G1 X66.512 Y63.116 F9000.000
G1 F1200.000
G1 X65.115 Y60.603 E0.09014
G1 X63.819 Y55.765 E0.15704
G1 X63.727 Y50.323 E0.17064
G1 X64.887 Y45.035 E0.16974
G1 X68.207 Y39.429 E0.20428
G1 X77.253 Y30.383 E0.40111
G1 X81.010 Y27.837 E0.14232
G1 X85.220 Y26.231 E0.14127
G1 X85.448 Y26.198 E0.00723
G1 X149.644 Y26.207 E2.01280
G1 X153.570 Y27.625 E0.13091
G1 X157.061 Y29.826 E0.12937
G1 X166.703 Y39.337 E0.42466
G1 X169.883 Y44.462 E0.18911
G1 X171.288 Y50.309 E0.18855
G1 X171.276 Y54.899 E0.14391
G1 X170.348 Y59.397 E0.14399
G1 X168.488 Y63.085 E0.12952
G1 X168.488 Y192.738 E4.06517
G1 X167.202 Y198.329 E0.17988
G1 X164.686 Y202.709 E0.15839
G1 X161.056 Y206.247 E0.15891
G1 X156.595 Y208.670 E0.15918
G1 X151.659 Y209.767 E0.15855
G1 X83.562 Y209.788 E2.13511
G1 X77.971 Y208.502 E0.17989
G1 X73.549 Y205.953 E0.16005
G1 X69.990 Y202.270 E0.16057
G1 X67.592 Y197.793 E0.15926
G1 X66.512 Y192.757 E0.16148
G1 X66.512 Y63.176 E4.06294
G1 X66.889 Y63.017 F9000.000
G1 F1200.000
G1 X65.473 Y60.482 E0.09104
G1 X64.196 Y55.735 E0.15414
G1 X64.100 Y50.382 E0.16785
G1 X65.248 Y45.145 E0.16810
G1 X68.490 Y39.679 E0.19926
G1 X77.507 Y30.663 E0.39981
G1 X81.166 Y28.181 E0.13861
G1 X85.297 Y26.600 E0.13869
G1 X85.463 Y26.575 E0.00527
G1 X149.610 Y26.584 E2.01129
G1 X153.422 Y27.972 E0.12720
G1 X156.842 Y30.134 E0.12685
G1 X166.422 Y39.590 E0.42206
G1 X169.524 Y44.580 E0.18421
G1 X170.911 Y50.331 E0.18549
G1 X170.899 Y54.879 E0.14260
G1 X169.984 Y59.295 E0.14142
G1 X168.111 Y62.995 E0.13002
G1 X168.111 Y192.716 E4.06732
G1 X166.841 Y198.217 E0.17700
G1 X164.372 Y202.498 E0.15496
G1 X160.812 Y205.958 E0.15566
G1 X156.439 Y208.326 E0.15592
G1 X151.598 Y209.394 E0.15545
G1 X83.584 Y209.411 E2.13252
G1 X78.084 Y208.141 E0.17699
G1 X73.761 Y205.640 E0.15659
G1 X70.280 Y202.027 E0.15729
G1 X67.937 Y197.639 E0.15600
G1 X66.889 Y192.737 E0.15715
G1 X66.889 Y63.077 E4.06540
G1 X67.266 Y62.918 F9000.000
G1 F1200.000
G1 X65.831 Y60.361 E0.09195
G1 X64.573 Y55.705 E0.15123
G1 X64.478 Y50.398 E0.16642
G1 X65.610 Y45.256 E0.16508
G1 X68.774 Y39.929 E0.19425
G1 X77.761 Y30.942 E0.39851
G1 X81.359 Y28.506 E0.13624
G1 X85.377 Y26.969 E0.13488
G1 X85.479 Y26.953 E0.00325
G1 X149.577 Y26.961 E2.00973
G1 X153.273 Y28.319 E0.12347
G1 X156.623 Y30.441 E0.12434
G1 X166.141 Y39.843 E0.41947
G1 X169.187 Y44.753 E0.18118
G1 X170.534 Y50.353 E0.18058
G1 X170.526 Y54.821 E0.14011
G1 X169.620 Y59.194 E0.14003
G1 X167.734 Y62.904 E0.13050
G1 X167.734 Y192.695 E4.06949
G1 X166.501 Y198.053 E0.17238
G1 X164.059 Y202.286 E0.15325
G1 X160.568 Y205.669 E0.15239
G1 X156.283 Y207.982 E0.15267
G1 X151.537 Y209.021 E0.15236
G1 X83.605 Y209.034 E2.12995
G1 X78.247 Y207.801 E0.17238
G1 X74.014 Y205.359 E0.15325
G1 X70.600 Y201.826 E0.15402
G1 X68.300 Y197.533 E0.15270
G1 X67.266 Y192.717 E0.15445
G1 X67.266 Y62.978 E4.06787
G1 X67.643 Y62.819 F9000.000
G1 F1200.000
G1 X66.188 Y60.239 E0.09286
G1 X64.949 Y55.674 E0.14832
G1 X64.851 Y50.457 E0.16361
G1 X65.972 Y45.367 E0.16343
G1 X69.057 Y40.179 E0.18923
G1 X78.015 Y31.221 E0.39722
G1 X81.514 Y28.850 E0.13254
G1 X85.465 Y27.336 E0.13265
G1 X149.478 Y27.326 E2.00709
G1 X153.124 Y28.666 E0.12179
G1 X156.404 Y30.749 E0.12182
G1 X165.860 Y40.095 E0.41688
G1 X168.828 Y44.871 E0.17629
G1 X170.157 Y50.375 E0.17753
G1 X170.153 Y54.763 E0.13760
G1 X169.256 Y59.093 E0.13862
G1 X167.357 Y62.814 E0.13098
G1 X167.357 Y192.673 E4.07167
G1 X166.140 Y197.940 E0.16948
G1 X163.746 Y202.075 E0.14980
G1 X160.325 Y205.380 E0.14913
G1 X156.128 Y207.637 E0.14942
G1 X151.477 Y208.649 E0.14926
G1 X83.627 Y208.657 E2.12739
G1 X78.360 Y207.440 E0.16948
G1 X74.226 Y205.046 E0.14980
G1 X70.890 Y201.584 E0.15074
G1 X68.645 Y197.379 E0.14944
G1 X67.643 Y192.697 E0.15012
G1 X67.643 Y62.879 E4.07035
G1 X68.020 Y62.720 F9000.000
G1 F1200.000
G1 X66.546 Y60.117 E0.09378
G1 X65.326 Y55.643 E0.14540
G1 X65.224 Y50.516 E0.16078
G1 X66.334 Y45.477 E0.16178
G1 X69.340 Y40.430 E0.18422
G1 X78.269 Y31.501 E0.39592
G1 X81.670 Y29.195 E0.12883
G1 X85.551 Y27.707 E0.13033
G1 X149.379 Y27.692 E2.00129
G1 X152.974 Y29.013 E0.12010
G1 X156.184 Y31.056 E0.11929
G1 X165.579 Y40.348 E0.41430
G1 X168.491 Y45.044 E0.17326
G1 X169.780 Y50.397 E0.17263
G1 X169.776 Y54.744 E0.13630
G1 X168.892 Y58.991 E0.13602
G1 X166.980 Y62.722 E0.13147
G1 X166.980 Y192.652 E4.07386
G1 X165.799 Y197.776 E0.16487
G1 X163.465 Y201.822 E0.14646
G1 X160.082 Y205.090 E0.14747
G1 X155.974 Y207.292 E0.14615
G1 X151.417 Y208.276 E0.14617
G1 X83.648 Y208.280 E2.12485
G1 X78.524 Y207.099 E0.16487
G1 X74.478 Y204.765 E0.14646
G1 X71.210 Y201.382 E0.14747
G1 X69.008 Y197.274 E0.14615
G1 X68.020 Y192.677 E0.14741
G1 X68.020 Y62.780 E4.07285
G1 X68.397 Y62.620 F9000.000
G1 F1200.000
G1 X66.903 Y59.994 E0.09471
G1 X65.702 Y55.612 E0.14248
G1 X65.597 Y50.575 E0.15797
G1 X66.673 Y45.644 E0.15825
G1 X69.623 Y40.679 E0.18106
G1 X78.523 Y31.780 E0.39462
G1 X81.863 Y29.519 E0.12646
G1 X85.653 Y28.071 E0.12722
G1 X149.281 Y28.057 E1.99500
G1 X152.789 Y29.342 E0.11716
G1 X155.965 Y31.363 E0.11802
G1 X165.298 Y40.600 E0.41172
G1 X168.132 Y45.162 E0.16839
G1 X169.403 Y50.419 E0.16959
G1 X169.403 Y54.686 E0.13378
G1 X168.528 Y58.889 E0.13460
G1 X166.603 Y62.631 E0.13195
G1 X166.603 Y192.631 E4.07605
G1 X165.438 Y197.663 E0.16197
G1 X163.152 Y201.610 E0.14300
G1 X159.840 Y204.800 E0.14419
G1 X155.820 Y206.947 E0.14288
G1 X151.357 Y207.903 E0.14309
G1 X83.669 Y207.903 E2.12231
G1 X78.637 Y206.738 E0.16197
G1 X74.690 Y204.452 E0.14300
G1 X71.500 Y201.140 E0.14419
G1 X69.353 Y197.120 E0.14288
G1 X68.397 Y192.657 E0.14309
G1 X68.397 Y62.680 E4.07536
G1 X68.774 Y62.519 F9000.000
G1 F1200.000
G1 X67.260 Y59.871 E0.09564
G1 X66.079 Y55.580 E0.13954
G1 X65.974 Y50.589 E0.15653
G1 X67.035 Y45.754 E0.15520
G1 X69.906 Y40.930 E0.17604
G1 X78.777 Y32.059 E0.39332
G1 X82.056 Y29.844 E0.12408
G1 X85.755 Y28.436 E0.12411
G1 X149.182 Y28.423 E1.98871
G1 X152.640 Y29.689 E0.11547
G1 X155.745 Y31.670 E0.11547
G1 X165.017 Y40.852 E0.40915
G1 X167.796 Y45.335 E0.16536
G1 X169.026 Y50.442 E0.16470
G1 X169.026 Y54.666 E0.13247
G1 X168.165 Y58.787 E0.13198
G1 X166.226 Y62.539 E0.13243
G1 X166.226 Y192.609 E4.07826
G1 X165.097 Y197.499 E0.15735
G1 X162.871 Y201.357 E0.13967
G1 X159.638 Y204.480 E0.14093
G1 X155.714 Y206.584 E0.13959
G1 X151.337 Y207.526 E0.14038
G1 X83.691 Y207.526 E2.12101
G1 X78.801 Y206.397 E0.15735
G1 X74.943 Y204.171 E0.13967
G1 X71.820 Y200.938 E0.14093
G1 X69.716 Y197.014 E0.13959
G1 X68.774 Y192.637 E0.14038
G1 X68.774 Y62.579 E4.07788
G1 X69.151 Y62.419 F9000.000
G1 F1200.000
G1 X67.617 Y59.747 E0.09658
G1 X66.455 Y55.548 E0.13660
G1 X66.347 Y50.648 E0.15369
G1 X67.397 Y45.865 E0.15354
G1 X70.190 Y41.180 E0.17102
G1 X79.030 Y32.339 E0.39201
G1 X82.248 Y30.169 E0.12170
G1 X85.857 Y28.801 E0.12100
G1 X149.084 Y28.788 E1.98245
G1 X152.455 Y30.018 E0.11250
G1 X155.525 Y31.977 E0.11419
G1 X164.736 Y41.105 E0.40658
G1 X167.436 Y45.453 E0.16049
G1 X168.649 Y50.464 E0.16166
G1 X168.649 Y54.647 E0.13115
G1 X167.801 Y58.684 E0.12934
G1 X165.849 Y62.447 E0.13292
G1 X165.849 Y192.588 E4.08047
G1 X164.737 Y197.387 E0.15445
G1 X162.558 Y201.145 E0.13621
G1 X159.396 Y204.191 E0.13765
G1 X155.560 Y206.239 E0.13633
G1 X151.317 Y207.149 E0.13605
G1 X83.712 Y207.149 E2.11971
G1 X78.913 Y206.037 E0.15445
G1 X75.155 Y203.858 E0.13621
G1 X72.109 Y200.696 E0.13765
G1 X70.061 Y196.860 E0.13633
G1 X69.151 Y192.617 E0.13605
G1 X69.151 Y62.479 E4.08041
G1 X69.528 Y62.317 F9000.000
G1 F1200.000
G1 X67.974 Y59.623 E0.09753
G1 X66.832 Y55.517 E0.13365
G1 X66.725 Y50.662 E0.15223
G1 X67.759 Y45.976 E0.15047
G1 X70.473 Y41.430 E0.16601
G1 X79.284 Y32.618 E0.39072
G1 X82.402 Y30.514 E0.11796
G1 X85.958 Y29.165 E0.11924
G1 X148.986 Y29.154 E1.97619
G1 X152.306 Y30.365 E0.11081
G1 X155.305 Y32.284 E0.11163
G1 X164.455 Y41.357 E0.40401
G1 X167.100 Y45.626 E0.15747
G1 X168.272 Y50.486 E0.15677
G1 X168.272 Y54.627 E0.12983
G1 X167.437 Y58.580 E0.12669
G1 X165.472 Y62.354 E0.13342
G1 X165.472 Y192.566 E4.08269
G1 X164.376 Y197.273 E0.15154
G1 X162.245 Y200.933 E0.13276
G1 X159.195 Y203.871 E0.13280
G1 X155.455 Y205.876 E0.13305
G1 X151.297 Y206.772 E0.13334
G1 X83.734 Y206.772 E2.11840
G1 X79.027 Y205.676 E0.15154
G1 X75.367 Y203.545 E0.13276
G1 X72.429 Y200.495 E0.13280
G1 X70.424 Y196.755 E0.13305
G1 X69.528 Y192.597 E0.13334
G1 X69.528 Y62.377 E4.08295
G1 X69.905 Y62.216 F9000.000
G1 F1200.000
G1 X68.331 Y59.498 E0.09848
G1 X67.208 Y55.484 E0.13068
G1 X67.102 Y50.677 E0.15077
G1 X68.120 Y46.087 E0.14740
G1 X70.756 Y41.680 E0.16101
G1 X79.538 Y32.898 E0.38942
G1 X82.595 Y30.839 E0.11556
G1 X86.059 Y29.530 E0.11612
G1 X148.888 Y29.520 E1.96994
G1 X152.157 Y30.712 E0.10912
G1 X155.084 Y32.591 E0.10905
G1 X164.173 Y41.609 E0.40145
G1 X166.741 Y45.744 E0.15261
G1 X167.895 Y50.509 E0.15372
G1 X167.895 Y54.607 E0.12850
G1 X167.074 Y58.477 E0.12403
G1 X165.192 Y62.083 E0.12754
G1 X165.095 Y62.217 E0.00519
G1 X165.095 Y192.545 E4.08633
G1 X164.035 Y197.109 E0.14691
G1 X161.964 Y200.680 E0.12944
G1 X158.993 Y203.551 E0.12956
G1 X155.349 Y205.513 E0.12976
G1 X151.277 Y206.395 E0.13062
G1 X83.755 Y206.395 E2.11709
G1 X79.191 Y205.335 E0.14691
