; generated by PrusaSlicer 2.2.0+ on 2020-11-19 at 16:26:56 UTC

; 

; external perimeters extrusion width = 0.45mm
; perimeters extrusion width = 0.45mm
; infill extrusion width = 0.45mm
; solid infill extrusion width = 0.45mm
; top infill extrusion width = 0.40mm
; first layer extrusion width = 0.42mm

M201 X500 Y500 Z100 E5000 ; sets maximum accelerations, mm/sec^2
M203 X500 Y500 Z10 E60 ; sets maximum feedrates, mm/sec
M204 P500 R1000 T500 ; sets acceleration (P, T) and retract acceleration (R), mm/sec^2
M205 X8.00 Y8.00 Z0.40 E5.00 ; sets the jerk limits, mm/sec
M205 S0 T0 ; sets the minimum extruding and travel feed rate, mm/sec
M107
G90 ; use absolute coordinates
M83 ; extruder relative mode
M104 S255 ; set extruder temp
M140 S105 ; set bed temp
M190 S105 ; wait for bed temp
M109 S255 ; wait for extruder temp
G28 ; home all
G1 Z2 F240
G1 X2 Y10 F3000
G1 Z0.28 F240
G92 E0.0
G1 Y190 E15.0 F1500.0 ; intro line
G1 X2.3 F5000
G1 Y10 E30 F1200.0 ; intro line
G92 E0.0
G21 ; set units to millimeters
G90 ; use absolute coordinates
M83 ; use relative distances for extrusion
; Filament gcode
;BEFORE_LAYER_CHANGE
;0.2


G1 E-5.00000 F3600.00000
G1 Z0.200 F9000.000
;AFTER_LAYER_CHANGE
;0.2
G1 X60.789 Y101.191
G1 E5.00000 F2400.00000
G1 F1200.000
G1 X61.471 Y100.795 E0.02473
G1 X62.303 Y100.603 E0.02676
G1 X143.056 Y94.900 E2.53826
G1 X167.995 Y94.896 E0.78198
G1 X168.842 Y95.031 E0.02689
G1 X169.603 Y95.417 E0.02676
G1 X172.641 Y97.942 E0.12384
G1 X173.208 Y98.654 E0.02854
G1 X174.986 Y102.165 E0.12342
G1 X175.211 Y102.862 E0.02294
G1 X175.234 Y105.681 E0.08840
G1 X175.058 Y106.371 E0.02231
G1 X174.711 Y106.992 E0.02231
G1 X174.252 Y107.475 E0.02090
G1 X135.247 Y139.479 E1.58197
G1 X134.527 Y139.906 E0.02625
G1 X133.506 Y140.104 E0.03258
G1 X62.443 Y140.104 E2.22816
G1 X61.653 Y139.971 E0.02511
G1 X60.935 Y139.616 E0.02511
G1 X60.349 Y139.070 E0.02511
G1 X59.945 Y138.379 E0.02511
G1 X59.746 Y137.367 E0.03233
G1 X59.748 Y103.239 E1.07005
G1 X59.891 Y102.468 E0.02460
G1 X60.248 Y101.765 E0.02473
G1 X60.748 Y101.235 E0.02284
G1 X61.020 Y101.492 F9000.000
G1 F1200.000
G1 X61.618 Y101.143 E0.02171
G1 X62.328 Y100.979 E0.02284
G1 X143.079 Y95.276 E2.53821
G1 X167.995 Y95.273 E0.78122
G1 X168.729 Y95.390 E0.02331
G1 X169.391 Y95.729 E0.02331
G1 X172.382 Y98.217 E0.12198
G1 X172.877 Y98.835 E0.02484
G1 X174.643 Y102.321 E0.12251
G1 X174.835 Y102.906 E0.01929
G1 X174.862 Y105.620 E0.08511
G1 X174.706 Y106.235 E0.01989
G1 X174.394 Y106.787 E0.01989
G1 X174.012 Y107.184 E0.01728
G1 X135.008 Y139.188 E1.58194
G1 X134.381 Y139.558 E0.02284
G1 X133.507 Y139.727 E0.02790
G1 X62.458 Y139.727 E2.22769
G1 X61.773 Y139.613 E0.02178
G1 X61.150 Y139.306 E0.02178
G1 X60.642 Y138.833 E0.02178
G1 X60.293 Y138.232 E0.02178
G1 X60.123 Y137.363 E0.02778
G1 X60.124 Y103.266 E1.06907
G1 X60.246 Y102.594 E0.02142
G1 X60.555 Y101.984 E0.02142
G1 X60.979 Y101.535 E0.01936
G1 E-3.50000 F3600.00000
G1 F7200.000
G1 X61.618 Y101.143 E-0.35636
G1 X62.328 Y100.979 E-0.34601
G1 X63.845 Y100.872 E-0.72263
G1 E-0.07500 F3600.00000
G1 X155.608 Y79.502 F9000.000
G1 E5.00000 F2400.00000
G1 F1200.000
G1 X157.286 Y78.752 E0.05763
G1 X161.327 Y77.938 E0.12924
G1 X169.842 Y77.937 E0.26699
G1 X175.085 Y79.164 E0.16884
G1 X179.772 Y81.703 E0.16712
G1 X184.423 Y85.585 E0.18996
G1 X188.104 Y90.343 E0.18861
G1 X189.083 Y92.487 E0.07391
G1 X189.319 Y92.844 E0.01341
G1 X190.805 Y95.747 E0.10227
G1 X192.173 Y100.940 E0.16838
G1 X192.212 Y107.495 E0.20553
G1 X190.857 Y112.846 E0.17306
G1 X188.314 Y117.301 E0.16083
G1 X184.688 Y120.978 E0.16194
G1 X180.417 Y123.532 E0.15600
G1 X176.020 Y124.860 E0.14405
G1 X173.858 Y124.989 E0.06790
G1 X146.749 Y152.098 E1.20205
G1 X142.680 Y154.920 E0.15526
G1 X134.901 Y157.147 E0.25371
G1 X61.198 Y157.147 E2.31090
G1 X56.258 Y156.174 E0.15787
G1 X51.727 Y153.989 E0.15772
G1 X47.851 Y150.704 E0.15930
G1 X44.900 Y146.547 E0.15985
G1 X42.702 Y138.783 E0.25298
G1 X42.825 Y100.926 E1.18698
G1 X43.957 Y96.322 E0.14868
G1 X46.180 Y92.101 E0.14957
G1 X49.381 Y88.489 E0.15133
G1 X53.331 Y85.735 E0.15098
G1 X61.057 Y83.553 E0.25172
G1 X129.314 Y83.553 E2.14016
G1 X132.907 Y80.735 E0.14317
G1 X136.549 Y79.003 E0.12645
G1 X140.475 Y78.040 E0.12673
G1 X149.928 Y77.944 E0.29642
G1 X154.055 Y78.798 E0.13214
G1 X155.553 Y79.478 E0.05158
G1 X155.763 Y79.846 F9000.000
G1 F1200.000
G1 X157.382 Y79.118 E0.05565
G1 X161.383 Y78.312 E0.12798
G1 X169.778 Y78.310 E0.26322
G1 X174.928 Y79.508 E0.16580
G1 X179.545 Y82.005 E0.16456
G1 X184.166 Y85.861 E0.18872
G1 X187.792 Y90.556 E0.18599
G1 X188.752 Y92.671 E0.07283
G1 X188.989 Y93.026 E0.01338
G1 X190.446 Y95.863 E0.10002
G1 X191.796 Y100.966 E0.16550
G1 X191.834 Y107.473 E0.20402
G1 X190.498 Y112.728 E0.17000
G1 X187.999 Y117.092 E0.15767
G1 X184.436 Y120.696 E0.15890
G1 X180.286 Y123.177 E0.15161
G1 X175.932 Y124.493 E0.14261
G1 X173.693 Y124.620 E0.07032
G1 X146.494 Y151.819 E1.20603
G1 X142.491 Y154.592 E0.15270
G1 X134.875 Y156.770 E0.24837
G1 X61.217 Y156.770 E2.30950
G1 X56.355 Y155.808 E0.15539
G1 X51.913 Y153.660 E0.15471
G1 X48.114 Y150.432 E0.15631
G1 X45.227 Y146.355 E0.15663
G1 X43.080 Y138.758 E0.24753
G1 X43.197 Y100.995 E1.18405
G1 X44.317 Y96.434 E0.14724
G1 X46.502 Y92.297 E0.14669
G1 X49.648 Y88.757 E0.14850
G1 X53.521 Y86.063 E0.14791
G1 X61.083 Y83.930 E0.24636
G1 X129.445 Y83.930 E2.14344
G1 X133.088 Y81.066 E0.14530
G1 X136.694 Y79.352 E0.12518
G1 X140.543 Y78.412 E0.12424
G1 X149.911 Y78.321 E0.29375
G1 X153.957 Y79.163 E0.12958
G1 X155.607 Y79.917 E0.05687
G1 X155.708 Y79.871 E0.00349
G1 E-3.50000 F3600.00000
G1 F7200.000
G1 X157.382 Y79.118 E-0.87164
G1 X158.524 Y78.888 E-0.55336
G1 E-0.07500 F3600.00000
G1 X129.576 Y84.308 F9000.000
G1 E5.00000 F2400.00000
G1 F1200.000
G1 X133.269 Y81.398 E0.14743
G1 X136.802 Y79.713 E0.12271
G1 X140.611 Y78.783 E0.12294
G1 X149.894 Y78.698 E0.29108
G1 X153.859 Y79.528 E0.12700
G1 X155.606 Y80.332 E0.06029
G1 X157.477 Y79.483 E0.06443
G1 X161.439 Y78.685 E0.12672
G1 X169.714 Y78.682 E0.25946
G1 X174.772 Y79.852 E0.16277
G1 X179.318 Y82.307 E0.16200
G1 X183.880 Y86.108 E0.18620
G1 X187.458 Y90.732 E0.18329
G1 X188.421 Y92.855 E0.07312
G1 X188.659 Y93.209 E0.01334
G1 X190.087 Y95.980 E0.09777
G1 X191.419 Y100.993 E0.16262
G1 X191.457 Y107.451 E0.20250
G1 X190.139 Y112.609 E0.16693
G1 X187.685 Y116.883 E0.15452
G1 X184.222 Y120.385 E0.15441
G1 X180.155 Y122.823 E0.14869
G1 X175.845 Y124.125 E0.14117
G1 X173.529 Y124.251 E0.07273
G1 X146.240 Y151.540 E1.21003
G1 X142.302 Y154.265 E0.15014
G1 X134.849 Y156.392 E0.24303
G1 X61.235 Y156.392 E2.30810
G1 X56.497 Y155.458 E0.15141
G1 X52.099 Y153.331 E0.15320
G1 X48.376 Y150.161 E0.15332
G1 X45.553 Y146.164 E0.15342
G1 X43.457 Y138.733 E0.24209
G1 X43.568 Y101.062 E1.18114
G1 X44.662 Y96.589 E0.14438
G1 X46.800 Y92.530 E0.14384
G1 X49.882 Y89.053 E0.14569
G1 X53.710 Y86.390 E0.14621
G1 X61.109 Y84.308 E0.24100
G1 X129.516 Y84.308 E2.14485
G1 X129.576 Y84.685 F9000.000
G1 F1200.000
G1 X129.707 Y84.685 E0.00411
G1 X133.451 Y81.729 E0.14956
G1 X136.947 Y80.062 E0.12143
G1 X140.679 Y79.155 E0.12044
G1 X149.837 Y79.072 E0.28715
G1 X153.760 Y79.892 E0.12568
G1 X155.604 Y80.747 E0.06373
G1 X157.573 Y79.848 E0.06785
G1 X161.495 Y79.059 E0.12544
G1 X169.692 Y79.059 E0.25702
G1 X174.662 Y80.213 E0.15996
G1 X179.091 Y82.609 E0.15789
G1 X183.595 Y86.356 E0.18370
G1 X187.124 Y90.908 E0.18058
G1 X188.091 Y93.040 E0.07344
G1 X188.329 Y93.392 E0.01331
G1 X189.728 Y96.098 E0.09550
G1 X191.042 Y101.019 E0.15972
G1 X191.080 Y107.429 E0.20098
G1 X189.780 Y112.491 E0.16386
G1 X187.399 Y116.635 E0.14987
G1 X184.007 Y120.074 E0.15144
G1 X180.023 Y122.469 E0.14576
G1 X175.758 Y123.758 E0.13971
G1 X173.365 Y123.882 E0.07514
G1 X145.985 Y151.261 E1.21404
G1 X142.113 Y153.937 E0.14757
G1 X134.822 Y156.015 E0.23770
G1 X61.254 Y156.015 E2.30670
G1 X56.595 Y155.093 E0.14891
G1 X52.285 Y153.002 E0.15018
G1 X48.639 Y149.889 E0.15033
G1 X45.880 Y145.973 E0.15020
G1 X43.834 Y138.708 E0.23666
G1 X43.940 Y101.130 E1.17824
G1 X45.006 Y96.744 E0.14152
G1 X47.097 Y92.763 E0.14097
G1 X50.149 Y89.320 E0.14426
G1 X53.899 Y86.718 E0.14312
G1 X61.135 Y84.685 E0.23566
G1 X129.516 Y84.685 E2.14404
G1 X129.838 Y85.062 F9000.000
G1 F1200.000
G1 X133.633 Y82.060 E0.15170
G1 X137.055 Y80.424 E0.11893
G1 X140.747 Y79.526 E0.11914
G1 X149.780 Y79.445 E0.28322
G1 X153.662 Y80.257 E0.12436
G1 X155.603 Y81.163 E0.06717
G1 X157.669 Y80.214 E0.07128
G1 X161.551 Y79.432 E0.12416
G1 X169.629 Y79.431 E0.25326
G1 X174.505 Y80.557 E0.15692
G1 X178.865 Y82.910 E0.15533
G1 X183.338 Y86.633 E0.18247
G1 X186.789 Y91.083 E0.17659
G1 X187.761 Y93.226 E0.07377
G1 X188.000 Y93.576 E0.01328
G1 X189.369 Y96.215 E0.09323
G1 X190.666 Y101.046 E0.15681
G1 X190.703 Y107.406 E0.19945
G1 X189.421 Y112.371 E0.16077
G1 X187.085 Y116.426 E0.14673
G1 X183.792 Y119.763 E0.14698
G1 X179.892 Y122.115 E0.14282
G1 X175.671 Y123.390 E0.13824
G1 X173.201 Y123.513 E0.07754
G1 X145.731 Y150.983 E1.21807
G1 X141.925 Y153.609 E0.14500
G1 X134.796 Y155.638 E0.23238
G1 X61.272 Y155.638 E2.30530
G1 X56.692 Y154.728 E0.14642
G1 X52.472 Y152.674 E0.14715
G1 X48.902 Y149.618 E0.14733
G1 X46.207 Y145.783 E0.14699
G1 X44.211 Y138.683 E0.23124
G1 X44.312 Y101.197 E1.17536
G1 X45.351 Y96.898 E0.13865
G1 X47.420 Y92.959 E0.13952
G1 X50.416 Y89.588 E0.14140
G1 X54.088 Y87.046 E0.14003
G1 X61.161 Y85.062 E0.23032
G1 X129.778 Y85.062 E2.15146
G1 X129.838 Y85.439 F9000.000
G1 F1200.000
G1 X129.970 Y85.439 E0.00412
G1 X133.814 Y82.391 E0.15384
G1 X137.200 Y80.773 E0.11764
G1 X140.815 Y79.898 E0.11662
G1 X149.722 Y79.818 E0.27930
G1 X153.563 Y80.621 E0.12302
G1 X155.602 Y81.579 E0.07063
G1 X157.766 Y80.579 E0.07473
G1 X161.607 Y79.805 E0.12287
G1 X169.565 Y79.803 E0.24951
G1 X174.349 Y80.901 E0.15388
G1 X178.638 Y83.212 E0.15277
G1 X183.081 Y86.909 E0.18123
G1 X186.455 Y91.259 E0.17261
G1 X187.432 Y93.412 E0.07412
G1 X187.671 Y93.761 E0.01325
G1 X189.011 Y96.333 E0.09095
G1 X190.289 Y101.072 E0.15389
G1 X190.326 Y107.384 E0.19791
G1 X189.063 Y112.252 E0.15768
G1 X186.770 Y116.216 E0.14360
G1 X183.577 Y119.453 E0.14255
G1 X179.760 Y121.761 E0.13987
G1 X175.584 Y123.022 E0.13676
G1 X173.038 Y123.143 E0.07994
G1 X145.476 Y150.704 E1.22211
G1 X141.736 Y153.281 E0.14242
G1 X134.770 Y155.261 E0.22707
G1 X61.291 Y155.261 E2.30390
G1 X56.835 Y154.378 E0.14243
G1 X52.699 Y152.371 E0.14414
G1 X49.197 Y149.382 E0.14435
G1 X46.534 Y145.592 E0.14524
G1 X44.588 Y138.658 E0.22582
G1 X44.683 Y101.263 E1.17248
G1 X45.696 Y97.053 E0.13579
G1 X47.718 Y93.192 E0.13664
G1 X50.649 Y89.885 E0.13856
G1 X54.277 Y87.374 E0.13833
G1 X61.186 Y85.439 E0.22499
G1 X129.778 Y85.439 E2.15065
G1 X130.101 Y85.816 F9000.000
G1 F1200.000
G1 X133.997 Y82.722 E0.15598
G1 X137.308 Y81.135 E0.11512
G1 X140.883 Y80.269 E0.11532
G1 X149.665 Y80.191 E0.27538
G1 X153.464 Y80.986 E0.12168
G1 X155.601 Y81.995 E0.07411
G1 X157.862 Y80.944 E0.07819
G1 X161.663 Y80.179 E0.12158
G1 X169.502 Y80.176 E0.24578
G1 X174.193 Y81.246 E0.15085
G1 X178.411 Y83.514 E0.15019
G1 X182.824 Y87.186 E0.17999
G1 X186.121 Y91.435 E0.16862
G1 X187.102 Y93.599 E0.07449
G1 X187.342 Y93.946 E0.01323
G1 X188.652 Y96.452 E0.08867
G1 X189.912 Y101.099 E0.15096
G1 X189.948 Y107.361 E0.19636
G1 X188.704 Y112.132 E0.15457
G1 X186.485 Y115.969 E0.13899
G1 X183.362 Y119.143 E0.13961
G1 X179.628 Y121.407 E0.13691
G1 X175.498 Y122.654 E0.13527
G1 X172.875 Y122.772 E0.08234
G1 X145.222 Y150.425 E1.22616
G1 X141.548 Y152.953 E0.13983
G1 X134.744 Y154.884 E0.22175
G1 X61.309 Y154.884 E2.30250
G1 X56.932 Y154.013 E0.13993
G1 X52.886 Y152.043 E0.14112
G1 X49.461 Y149.111 E0.14136
G1 X46.861 Y145.402 E0.14202
G1 X44.965 Y138.633 E0.22041
G1 X45.055 Y101.330 E1.16960
G1 X46.057 Y97.164 E0.13436
G1 X48.041 Y93.388 E0.13373
G1 X50.916 Y90.153 E0.13570
G1 X54.465 Y87.702 E0.13522
G1 X61.212 Y85.816 E0.21966
G1 X130.041 Y85.816 E2.15809
G1 X130.101 Y86.193 F9000.000
G1 F1200.000
G1 X130.233 Y86.193 E0.00413
G1 X134.179 Y83.052 E0.15812
G1 X137.453 Y81.483 E0.11383
G1 X140.950 Y80.641 E0.11279
G1 X149.608 Y80.565 E0.27147
G1 X153.364 Y81.350 E0.12034
G1 X155.599 Y82.413 E0.07759
G1 X157.959 Y81.309 E0.08167
G1 X161.719 Y80.552 E0.12028
G1 X169.481 Y80.553 E0.24335
G1 X174.083 Y81.607 E0.14806
G1 X178.185 Y83.816 E0.14605
G1 X182.567 Y87.463 E0.17876
G1 X185.787 Y91.611 E0.16464
G1 X186.773 Y93.786 E0.07488
G1 X187.014 Y94.132 E0.01321
G1 X188.294 Y96.571 E0.08637
G1 X189.535 Y101.126 E0.14801
G1 X189.571 Y107.339 E0.19481
G1 X188.346 Y112.011 E0.15146
G1 X186.171 Y115.759 E0.13587
G1 X183.146 Y118.833 E0.13522
G1 X179.496 Y121.053 E0.13394
G1 X175.412 Y122.287 E0.13376
G1 X172.712 Y122.402 E0.08473
G1 X144.968 Y150.146 E1.23023
G1 X141.360 Y152.625 E0.13724
G1 X134.718 Y154.507 E0.21645
G1 X61.328 Y154.507 E2.30110
G1 X57.030 Y153.648 E0.13742
G1 X53.073 Y151.715 E0.13809
G1 X49.724 Y148.841 E0.13836
G1 X47.189 Y145.212 E0.13880
G1 X45.342 Y138.608 E0.21502
G1 X45.427 Y101.396 E1.16674
G1 X46.402 Y97.318 E0.13148
G1 X48.338 Y93.621 E0.13085
G1 X51.149 Y90.450 E0.13285
G1 X54.653 Y88.030 E0.13352
G1 X61.238 Y86.193 E0.21434
G1 X130.041 Y86.193 E2.15729
G1 X130.365 Y86.570 F9000.000
G1 F1200.000
G1 X134.362 Y83.383 E0.16027
G1 X137.560 Y81.845 E0.11129
G1 X141.017 Y81.013 E0.11149
G1 X149.550 Y80.938 E0.26756
G1 X153.265 Y81.715 E0.11899
G1 X155.598 Y82.830 E0.08109
G1 X158.056 Y81.674 E0.08516
G1 X161.775 Y80.925 E0.11897
G1 X169.418 Y80.925 E0.23962
G1 X173.928 Y81.952 E0.14502
G1 X177.958 Y84.118 E0.14348
G1 X182.310 Y87.740 E0.17753
G1 X185.452 Y91.787 E0.16065
G1 X186.445 Y93.974 E0.07530
G1 X186.686 Y94.319 E0.01319
G1 X187.936 Y96.691 E0.08407
G1 X189.158 Y101.153 E0.14505
G1 X189.194 Y107.316 E0.19325
G1 X187.988 Y111.891 E0.14833
G1 X185.885 Y115.512 E0.13130
G1 X182.929 Y118.523 E0.13230
G1 X179.364 Y120.699 E0.13096
G1 X175.326 Y121.919 E0.13225
G1 X172.550 Y122.031 E0.08711
G1 X144.713 Y149.867 E1.23431
G1 X141.172 Y152.296 E0.13465
G1 X134.692 Y154.130 E0.21115
G1 X61.347 Y154.130 E2.29969
G1 X57.128 Y153.283 E0.13490
G1 X53.261 Y151.387 E0.13506
G1 X49.989 Y148.571 E0.13537
G1 X47.516 Y145.023 E0.13558
G1 X45.720 Y138.583 E0.20964
G1 X45.799 Y101.462 E1.16389
G1 X46.747 Y97.472 E0.12860
G1 X48.662 Y93.816 E0.12939
G1 X51.415 Y90.718 E0.12998
G1 X54.841 Y88.359 E0.13041
G1 X61.263 Y86.570 E0.20902
G1 X130.305 Y86.570 E2.16476
G1 X130.365 Y86.947 F9000.000
G1 F1200.000
G1 X130.497 Y86.947 E0.00415
G1 X134.544 Y83.714 E0.16242
G1 X137.706 Y82.194 E0.10998
G1 X141.084 Y81.384 E0.10893
G1 X149.493 Y81.311 E0.26366
G1 X153.165 Y82.079 E0.11763
G1 X155.597 Y83.248 E0.08459
G1 X158.153 Y82.040 E0.08866
G1 X161.832 Y81.299 E0.11766
G1 X169.355 Y81.298 E0.23590
G1 X173.772 Y82.296 E0.14198
G1 X177.732 Y84.420 E0.14089
G1 X182.054 Y88.016 E0.17629
G1 X185.118 Y91.963 E0.15667
G1 X186.116 Y94.163 E0.07573
G1 X186.358 Y94.506 E0.01318
G1 X187.578 Y96.811 E0.08176
G1 X188.781 Y101.180 E0.14208
G1 X188.817 Y107.293 E0.19167
G1 X187.630 Y111.770 E0.14520
G1 X185.599 Y115.265 E0.12676
G1 X182.712 Y118.214 E0.12939
G1 X179.231 Y120.345 E0.12797
G1 X175.240 Y121.551 E0.13073
G1 X172.388 Y121.659 E0.08949
G1 X144.459 Y149.588 E1.23840
G1 X140.984 Y151.968 E0.13205
G1 X134.666 Y153.753 E0.20586
G1 X61.365 Y153.753 E2.29829
G1 X57.227 Y152.919 E0.13237
G1 X53.449 Y151.060 E0.13202
G1 X50.253 Y148.301 E0.13237
G1 X47.844 Y144.834 E0.13237
G1 X46.097 Y138.558 E0.20428
G1 X46.171 Y101.527 E1.16106
G1 X47.092 Y97.625 E0.12572
G1 X48.959 Y94.049 E0.12647
G1 X51.682 Y90.985 E0.12852
G1 X55.029 Y88.687 E0.12729
G1 X61.289 Y86.947 E0.20372
G1 X130.305 Y86.947 E2.16396
G1 X130.630 Y87.324 F9000.000
G1 F1200.000
G1 X134.727 Y84.044 E0.16458
G1 X137.813 Y82.556 E0.10742
G1 X141.151 Y81.756 E0.10762
G1 X149.436 Y81.684 E0.25976
G1 X153.065 Y82.443 E0.11626
G1 X155.595 Y83.666 E0.08811
G1 X158.250 Y82.405 E0.09217
G1 X161.888 Y81.672 E0.11634
G1 X169.293 Y81.670 E0.23219
G1 X173.617 Y82.641 E0.13894
G1 X177.505 Y84.723 E0.13829
G1 X181.797 Y88.293 E0.17505
G1 X184.784 Y92.139 E0.15268
G1 X185.788 Y94.352 E0.07619
G1 X186.031 Y94.694 E0.01318
G1 X187.220 Y96.932 E0.07944
G1 X188.404 Y101.207 E0.13910
