; generated by PrusaSlicer 2.2.0+ on 2020-11-20 at 17:29:54 UTC

; 

; external perimeters extrusion width = 0.45mm
; perimeters extrusion width = 0.45mm
; infill extrusion width = 0.45mm
; solid infill extrusion width = 0.45mm
; top infill extrusion width = 0.40mm
; first layer extrusion width = 0.42mm

M201 X500 Y500 Z100 E5000 ; sets maximum accelerations, mm/sec^2
M203 X500 Y500 Z10 E60 ; sets maximum feedrates, mm/sec
M204 P500 R1000 T500 ; sets acceleration (P, T) and retract acceleration (R), mm/sec^2
M205 X8.00 Y8.00 Z0.40 E5.00 ; sets the jerk limits, mm/sec
M205 S0 T0 ; sets the minimum extruding and travel feed rate, mm/sec
M107
G90 ; use absolute coordinates
M83 ; extruder relative mode
M104 S200 ; set extruder temp
M140 S60 ; set bed temp
M190 S60 ; wait for bed temp
M109 S200 ; wait for extruder temp
G28 ; home all
G1 Z2 F240
G1 X2 Y10 F3000
G1 Z0.28 F240
G92 E0.0
G1 Y190 E15.0 F1500.0 ; intro line
G1 X2.3 F5000
G1 Y10 E30 F1200.0 ; intro line
G92 E0.0
G21 ; set units to millimeters
G90 ; use absolute coordinates
M83 ; use relative distances for extrusion
; Filament gcode
;BEFORE_LAYER_CHANGE
;0.2


G1 E-1.00000 F3600.00000
G1 Z0.200 F9000.000
;AFTER_LAYER_CHANGE
;0.2
G1 X79.794 Y50.615
G1 E1.00000 F2400.00000
G1 F1200.000
G1 X80.292 Y49.847 E0.02872
G1 X88.071 Y42.068 E0.34492
G1 X88.675 Y41.648 E0.02308
G1 X89.383 Y41.433 E0.02319
G1 X144.978 Y41.409 E1.74317
G1 X145.564 Y41.426 E0.01838
G1 X146.050 Y41.535 E0.01562
G1 X146.522 Y41.756 E0.01633
G1 X146.932 Y42.071 E0.01621
G1 X154.762 Y49.905 E0.34728
G1 X155.196 Y50.590 E0.02543
G1 X155.374 Y51.381 E0.02543
G1 X152.577 Y191.552 E4.39583
G1 X152.407 Y192.384 E0.02661
G1 X152.057 Y192.984 E0.02178
G1 X151.549 Y193.457 E0.02178
G1 X150.926 Y193.764 E0.02178
G1 X150.244 Y193.877 E0.02166
G1 X84.792 Y193.877 E2.05220
G1 X83.915 Y193.706 E0.02802
G1 X83.321 Y193.361 E0.02154
G1 X82.851 Y192.861 E0.02154
G1 X82.543 Y192.246 E0.02154
G1 X82.424 Y191.570 E0.02154
G1 X79.623 Y53.544 E4.32857
G1 X79.627 Y51.363 E0.06840
G1 X79.781 Y50.674 E0.02214
G1 E-0.70000 F3600.00000
G1 F7200.000
G1 X80.096 Y50.164 E-0.28500
G1 E-0.01500 F3600.00000
G1 X149.613 Y52.913 F9000.000
G1 E1.00000 F2400.00000
G1 F1200.000
G1 X149.613 Y190.913 E4.32689
G1 X85.387 Y190.913 E2.01376
G1 X85.387 Y52.913 E4.32689
G1 X82.587 Y52.913 E0.08779
G1 X82.587 Y51.743 E0.03668
G1 X89.671 Y44.660 E0.31409
G1 X145.330 Y44.660 E1.74515
G1 X152.413 Y51.743 E0.31409
G1 X152.413 Y52.913 E0.03668
G1 X149.673 Y52.913 E0.08591
G1 X149.990 Y53.290 F9000.000
G1 F1200.000
G1 X149.990 Y191.290 E4.32689
G1 X85.010 Y191.290 E2.03740
G1 X85.010 Y53.290 E4.32689
G1 X82.210 Y53.290 E0.08779
G1 X82.210 Y51.587 E0.05340
G1 X89.514 Y44.283 E0.32389
G1 X145.486 Y44.283 E1.75494
G1 X152.790 Y51.587 E0.32388
G1 X152.790 Y53.290 E0.05340
G1 X150.050 Y53.290 E0.08591
G1 X149.597 Y53.362 F9000.000
G1 E-0.70000 F3600.00000
G1 F7200.000
G1 X150.050 Y53.890 E-0.28500
G1 E-0.01500 F3600.00000
G1 X152.300 Y52.030 F9000.000
G1 E1.00000 F2400.00000
G1 F1200.000
G1 X145.212 Y44.943 E0.31432
G1 X144.679 Y44.943 E0.01673
G1 X152.130 Y52.394 E0.33045
G1 X152.130 Y52.630 E0.00741
G1 X151.833 Y52.630 E0.00931
G1 X144.146 Y44.943 E0.34093
G1 X143.612 Y44.943 E0.01673
G1 X151.300 Y52.630 E0.34093
G1 X150.766 Y52.630 E0.01673
G1 X143.079 Y44.943 E0.34093
G1 X142.546 Y44.943 E0.01673
G1 X150.233 Y52.630 E0.34093
G1 X149.700 Y52.630 E0.01673
G1 X142.012 Y44.943 E0.34093
G1 X141.479 Y44.943 E0.01673
G1 X149.330 Y52.794 E0.34819
G1 X149.330 Y53.327 E0.01673
G1 X140.945 Y44.943 E0.37184
G1 X140.412 Y44.943 E0.01673
G1 X149.330 Y53.861 E0.39550
G1 X149.330 Y54.394 E0.01673
G1 X139.879 Y44.943 E0.41915
G1 X139.345 Y44.943 E0.01673
G1 X149.330 Y54.927 E0.44280
G1 X149.330 Y55.461 E0.01673
G1 X138.812 Y44.943 E0.46646
G1 X138.279 Y44.943 E0.01673
G1 X149.330 Y55.994 E0.49011
G1 X149.330 Y56.527 E0.01673
G1 X137.745 Y44.943 E0.51376
G1 X137.212 Y44.943 E0.01673
G1 X149.330 Y57.061 E0.53742
G1 X149.330 Y57.594 E0.01673
G1 X136.679 Y44.943 E0.56107
G1 X136.145 Y44.943 E0.01673
G1 X149.330 Y58.127 E0.58472
G1 X149.330 Y58.661 E0.01673
G1 X135.612 Y44.943 E0.60838
G1 X135.079 Y44.943 E0.01673
G1 X149.330 Y59.194 E0.63203
G1 X149.330 Y59.727 E0.01673
G1 X134.545 Y44.943 E0.65568
G1 X134.012 Y44.943 E0.01673
G1 X149.330 Y60.261 E0.67934
G1 X149.330 Y60.794 E0.01673
G1 X133.479 Y44.943 E0.70299
G1 X132.945 Y44.943 E0.01673
G1 X149.330 Y61.327 E0.72664
G1 X149.330 Y61.861 E0.01673
G1 X132.412 Y44.943 E0.75029
G1 X131.879 Y44.943 E0.01673
G1 X149.330 Y62.394 E0.77395
G1 X149.330 Y62.928 E0.01673
G1 X131.345 Y44.943 E0.79760
G1 X130.812 Y44.943 E0.01673
G1 X149.330 Y63.461 E0.82125
G1 X149.330 Y63.994 E0.01673
G1 X130.278 Y44.943 E0.84491
G1 X129.745 Y44.943 E0.01673
G1 X149.330 Y64.528 E0.86856
G1 X149.330 Y65.061 E0.01673
G1 X129.212 Y44.943 E0.89221
G1 X128.678 Y44.943 E0.01673
G1 X149.330 Y65.594 E0.91587
G1 X149.330 Y66.128 E0.01673
G1 X128.145 Y44.943 E0.93952
G1 X127.612 Y44.943 E0.01673
G1 X149.330 Y66.661 E0.96317
G1 X149.330 Y67.194 E0.01673
G1 X127.078 Y44.943 E0.98683
G1 X126.545 Y44.943 E0.01673
G1 X149.330 Y67.728 E1.01048
G1 X149.330 Y68.261 E0.01673
G1 X126.012 Y44.943 E1.03413
G1 X125.478 Y44.943 E0.01673
G1 X149.330 Y68.794 E1.05779
G1 X149.330 Y69.328 E0.01673
G1 X124.945 Y44.943 E1.08144
G1 X124.412 Y44.943 E0.01673
G1 X149.330 Y69.861 E1.10509
G1 X149.330 Y70.394 E0.01673
G1 X123.878 Y44.943 E1.12874
G1 X123.345 Y44.943 E0.01673
G1 X149.330 Y70.928 E1.15240
G1 X149.330 Y71.461 E0.01673
G1 X122.812 Y44.943 E1.17605
G1 X122.278 Y44.943 E0.01673
G1 X149.330 Y71.995 E1.19970
G1 X149.330 Y72.528 E0.01673
G1 X121.745 Y44.943 E1.22336
G1 X121.212 Y44.943 E0.01673
G1 X149.330 Y73.061 E1.24701
G1 X149.330 Y73.595 E0.01673
G1 X120.678 Y44.943 E1.27066
G1 X120.145 Y44.943 E0.01673
G1 X149.330 Y74.128 E1.29432
G1 X149.330 Y74.661 E0.01673
G1 X119.612 Y44.943 E1.31797
G1 X119.078 Y44.943 E0.01673
G1 X149.330 Y75.195 E1.34162
G1 X149.330 Y75.728 E0.01673
G1 X118.545 Y44.943 E1.36528
G1 X118.011 Y44.943 E0.01673
G1 X149.330 Y76.261 E1.38893
G1 X149.330 Y76.795 E0.01673
G1 X117.478 Y44.943 E1.41258
G1 X116.945 Y44.943 E0.01673
G1 X149.330 Y77.328 E1.43624
G1 X149.330 Y77.861 E0.01673
G1 X116.411 Y44.943 E1.45989
G1 X115.878 Y44.943 E0.01673
G1 X149.330 Y78.395 E1.48354
G1 X149.330 Y78.928 E0.01673
G1 X115.345 Y44.943 E1.50720
G1 X114.811 Y44.943 E0.01673
G1 X149.330 Y79.461 E1.53085
G1 X149.330 Y79.995 E0.01673
G1 X114.278 Y44.943 E1.55450
G1 X113.745 Y44.943 E0.01673
G1 X149.330 Y80.528 E1.57815
G1 X149.330 Y81.061 E0.01673
G1 X113.211 Y44.943 E1.60181
G1 X112.678 Y44.943 E0.01673
G1 X149.330 Y81.595 E1.62546
G1 X149.330 Y82.128 E0.01673
G1 X112.145 Y44.943 E1.64911
G1 X111.611 Y44.943 E0.01673
G1 X149.330 Y82.662 E1.67277
G1 X149.330 Y83.195 E0.01673
G1 X111.078 Y44.943 E1.69642
G1 X110.545 Y44.943 E0.01673
G1 X149.330 Y83.728 E1.72007
G1 X149.330 Y84.262 E0.01673
G1 X110.011 Y44.943 E1.74373
G1 X109.478 Y44.943 E0.01673
G1 X149.330 Y84.795 E1.76738
G1 X149.330 Y85.328 E0.01673
G1 X108.945 Y44.943 E1.79103
G1 X108.411 Y44.943 E0.01673
G1 X149.330 Y85.862 E1.81469
G1 X149.330 Y86.395 E0.01673
G1 X107.878 Y44.943 E1.83834
G1 X107.344 Y44.943 E0.01673
G1 X149.330 Y86.928 E1.86199
G1 X149.330 Y87.462 E0.01673
G1 X106.811 Y44.943 E1.88565
G1 X106.278 Y44.943 E0.01673
G1 X149.330 Y87.995 E1.90930
G1 X149.330 Y88.528 E0.01673
G1 X105.744 Y44.943 E1.93295
G1 X105.211 Y44.943 E0.01673
G1 X149.330 Y89.062 E1.95660
G1 X149.330 Y89.595 E0.01673
G1 X104.678 Y44.943 E1.98026
G1 X104.144 Y44.943 E0.01673
G1 X149.330 Y90.128 E2.00391
G1 X149.330 Y90.662 E0.01673
G1 X103.611 Y44.943 E2.02756
G1 X103.078 Y44.943 E0.01673
G1 X149.330 Y91.195 E2.05122
G1 X149.330 Y91.728 E0.01673
G1 X102.544 Y44.943 E2.07487
G1 X102.011 Y44.943 E0.01673
G1 X149.330 Y92.262 E2.09852
G1 X149.330 Y92.795 E0.01673
G1 X101.478 Y44.943 E2.12218
G1 X100.944 Y44.943 E0.01673
G1 X149.330 Y93.329 E2.14583
G1 X149.330 Y93.862 E0.01673
G1 X100.411 Y44.943 E2.16948
G1 X99.878 Y44.943 E0.01673
G1 X149.330 Y94.395 E2.19314
G1 X149.330 Y94.929 E0.01673
G1 X99.344 Y44.943 E2.21679
G1 X98.811 Y44.943 E0.01673
G1 X149.330 Y95.462 E2.24044
G1 X149.330 Y95.995 E0.01673
G1 X98.278 Y44.943 E2.26410
G1 X97.744 Y44.943 E0.01673
G1 X149.330 Y96.529 E2.28775
G1 X149.330 Y97.062 E0.01673
G1 X97.211 Y44.943 E2.31140
G1 X96.678 Y44.943 E0.01673
G1 X149.330 Y97.595 E2.33505
G1 X149.330 Y98.129 E0.01673
G1 X96.144 Y44.943 E2.35871
G1 X95.611 Y44.943 E0.01673
G1 X149.330 Y98.662 E2.38236
G1 X149.330 Y99.195 E0.01673
G1 X95.077 Y44.943 E2.40601
G1 X94.544 Y44.943 E0.01673
G1 X149.330 Y99.729 E2.42967
G1 X149.330 Y100.262 E0.01673
G1 X94.011 Y44.943 E2.45332
G1 X93.477 Y44.943 E0.01673
G1 X149.330 Y100.795 E2.47697
G1 X149.330 Y101.329 E0.01673
G1 X92.944 Y44.943 E2.50063
G1 X92.411 Y44.943 E0.01673
G1 X149.330 Y101.862 E2.52428
G1 X149.330 Y102.396 E0.01673
G1 X91.877 Y44.943 E2.54793
G1 X91.344 Y44.943 E0.01673
G1 X149.330 Y102.929 E2.57159
G1 X149.330 Y103.462 E0.01673
G1 X90.811 Y44.943 E2.59524
G1 X90.277 Y44.943 E0.01673
G1 X149.330 Y103.996 E2.61890
G1 X149.330 Y104.529 E0.01673
G1 X89.766 Y44.964 E2.64158
G1 X89.499 Y45.231 E0.01183
G1 X149.330 Y105.062 E2.65341
G1 X149.330 Y105.596 E0.01673
G1 X89.232 Y45.498 E2.66523
G1 X88.966 Y45.765 E0.01183
G1 X149.330 Y106.129 E2.67706
G1 X149.330 Y106.662 E0.01673
G1 X88.699 Y46.031 E2.68889
G1 X88.432 Y46.298 E0.01183
G1 X149.330 Y107.196 E2.70071
G1 X149.330 Y107.729 E0.01673
G1 X88.166 Y46.565 E2.71254
G1 X87.899 Y46.831 E0.01183
G1 X149.330 Y108.262 E2.72437
G1 X149.330 Y108.796 E0.01673
G1 X87.632 Y47.098 E2.73619
G1 X87.366 Y47.365 E0.01183
G1 X149.330 Y109.329 E2.74802
G1 X149.330 Y109.862 E0.01673
G1 X87.099 Y47.631 E2.75985
G1 X86.832 Y47.898 E0.01183
G1 X149.330 Y110.396 E2.77167
G1 X149.330 Y110.929 E0.01673
G1 X86.566 Y48.165 E2.78350
G1 X86.299 Y48.431 E0.01183
G1 X149.330 Y111.462 E2.79533
G1 X149.330 Y111.996 E0.01673
G1 X86.032 Y48.698 E2.80715
G1 X85.766 Y48.965 E0.01183
G1 X149.330 Y112.529 E2.81898
G1 X149.330 Y113.063 E0.01673
G1 X85.499 Y49.231 E2.83081
G1 X85.232 Y49.498 E0.01183
G1 X149.330 Y113.596 E2.84263
G1 X149.330 Y114.129 E0.01673
G1 X84.966 Y49.765 E2.85446
G1 X84.699 Y50.031 E0.01183
G1 X149.330 Y114.663 E2.86629
G1 X149.330 Y115.196 E0.01673
G1 X84.432 Y50.298 E2.87811
G1 X84.166 Y50.565 E0.01183
G1 X149.330 Y115.729 E2.88994
G1 X149.330 Y116.263 E0.01673
G1 X83.899 Y50.831 E2.90177
G1 X83.632 Y51.098 E0.01183
G1 X85.164 Y52.630 E0.06795
G1 X84.631 Y52.630 E0.01673
G1 X83.365 Y51.365 E0.05612
G1 X83.099 Y51.631 E0.01183
G1 X84.098 Y52.630 E0.04429
G1 X83.564 Y52.630 E0.01673
G1 X82.870 Y51.936 E0.03079
G1 X82.870 Y52.469 E0.01673
G1 X83.201 Y52.800 E0.01466
G1 E-0.70000 F3600.00000
G1 F7200.000
G1 X82.870 Y52.469 E-0.22213
G1 X82.870 Y52.337 E-0.06287
G1 E-0.01500 F3600.00000
G1 X149.500 Y116.966 F9000.000
G1 E1.00000 F2400.00000
G1 F1200.000
G1 X85.670 Y53.136 E2.83075
G1 X85.670 Y53.669 E0.01673
G1 X149.330 Y117.329 E2.82322
G1 X149.330 Y117.863 E0.01673
G1 X85.670 Y54.202 E2.82322
G1 X85.670 Y54.736 E0.01673
G1 X149.330 Y118.396 E2.82322
G1 X149.330 Y118.929 E0.01673
G1 X85.670 Y55.269 E2.82322
G1 X85.670 Y55.802 E0.01673
G1 X149.330 Y119.463 E2.82322
G1 X149.330 Y119.996 E0.01673
G1 X85.670 Y56.336 E2.82322
G1 X85.670 Y56.869 E0.01673
G1 X149.330 Y120.529 E2.82322
G1 X149.330 Y121.063 E0.01673
G1 X85.670 Y57.403 E2.82322
G1 X85.670 Y57.936 E0.01673
G1 X149.330 Y121.596 E2.82322
G1 X149.330 Y122.129 E0.01673
G1 X85.670 Y58.469 E2.82322
G1 X85.670 Y59.003 E0.01673
G1 X149.330 Y122.663 E2.82322
G1 X149.330 Y123.196 E0.01673
G1 X85.670 Y59.536 E2.82322
G1 X85.670 Y60.069 E0.01673
G1 X149.330 Y123.730 E2.82322
G1 X149.330 Y124.263 E0.01673
G1 X85.670 Y60.603 E2.82322
G1 X85.670 Y61.136 E0.01673
G1 X149.330 Y124.796 E2.82322
G1 X149.330 Y125.330 E0.01673
G1 X85.670 Y61.669 E2.82322
G1 X85.670 Y62.203 E0.01673
G1 X149.330 Y125.863 E2.82322
G1 X149.330 Y126.396 E0.01673
G1 X85.670 Y62.736 E2.82322
G1 X85.670 Y63.269 E0.01673
G1 X149.330 Y126.930 E2.82322
G1 X149.330 Y127.463 E0.01673
G1 X85.670 Y63.803 E2.82322
G1 X85.670 Y64.336 E0.01673
G1 X149.330 Y127.996 E2.82322
G1 X149.330 Y128.530 E0.01673
G1 X85.670 Y64.869 E2.82322
G1 X85.670 Y65.403 E0.01673
G1 X149.330 Y129.063 E2.82322
G1 X149.330 Y129.596 E0.01673
G1 X85.670 Y65.936 E2.82322
G1 X85.670 Y66.470 E0.01673
G1 X149.330 Y130.130 E2.82322
G1 X149.330 Y130.663 E0.01673
G1 X85.670 Y67.003 E2.82322
G1 X85.670 Y67.536 E0.01673
G1 X149.330 Y131.196 E2.82322
G1 X149.330 Y131.730 E0.01673
G1 X85.670 Y68.070 E2.82322
G1 X85.670 Y68.603 E0.01673
G1 X149.330 Y132.263 E2.82322
G1 X149.330 Y132.797 E0.01673
G1 X85.670 Y69.136 E2.82322
G1 X85.670 Y69.670 E0.01673
G1 X149.330 Y133.330 E2.82322
G1 X149.330 Y133.863 E0.01673
G1 X85.670 Y70.203 E2.82322
G1 X85.670 Y70.736 E0.01673
G1 X149.330 Y134.397 E2.82322
G1 X149.330 Y134.930 E0.01673
G1 X85.670 Y71.270 E2.82322
G1 X85.670 Y71.803 E0.01673
G1 X149.330 Y135.463 E2.82322
G1 X149.330 Y135.997 E0.01673
G1 X85.670 Y72.336 E2.82322
G1 X85.670 Y72.870 E0.01673
G1 X149.330 Y136.530 E2.82322
G1 X149.330 Y137.063 E0.01673
G1 X85.670 Y73.403 E2.82322
G1 X85.670 Y73.936 E0.01673
G1 X149.330 Y137.597 E2.82322
G1 X149.330 Y138.130 E0.01673
G1 X85.670 Y74.470 E2.82322
G1 X85.670 Y75.003 E0.01673
G1 X149.330 Y138.663 E2.82322
G1 X149.330 Y139.197 E0.01673
G1 X85.670 Y75.536 E2.82322
G1 X85.670 Y76.070 E0.01673
G1 X149.330 Y139.730 E2.82322
G1 X149.330 Y140.263 E0.01673
G1 X85.670 Y76.603 E2.82322
G1 X85.670 Y77.137 E0.01673
G1 X149.330 Y140.797 E2.82322
G1 X149.330 Y141.330 E0.01673
G1 X85.670 Y77.670 E2.82322
G1 X85.670 Y78.203 E0.01673
G1 X149.330 Y141.863 E2.82322
G1 X149.330 Y142.397 E0.01673
G1 X85.670 Y78.737 E2.82322
G1 X85.670 Y79.270 E0.01673
G1 X149.330 Y142.930 E2.82322
G1 X149.330 Y143.464 E0.01673
G1 X85.670 Y79.803 E2.82322
G1 X85.670 Y80.337 E0.01673
G1 X149.330 Y143.997 E2.82322
G1 X149.330 Y144.530 E0.01673
G1 X85.670 Y80.870 E2.82322
G1 X85.670 Y81.403 E0.01673
G1 X149.330 Y145.064 E2.82322
G1 X149.330 Y145.597 E0.01673
G1 X85.670 Y81.937 E2.82322
G1 X85.670 Y82.470 E0.01673
G1 X149.330 Y146.130 E2.82322
G1 X149.330 Y146.664 E0.01673
G1 X85.670 Y83.003 E2.82322
G1 X85.670 Y83.537 E0.01673
G1 X149.330 Y147.197 E2.82322
G1 X149.330 Y147.730 E0.01673
G1 X85.670 Y84.070 E2.82322
G1 X85.670 Y84.603 E0.01673
G1 X149.330 Y148.264 E2.82322
G1 X149.330 Y148.797 E0.01673
G1 X85.670 Y85.137 E2.82322
G1 X85.670 Y85.670 E0.01673
G1 X149.330 Y149.330 E2.82322
G1 X149.330 Y149.864 E0.01673
G1 X85.670 Y86.203 E2.82322
G1 X85.670 Y86.737 E0.01673
G1 X149.330 Y150.397 E2.82322
G1 X149.330 Y150.930 E0.01673
G1 X85.670 Y87.270 E2.82322
G1 X85.670 Y87.804 E0.01673
G1 X149.330 Y151.464 E2.82322
G1 X149.330 Y151.997 E0.01673
G1 X85.670 Y88.337 E2.82322
G1 X85.670 Y88.870 E0.01673
G1 X149.330 Y152.530 E2.82322
G1 X149.330 Y153.064 E0.01673
G1 X85.670 Y89.404 E2.82322
G1 X85.670 Y89.937 E0.01673
G1 X149.330 Y153.597 E2.82322
G1 X149.330 Y154.131 E0.01673
G1 X85.670 Y90.470 E2.82322
G1 X85.670 Y91.004 E0.01673
G1 X149.330 Y154.664 E2.82322
G1 X149.330 Y155.197 E0.01673
G1 X85.670 Y91.537 E2.82322
G1 X85.670 Y92.070 E0.01673
G1 X149.330 Y155.731 E2.82322
G1 X149.330 Y156.264 E0.01673
G1 X85.670 Y92.604 E2.82322
G1 X85.670 Y93.137 E0.01673
G1 X149.330 Y156.797 E2.82322
G1 X149.330 Y157.331 E0.01673
G1 X85.670 Y93.670 E2.82322
G1 X85.670 Y94.204 E0.01673
G1 X149.330 Y157.864 E2.82322
G1 X149.330 Y158.397 E0.01673
G1 X85.670 Y94.737 E2.82322
G1 X85.670 Y95.270 E0.01673
G1 X149.330 Y158.931 E2.82322
G1 X149.330 Y159.464 E0.01673
G1 X85.670 Y95.804 E2.82322
G1 X85.670 Y96.337 E0.01673
G1 X149.330 Y159.997 E2.82322
G1 X149.330 Y160.531 E0.01673
G1 X85.670 Y96.871 E2.82322
G1 X85.670 Y97.404 E0.01673
G1 X149.330 Y161.064 E2.82322
G1 X149.330 Y161.597 E0.01673
G1 X85.670 Y97.937 E2.82322
G1 X85.670 Y98.471 E0.01673
G1 X149.330 Y162.131 E2.82322
G1 X149.330 Y162.664 E0.01673
G1 X85.670 Y99.004 E2.82322
G1 X85.670 Y99.537 E0.01673
G1 X149.330 Y163.198 E2.82322
G1 X149.330 Y163.731 E0.01673
G1 X85.670 Y100.071 E2.82322
G1 X85.670 Y100.604 E0.01673
