; generated by PrusaSlicer 2.2.0+ on 2020-11-20 at 17:30:20 UTC

; 

; external perimeters extrusion width = 0.45mm
; perimeters extrusion width = 0.45mm
; infill extrusion width = 0.45mm
; solid infill extrusion width = 0.45mm
; top infill extrusion width = 0.40mm
; first layer extrusion width = 0.42mm

M201 X500 Y500 Z100 E5000 ; sets maximum accelerations, mm/sec^2
M203 X500 Y500 Z10 E60 ; sets maximum feedrates, mm/sec
M204 P500 R1000 T500 ; sets acceleration (P, T) and retract acceleration (R), mm/sec^2
M205 X8.00 Y8.00 Z0.40 E5.00 ; sets the jerk limits, mm/sec
M205 S0 T0 ; sets the minimum extruding and travel feed rate, mm/sec
M107
G90 ; use absolute coordinates
M83 ; extruder relative mode
M104 S200 ; set extruder temp
M140 S60 ; set bed temp
M190 S60 ; wait for bed temp
M109 S200 ; wait for extruder temp
G28 ; home all
G1 Z2 F240
G1 X2 Y10 F3000
G1 Z0.28 F240
G92 E0.0
G1 Y190 E15.0 F1500.0 ; intro line
G1 X2.3 F5000
G1 Y10 E30 F1200.0 ; intro line
G92 E0.0
G21 ; set units to millimeters
G90 ; use absolute coordinates
M83 ; use relative distances for extrusion
; Filament gcode
;BEFORE_LAYER_CHANGE
;0.2


G1 E-1.00000 F3600.00000
G1 Z0.200 F9000.000
;AFTER_LAYER_CHANGE
;0.2
G1 X61.026 Y101.460
G1 E1.00000 F2400.00000
G1 F1200.000
G1 X61.618 Y101.118 E0.02142
G1 X62.328 Y100.954 E0.02284
G1 X143.079 Y95.251 E2.53821
G1 X167.995 Y95.248 E0.78123
G1 X168.729 Y95.365 E0.02331
G1 X169.391 Y95.704 E0.02331
G1 X172.382 Y98.192 E0.12198
G1 X172.877 Y98.810 E0.02484
G1 X174.643 Y102.296 E0.12252
G1 X174.835 Y102.881 E0.01929
G1 X174.862 Y105.595 E0.08511
G1 X174.706 Y106.210 E0.01989
G1 X174.394 Y106.762 E0.01989
G1 X174.012 Y107.159 E0.01728
G1 X135.008 Y139.163 E1.58194
G1 X134.381 Y139.533 E0.02284
G1 X133.255 Y139.752 E0.03597
G1 X62.456 Y139.702 E2.21983
G1 X61.771 Y139.588 E0.02178
G1 X61.148 Y139.280 E0.02178
G1 X60.641 Y138.806 E0.02178
G1 X60.292 Y138.206 E0.02178
G1 X60.123 Y137.336 E0.02778
G1 X60.124 Y103.241 E1.06901
G1 X60.246 Y102.569 E0.02142
G1 X60.555 Y101.959 E0.02142
G1 X60.985 Y101.503 E0.01966
G1 E-0.70000 F3600.00000
G1 F7200.000
G1 X61.497 Y101.191 E-0.28500
G1 E-0.01500 F3600.00000
G1 X63.087 Y103.912 F9000.000
G1 E1.00000 F2400.00000
G1 F1200.000
G1 X143.337 Y103.912 E2.51618
G1 X143.337 Y100.438 E0.10893
G1 X140.987 Y100.438 E0.07368
G1 X140.987 Y100.240 E0.00619
G1 X143.421 Y98.212 E0.09933
G1 X147.786 Y98.218 E0.13686
G1 X150.213 Y100.240 E0.09906
G1 X150.213 Y100.438 E0.00619
G1 X147.863 Y100.438 E0.07368
G1 X147.863 Y103.912 E0.10893
G1 X163.337 Y103.912 E0.48518
G1 X163.337 Y100.438 E0.10893
G1 X160.987 Y100.438 E0.07368
G1 X160.987 Y100.240 E0.00619
G1 X163.421 Y98.212 E0.09934
G1 X167.779 Y98.212 E0.13663
G1 X170.213 Y100.240 E0.09934
G1 X170.213 Y100.438 E0.00619
G1 X167.863 Y100.438 E0.07368
G1 X167.863 Y103.912 E0.10893
G1 X171.913 Y103.912 E0.12698
G1 X171.913 Y104.856 E0.02961
G1 X133.975 Y136.020 E1.53937
G1 X133.257 Y136.738 E0.03185
G1 X63.087 Y136.738 E2.20012
G1 X63.087 Y103.972 E1.02735
G1 E-0.70000 F3600.00000
G1 F7200.000
G1 X63.687 Y103.972 E-0.28500
G1 E-0.01500 F3600.00000
G1 X168.240 Y100.815 F9000.000
G1 E1.00000 F2400.00000
G1 F1200.000
G1 X168.240 Y103.535 E0.08528
G1 X172.290 Y103.535 E0.12698
G1 X172.290 Y105.115 E0.04954
G1 X172.192 Y105.115 E0.00307
G1 X134.229 Y136.299 E1.54041
G1 X133.413 Y137.115 E0.03617
G1 X62.710 Y137.115 E2.21684
G1 X62.710 Y103.535 E1.05288
G1 X142.960 Y103.535 E2.51618
G1 X142.960 Y100.815 E0.08528
G1 X140.610 Y100.815 E0.07368
G1 X140.610 Y100.064 E0.02355
G1 X143.285 Y97.835 E0.10916
G1 X147.923 Y97.841 E0.14543
G1 X150.590 Y100.064 E0.10887
G1 X150.590 Y100.815 E0.02355
G1 X148.240 Y100.815 E0.07368
G1 X148.240 Y103.535 E0.08528
G1 X162.960 Y103.535 E0.46154
G1 X162.960 Y100.815 E0.08528
G1 X160.610 Y100.815 E0.07368
G1 X160.610 Y100.064 E0.02355
G1 X163.285 Y97.835 E0.10916
G1 X167.915 Y97.835 E0.14519
G1 X170.590 Y100.064 E0.10916
G1 X170.590 Y100.815 E0.02355
G1 X168.300 Y100.815 E0.07180
G1 X167.842 Y100.856 F9000.000
G1 X169.368 Y100.325
G1 F1200.000
G1 X167.539 Y98.495 E0.08136
G1 X167.004 Y98.495 E0.01681
G1 X168.664 Y100.155 E0.07382
G1 X168.129 Y100.155 E0.01681
G1 X166.469 Y98.495 E0.07382
G1 X165.934 Y98.495 E0.01681
G1 X167.595 Y100.155 E0.07382
G1 X167.580 Y100.155 E0.00046
G1 X167.580 Y100.675 E0.01636
G1 X165.400 Y98.495 E0.09695
G1 X164.865 Y98.495 E0.01681
G1 X167.580 Y101.210 E0.12073
G1 X167.580 Y101.745 E0.01681
G1 X164.330 Y98.495 E0.14450
G1 X163.795 Y98.495 E0.01681
G1 X167.580 Y102.280 E0.16828
G1 X167.580 Y102.814 E0.01681
G1 X163.380 Y98.614 E0.18674
G1 X163.089 Y98.857 E0.01194
G1 X167.750 Y103.519 E0.20726
G1 E-0.70000 F3600.00000
G1 F7200.000
G1 X167.326 Y103.094 E-0.28500
G1 E-0.01500 F3600.00000
G1 X171.749 Y104.844 F9000.000
G1 E1.00000 F2400.00000
G1 F1200.000
G1 X171.100 Y104.195 E0.02888
G1 X170.565 Y104.195 E0.01681
G1 X171.335 Y104.965 E0.03425
G1 X171.042 Y105.206 E0.01194
G1 X170.030 Y104.195 E0.04497
G1 X169.495 Y104.195 E0.01681
G1 X170.748 Y105.447 E0.05569
G1 X170.454 Y105.689 E0.01194
G1 X168.961 Y104.195 E0.06641
G1 X168.426 Y104.195 E0.01681
G1 X170.161 Y105.930 E0.07714
G1 X169.867 Y106.171 E0.01194
G1 X162.797 Y99.100 E0.31437
G1 X162.505 Y99.344 E0.01194
G1 X169.574 Y106.412 E0.31429
G1 X169.280 Y106.653 E0.01194
G1 X163.620 Y100.993 E0.25167
G1 X163.620 Y101.528 E0.01681
G1 X168.986 Y106.894 E0.23862
G1 X168.693 Y107.135 E0.01194
G1 X163.620 Y102.062 E0.22556
G1 X163.620 Y102.597 E0.01681
G1 X168.399 Y107.377 E0.21251
G1 X168.106 Y107.618 E0.01194
G1 X163.620 Y103.132 E0.19946
G1 X163.620 Y103.667 E0.01681
G1 X167.812 Y107.859 E0.18640
G1 X167.519 Y108.100 E0.01194
G1 X163.613 Y104.195 E0.17364
G1 X163.079 Y104.195 E0.01681
G1 X167.225 Y108.341 E0.18436
G1 X166.931 Y108.582 E0.01194
G1 X162.544 Y104.195 E0.19508
G1 X162.009 Y104.195 E0.01681
G1 X166.638 Y108.824 E0.20580
G1 X166.344 Y109.065 E0.01194
G1 X161.474 Y104.195 E0.21653
G1 X160.940 Y104.195 E0.01681
G1 X166.051 Y109.306 E0.22725
G1 X165.757 Y109.547 E0.01194
G1 X160.405 Y104.195 E0.23797
G1 X159.870 Y104.195 E0.01681
G1 X165.464 Y109.788 E0.24869
G1 X165.170 Y110.029 E0.01194
G1 X159.336 Y104.195 E0.25942
G1 X158.801 Y104.195 E0.01681
G1 X164.876 Y110.270 E0.27014
G1 X164.583 Y110.512 E0.01194
G1 X158.266 Y104.195 E0.28086
G1 X157.731 Y104.195 E0.01681
G1 X164.289 Y110.753 E0.29158
G1 X163.996 Y110.994 E0.01194
G1 X157.197 Y104.195 E0.30231
G1 X156.662 Y104.195 E0.01681
G1 X163.702 Y111.235 E0.31303
G1 X163.409 Y111.476 E0.01194
G1 X156.127 Y104.195 E0.32375
G1 X155.592 Y104.195 E0.01681
G1 X163.115 Y111.717 E0.33447
G1 X162.821 Y111.959 E0.01194
G1 X155.058 Y104.195 E0.34520
G1 X154.523 Y104.195 E0.01681
G1 X162.528 Y112.200 E0.35592
G1 X162.234 Y112.441 E0.01194
G1 X153.988 Y104.195 E0.36664
G1 X153.454 Y104.195 E0.01681
G1 X161.941 Y112.682 E0.37736
G1 X161.647 Y112.923 E0.01194
G1 X152.919 Y104.195 E0.38809
G1 X152.384 Y104.195 E0.01681
G1 X161.353 Y113.164 E0.39881
G1 X161.060 Y113.405 E0.01194
G1 X151.849 Y104.195 E0.40953
G1 X151.315 Y104.195 E0.01681
G1 X160.766 Y113.647 E0.42025
G1 X160.473 Y113.888 E0.01194
G1 X150.780 Y104.195 E0.43098
G1 X150.245 Y104.195 E0.01681
G1 X160.179 Y114.129 E0.44170
G1 X159.886 Y114.370 E0.01194
G1 X149.710 Y104.195 E0.45242
G1 X149.176 Y104.195 E0.01681
G1 X159.592 Y114.611 E0.46314
G1 X159.298 Y114.852 E0.01194
G1 X148.641 Y104.195 E0.47386
G1 X148.106 Y104.195 E0.01681
G1 X159.005 Y115.094 E0.48459
G1 X158.711 Y115.335 E0.01194
G1 X142.622 Y99.246 E0.71536
G1 X142.331 Y99.489 E0.01194
G1 X142.997 Y100.155 E0.02962
G1 X142.462 Y100.155 E0.01681
G1 X142.039 Y99.732 E0.01882
G1 X141.747 Y99.975 E0.01194
G1 X142.097 Y100.325 E0.01555
G1 X142.794 Y98.882 F9000.000
G1 F1200.000
G1 X147.580 Y103.669 E0.21282
G1 X147.580 Y103.134 E0.01681
G1 X143.206 Y98.760 E0.19450
G1 X143.497 Y98.517 E0.01194
G1 X147.580 Y102.599 E0.18153
G1 X147.580 Y102.065 E0.01681
G1 X144.011 Y98.496 E0.15868
G1 X144.547 Y98.497 E0.01683
G1 X147.580 Y101.530 E0.13487
G1 X147.580 Y100.995 E0.01681
G1 X145.082 Y98.497 E0.11106
G1 X145.618 Y98.498 E0.01683
G1 X147.580 Y100.460 E0.08726
G1 X147.580 Y100.155 E0.00960
G1 X147.810 Y100.155 E0.00721
G1 X146.153 Y98.499 E0.07365
G1 X146.689 Y98.499 E0.01683
G1 X148.344 Y100.155 E0.07362
G1 X148.879 Y100.155 E0.01681
G1 X147.224 Y98.500 E0.07359
G1 X147.683 Y98.501 E0.01444
G1 X148.139 Y98.880 E0.01864
G1 X149.583 Y100.325 E0.06424
G1 E-0.70000 F3600.00000
G1 F7200.000
G1 X149.159 Y99.901 E-0.28500
G1 E-0.01500 F3600.00000
G1 X161.510 Y99.952 F9000.000
G1 E1.00000 F2400.00000
G1 F1200.000
G1 X161.713 Y100.155 E0.00902
G1 X162.247 Y100.155 E0.01681
G1 X161.922 Y99.830 E0.01447
G1 X162.213 Y99.587 E0.01194
G1 X162.952 Y100.325 E0.03282
G1 E-0.70000 F3600.00000
G1 F7200.000
G1 X162.527 Y99.901 E-0.28500
G1 E-0.01500 F3600.00000
G1 X158.538 Y115.696 F9000.000
G1 E1.00000 F2400.00000
G1 F1200.000
G1 X143.620 Y100.778 E0.66332
G1 X143.620 Y101.313 E0.01681
G1 X158.124 Y115.817 E0.64490
G1 X157.831 Y116.058 E0.01194
G1 X143.620 Y101.847 E0.63185
G1 X143.620 Y102.382 E0.01681
G1 X157.537 Y116.299 E0.61880
G1 X157.243 Y116.540 E0.01194
G1 X143.620 Y102.917 E0.60574
G1 X143.620 Y103.452 E0.01681
G1 X156.950 Y116.782 E0.59269
G1 X156.656 Y117.023 E0.01194
G1 X143.620 Y103.986 E0.57964
G1 X143.620 Y104.195 E0.00655
G1 X143.294 Y104.195 E0.01026
G1 X156.363 Y117.264 E0.58109
G1 X156.069 Y117.505 E0.01194
G1 X142.759 Y104.195 E0.59181
G1 X142.224 Y104.195 E0.01681
G1 X155.775 Y117.746 E0.60253
G1 X155.482 Y117.987 E0.01194
G1 X141.689 Y104.195 E0.61326
G1 X141.155 Y104.195 E0.01681
G1 X155.188 Y118.229 E0.62398
G1 X154.895 Y118.470 E0.01194
G1 X140.620 Y104.195 E0.63470
G1 X140.085 Y104.195 E0.01681
G1 X154.601 Y118.711 E0.64542
G1 X154.308 Y118.952 E0.01194
G1 X139.550 Y104.195 E0.65615
G1 X139.016 Y104.195 E0.01681
G1 X154.014 Y119.193 E0.66687
G1 X153.720 Y119.434 E0.01194
G1 X138.481 Y104.195 E0.67759
G1 X137.946 Y104.195 E0.01681
G1 X153.427 Y119.675 E0.68831
G1 X153.133 Y119.917 E0.01194
G1 X137.412 Y104.195 E0.69904
G1 X136.877 Y104.195 E0.01681
G1 X152.840 Y120.158 E0.70976
G1 X152.546 Y120.399 E0.01194
G1 X136.342 Y104.195 E0.72048
G1 X135.807 Y104.195 E0.01681
G1 X152.253 Y120.640 E0.73120
G1 X151.959 Y120.881 E0.01194
G1 X135.273 Y104.195 E0.74193
G1 X134.738 Y104.195 E0.01681
G1 X151.665 Y121.122 E0.75265
G1 X151.372 Y121.364 E0.01194
G1 X134.203 Y104.195 E0.76337
G1 X133.668 Y104.195 E0.01681
G1 X151.078 Y121.605 E0.77409
G1 X150.785 Y121.846 E0.01194
G1 X133.134 Y104.195 E0.78481
G1 X132.599 Y104.195 E0.01681
G1 X150.491 Y122.087 E0.79554
G1 X150.197 Y122.328 E0.01194
G1 X132.064 Y104.195 E0.80626
G1 X131.530 Y104.195 E0.01681
G1 X149.904 Y122.569 E0.81698
G1 X149.610 Y122.810 E0.01194
G1 X130.995 Y104.195 E0.82770
G1 X130.460 Y104.195 E0.01681
G1 X149.317 Y123.052 E0.83843
G1 X149.023 Y123.293 E0.01194
G1 X129.925 Y104.195 E0.84915
G1 X129.391 Y104.195 E0.01681
G1 X148.730 Y123.534 E0.85987
G1 X148.436 Y123.775 E0.01194
G1 X128.856 Y104.195 E0.87059
G1 X128.321 Y104.195 E0.01681
G1 X148.142 Y124.016 E0.88132
G1 X147.849 Y124.257 E0.01194
G1 X127.786 Y104.195 E0.89204
G1 X127.252 Y104.195 E0.01681
G1 X147.555 Y124.498 E0.90276
G1 X147.262 Y124.740 E0.01194
G1 X126.717 Y104.195 E0.91348
G1 X126.182 Y104.195 E0.01681
G1 X146.968 Y124.981 E0.92421
G1 X146.675 Y125.222 E0.01194
G1 X125.647 Y104.195 E0.93493
G1 X125.113 Y104.195 E0.01681
G1 X146.381 Y125.463 E0.94565
G1 X146.087 Y125.704 E0.01194
G1 X124.578 Y104.195 E0.95637
G1 X124.043 Y104.195 E0.01681
G1 X145.794 Y125.945 E0.96710
G1 X145.500 Y126.187 E0.01194
G1 X123.509 Y104.195 E0.97782
G1 X122.974 Y104.195 E0.01681
G1 X145.207 Y126.428 E0.98854
G1 X144.913 Y126.669 E0.01194
G1 X122.439 Y104.195 E0.99926
G1 X121.904 Y104.195 E0.01681
G1 X144.620 Y126.910 E1.00999
G1 X144.326 Y127.151 E0.01194
G1 X121.370 Y104.195 E1.02071
G1 X120.835 Y104.195 E0.01681
G1 X144.032 Y127.392 E1.03143
G1 X143.739 Y127.633 E0.01194
G1 X120.300 Y104.195 E1.04215
G1 X119.765 Y104.195 E0.01681
G1 X143.445 Y127.875 E1.05288
G1 X143.152 Y128.116 E0.01194
G1 X119.231 Y104.195 E1.06360
G1 X118.696 Y104.195 E0.01681
G1 X142.858 Y128.357 E1.07432
G1 X142.564 Y128.598 E0.01194
G1 X118.161 Y104.195 E1.08504
G1 X117.627 Y104.195 E0.01681
G1 X142.271 Y128.839 E1.09576
G1 X141.977 Y129.080 E0.01194
G1 X117.092 Y104.195 E1.10649
G1 X116.557 Y104.195 E0.01681
G1 X141.684 Y129.322 E1.11721
G1 X141.390 Y129.563 E0.01194
G1 X116.022 Y104.195 E1.12793
G1 X115.488 Y104.195 E0.01681
G1 X141.097 Y129.804 E1.13865
G1 X140.803 Y130.045 E0.01194
G1 X114.953 Y104.195 E1.14938
G1 X114.418 Y104.195 E0.01681
G1 X140.509 Y130.286 E1.16010
G1 X140.216 Y130.527 E0.01194
G1 X113.883 Y104.195 E1.17082
G1 X113.349 Y104.195 E0.01681
G1 X139.922 Y130.768 E1.18154
G1 X139.629 Y131.010 E0.01194
G1 X112.814 Y104.195 E1.19227
G1 X112.279 Y104.195 E0.01681
G1 X139.335 Y131.251 E1.20299
G1 X139.042 Y131.492 E0.01194
G1 X111.744 Y104.195 E1.21371
G1 X111.210 Y104.195 E0.01681
G1 X138.748 Y131.733 E1.22443
G1 X138.454 Y131.974 E0.01194
G1 X110.675 Y104.195 E1.23516
G1 X110.140 Y104.195 E0.01681
G1 X138.161 Y132.215 E1.24588
G1 X137.867 Y132.457 E0.01194
G1 X109.606 Y104.195 E1.25660
G1 X109.071 Y104.195 E0.01681
G1 X137.574 Y132.698 E1.26732
G1 X137.280 Y132.939 E0.01194
G1 X108.536 Y104.195 E1.27805
G1 X108.001 Y104.195 E0.01681
G1 X136.986 Y133.180 E1.28877
G1 X136.693 Y133.421 E0.01194
G1 X107.467 Y104.195 E1.29949
G1 X106.932 Y104.195 E0.01681
G1 X136.399 Y133.662 E1.31021
G1 X136.106 Y133.903 E0.01194
G1 X106.397 Y104.195 E1.32094
G1 X105.862 Y104.195 E0.01681
G1 X135.812 Y134.145 E1.33166
G1 X135.519 Y134.386 E0.01194
G1 X105.328 Y104.195 E1.34238
G1 X104.793 Y104.195 E0.01681
G1 X135.225 Y134.627 E1.35310
G1 X134.931 Y134.868 E0.01194
G1 X104.258 Y104.195 E1.36383
G1 X103.724 Y104.195 E0.01681
G1 X134.638 Y135.109 E1.37455
G1 X134.344 Y135.350 E0.01194
G1 X103.189 Y104.195 E1.38527
G1 X102.654 Y104.195 E0.01681
G1 X134.051 Y135.592 E1.39599
G1 X133.760 Y135.835 E0.01193
G1 X102.119 Y104.195 E1.40683
G1 X101.585 Y104.195 E0.01681
G1 X133.492 Y136.103 E1.41871
G1 X133.225 Y136.370 E0.01189
G1 X101.050 Y104.195 E1.43060
G1 X100.515 Y104.195 E0.01681
G1 X132.775 Y136.455 E1.43439
G1 X132.241 Y136.455 E0.01681
G1 X99.980 Y104.195 E1.43439
G1 X99.446 Y104.195 E0.01681
G1 X131.706 Y136.455 E1.43439
G1 X131.171 Y136.455 E0.01681
G1 X98.911 Y104.195 E1.43439
G1 X98.376 Y104.195 E0.01681
G1 X130.636 Y136.455 E1.43439
G1 X130.102 Y136.455 E0.01681
G1 X97.841 Y104.195 E1.43439
G1 X97.307 Y104.195 E0.01681
G1 X129.567 Y136.455 E1.43439
G1 X129.032 Y136.455 E0.01681
G1 X96.772 Y104.195 E1.43439
G1 X96.237 Y104.195 E0.01681
G1 X128.498 Y136.455 E1.43439
G1 X127.963 Y136.455 E0.01681
G1 X95.703 Y104.195 E1.43439
G1 X95.168 Y104.195 E0.01681
G1 X127.428 Y136.455 E1.43439
G1 X126.893 Y136.455 E0.01681
G1 X94.633 Y104.195 E1.43439
G1 X94.098 Y104.195 E0.01681
G1 X126.359 Y136.455 E1.43439
G1 X125.824 Y136.455 E0.01681
G1 X93.564 Y104.195 E1.43439
G1 X93.029 Y104.195 E0.01681
G1 X125.289 Y136.455 E1.43439
G1 X124.754 Y136.455 E0.01681
G1 X92.494 Y104.195 E1.43439
G1 X91.959 Y104.195 E0.01681
G1 X124.220 Y136.455 E1.43439
G1 X123.685 Y136.455 E0.01681
G1 X91.425 Y104.195 E1.43439
G1 X90.890 Y104.195 E0.01681
G1 X123.150 Y136.455 E1.43439
G1 X122.615 Y136.455 E0.01681
G1 X90.355 Y104.195 E1.43439
G1 X89.821 Y104.195 E0.01681
G1 X122.081 Y136.455 E1.43439
G1 X121.546 Y136.455 E0.01681
G1 X89.286 Y104.195 E1.43439
G1 X88.751 Y104.195 E0.01681
G1 X121.011 Y136.455 E1.43439
G1 X120.477 Y136.455 E0.01681
G1 X88.216 Y104.195 E1.43439
G1 X87.682 Y104.195 E0.01681
G1 X119.942 Y136.455 E1.43439
G1 X119.407 Y136.455 E0.01681
G1 X87.147 Y104.195 E1.43439
G1 X86.612 Y104.195 E0.01681
G1 X118.872 Y136.455 E1.43439
G1 X118.338 Y136.455 E0.01681
G1 X86.077 Y104.195 E1.43439
G1 X85.543 Y104.195 E0.01681
G1 X117.803 Y136.455 E1.43439
G1 X117.268 Y136.455 E0.01681
G1 X85.008 Y104.195 E1.43439
G1 X84.473 Y104.195 E0.01681
G1 X116.733 Y136.455 E1.43439
G1 X116.199 Y136.455 E0.01681
G1 X83.938 Y104.195 E1.43439
G1 X83.404 Y104.195 E0.01681
G1 X115.664 Y136.455 E1.43439
G1 X115.129 Y136.455 E0.01681
