; generated by PrusaSlicer 2.2.0+ on 2020-11-12 at 20:00:57 UTC

; 

; external perimeters extrusion width = 0.45mm
; perimeters extrusion width = 0.45mm
; infill extrusion width = 0.45mm
; solid infill extrusion width = 0.45mm
; top infill extrusion width = 0.40mm
; first layer extrusion width = 0.42mm

M201 X500 Y500 Z100 E5000 ; sets maximum accelerations, mm/sec^2
M203 X500 Y500 Z10 E60 ; sets maximum feedrates, mm/sec
M204 P500 R1000 T500 ; sets acceleration (P, T) and retract acceleration (R), mm/sec^2
M205 X8.00 Y8.00 Z0.40 E5.00 ; sets the jerk limits, mm/sec
M205 S0 T0 ; sets the minimum extruding and travel feed rate, mm/sec
M107
G90 ; use absolute coordinates
M83 ; extruder relative mode
M104 S200 ; set extruder temp
M140 S50 ; set bed temp
M190 S50 ; wait for bed temp
M109 S200 ; wait for extruder temp
G28 ; home all
G1 Z2 F240
G1 X2 Y10 F3000
G1 Z0.28 F240
G92 E0.0
G1 Y190 E15.0 F1500.0 ; intro line
G1 X2.3 F5000
G1 Y10 E30 F1200.0 ; intro line
G92 E0.0
G21 ; set units to millimeters
G90 ; use absolute coordinates
M83 ; use relative distances for extrusion
; Filament gcode
;BEFORE_LAYER_CHANGE
;0.2


G1 E-5.00000 F3600.00000
G1 Z0.200 F9000.000
;AFTER_LAYER_CHANGE
;0.2
G1 X177.632 Y25.826
G1 E5.00000 F2400.00000
G1 F1200.000
G1 X178.399 Y26.335 E0.02884
G1 X178.915 Y27.096 E0.02884
G1 X179.103 Y27.996 E0.02884
G1 X179.104 Y196.028 E5.26851
G1 X179.020 Y196.649 E0.01965
G1 X178.775 Y197.230 E0.01977
G1 X178.445 Y197.666 E0.01716
G1 X178.027 Y198.014 E0.01704
G1 X177.541 Y198.257 E0.01704
G1 X177.013 Y198.384 E0.01704
G1 X78.529 Y209.339 E3.10694
G1 X69.897 Y209.352 E0.27063
G1 X69.312 Y209.259 E0.01858
G1 X68.768 Y209.025 E0.01858
G1 X68.094 Y208.432 E0.02813
G1 X67.688 Y207.631 E0.02813
G1 X55.903 Y164.150 E1.41251
G1 X55.896 Y38.968 E3.92499
G1 X55.981 Y38.347 E0.01965
G1 X56.225 Y37.770 E0.01965
G1 X56.537 Y37.353 E0.01633
G1 X56.935 Y37.012 E0.01645
G1 X57.398 Y36.766 E0.01645
G1 X57.904 Y36.628 E0.01645
G1 X125.160 Y26.881 E2.13079
G1 X155.869 Y25.648 E0.96364
G1 X176.730 Y25.647 E0.65408
G1 X177.574 Y25.815 E0.02696
G1 E-3.50000 F3600.00000
G1 F7200.000
G1 X178.399 Y26.335 E-0.46338
G1 X178.915 Y27.096 E-0.43688
G1 X179.103 Y27.996 E-0.43688
G1 X179.103 Y28.181 E-0.08786
G1 E-0.07500 F3600.00000
G1 X176.139 Y28.611 F9000.000
G1 E5.00000 F2400.00000
G1 F1200.000
G1 X176.139 Y195.437 E5.23071
G1 X169.014 Y195.437 E0.22343
G1 X169.014 Y28.611 E5.23071
G1 X176.079 Y28.611 E0.22154
G1 X176.517 Y28.234 F9000.000
G1 F1200.000
G1 X176.517 Y195.814 E5.25435
G1 X168.637 Y195.814 E0.24707
G1 X168.637 Y28.234 E5.25435
G1 X176.457 Y28.234 E0.24519
G1 X176.510 Y28.634 F9000.000
G1 E-3.50000 F3600.00000
G1 F7200.000
G1 X176.458 Y31.234 E-1.42500
G1 E-0.07500 F3600.00000
G1 X169.127 Y194.560 F9000.000
G1 E5.00000 F2400.00000
G1 F1200.000
G1 X169.721 Y195.154 E0.02638
G1 X170.255 Y195.154 E0.01677
G1 X169.296 Y194.196 E0.04256
G1 X169.296 Y193.662 E0.01677
G1 X170.789 Y195.154 E0.06628
G1 X171.323 Y195.154 E0.01677
G1 X169.296 Y193.128 E0.09000
G1 X169.296 Y192.593 E0.01677
G1 X171.857 Y195.154 E0.11371
G1 X172.391 Y195.154 E0.01677
G1 X169.296 Y192.059 E0.13743
G1 X169.296 Y191.525 E0.01677
G1 X172.925 Y195.154 E0.16115
G1 X173.459 Y195.154 E0.01677
G1 X169.296 Y190.991 E0.18486
G1 X169.296 Y190.457 E0.01677
G1 X173.993 Y195.154 E0.20858
G1 X174.527 Y195.154 E0.01677
G1 X169.296 Y189.923 E0.23230
G1 X169.296 Y189.389 E0.01677
G1 X175.061 Y195.154 E0.25602
G1 X175.596 Y195.154 E0.01677
G1 X169.296 Y188.855 E0.27973
G1 X169.296 Y188.321 E0.01677
G1 X175.857 Y194.881 E0.29133
G1 X175.857 Y194.347 E0.01677
G1 X169.296 Y187.787 E0.29133
G1 X169.296 Y187.253 E0.01677
G1 X175.857 Y193.813 E0.29133
G1 X175.857 Y193.279 E0.01677
G1 X169.296 Y186.719 E0.29133
G1 X169.296 Y186.185 E0.01677
G1 X175.857 Y192.745 E0.29133
G1 X175.857 Y192.211 E0.01677
G1 X169.296 Y185.651 E0.29133
G1 X169.296 Y185.116 E0.01677
G1 X175.857 Y191.677 E0.29133
G1 X175.857 Y191.143 E0.01677
G1 X169.296 Y184.582 E0.29133
G1 X169.296 Y184.048 E0.01677
G1 X175.857 Y190.609 E0.29133
G1 X175.857 Y190.074 E0.01677
G1 X169.296 Y183.514 E0.29133
G1 X169.296 Y182.980 E0.01677
G1 X175.857 Y189.540 E0.29133
G1 X175.857 Y189.006 E0.01677
G1 X169.296 Y182.446 E0.29133
G1 X169.296 Y181.912 E0.01677
G1 X175.857 Y188.472 E0.29133
G1 X175.857 Y187.938 E0.01677
G1 X169.296 Y181.378 E0.29133
G1 X169.296 Y180.844 E0.01677
G1 X175.857 Y187.404 E0.29133
G1 X175.857 Y186.870 E0.01677
G1 X169.296 Y180.310 E0.29133
G1 X169.296 Y179.776 E0.01677
G1 X175.857 Y186.336 E0.29133
G1 X175.857 Y185.802 E0.01677
G1 X169.296 Y179.242 E0.29133
G1 X169.296 Y178.708 E0.01677
G1 X175.857 Y185.268 E0.29133
G1 X175.857 Y184.734 E0.01677
G1 X169.296 Y178.173 E0.29133
G1 X169.296 Y177.639 E0.01677
G1 X175.857 Y184.200 E0.29133
G1 X175.857 Y183.666 E0.01677
G1 X169.296 Y177.105 E0.29133
G1 X169.296 Y176.571 E0.01677
G1 X175.857 Y183.132 E0.29133
G1 X175.857 Y182.597 E0.01677
G1 X169.296 Y176.037 E0.29133
G1 X169.296 Y175.503 E0.01677
G1 X175.857 Y182.063 E0.29133
G1 X175.857 Y181.529 E0.01677
G1 X169.296 Y174.969 E0.29133
G1 X169.296 Y174.435 E0.01677
G1 X175.857 Y180.995 E0.29133
G1 X175.857 Y180.461 E0.01677
G1 X169.296 Y173.901 E0.29133
G1 X169.296 Y173.367 E0.01677
G1 X175.857 Y179.927 E0.29133
G1 X175.857 Y179.393 E0.01677
G1 X169.296 Y172.833 E0.29133
G1 X169.296 Y172.299 E0.01677
G1 X175.857 Y178.859 E0.29133
G1 X175.857 Y178.325 E0.01677
G1 X169.296 Y171.765 E0.29133
G1 X169.296 Y171.230 E0.01677
G1 X175.857 Y177.791 E0.29133
G1 X175.857 Y177.257 E0.01677
G1 X169.296 Y170.696 E0.29133
G1 X169.296 Y170.162 E0.01677
G1 X175.857 Y176.723 E0.29133
G1 X175.857 Y176.189 E0.01677
G1 X169.296 Y169.628 E0.29133
G1 X169.296 Y169.094 E0.01677
G1 X175.857 Y175.654 E0.29133
G1 X175.857 Y175.120 E0.01677
G1 X169.296 Y168.560 E0.29133
G1 X169.296 Y168.026 E0.01677
G1 X175.857 Y174.586 E0.29133
G1 X175.857 Y174.052 E0.01677
G1 X169.296 Y167.492 E0.29133
G1 X169.296 Y166.958 E0.01677
G1 X175.857 Y173.518 E0.29133
G1 X175.857 Y172.984 E0.01677
G1 X169.296 Y166.424 E0.29133
G1 X169.296 Y165.890 E0.01677
G1 X175.857 Y172.450 E0.29133
G1 X175.857 Y171.916 E0.01677
G1 X169.296 Y165.356 E0.29133
G1 X169.296 Y164.822 E0.01677
G1 X175.857 Y171.382 E0.29133
G1 X175.857 Y170.848 E0.01677
G1 X169.296 Y164.288 E0.29133
G1 X169.296 Y163.753 E0.01677
G1 X175.857 Y170.314 E0.29133
G1 X175.857 Y169.780 E0.01677
G1 X169.296 Y163.219 E0.29133
G1 X169.296 Y162.685 E0.01677
G1 X175.857 Y169.246 E0.29133
G1 X175.857 Y168.711 E0.01677
G1 X169.296 Y162.151 E0.29133
G1 X169.296 Y161.617 E0.01677
G1 X175.857 Y168.177 E0.29133
G1 X175.857 Y167.643 E0.01677
G1 X169.296 Y161.083 E0.29133
G1 X169.296 Y160.549 E0.01677
G1 X175.857 Y167.109 E0.29133
G1 X175.857 Y166.575 E0.01677
G1 X169.296 Y160.015 E0.29133
G1 X169.296 Y159.481 E0.01677
G1 X175.857 Y166.041 E0.29133
G1 X175.857 Y165.507 E0.01677
G1 X169.296 Y158.947 E0.29133
G1 X169.296 Y158.413 E0.01677
G1 X175.857 Y164.973 E0.29133
G1 X175.857 Y164.439 E0.01677
G1 X169.296 Y157.879 E0.29133
G1 X169.296 Y157.345 E0.01677
G1 X175.857 Y163.905 E0.29133
G1 X175.857 Y163.371 E0.01677
G1 X169.296 Y156.810 E0.29133
G1 X169.296 Y156.276 E0.01677
G1 X175.857 Y162.837 E0.29133
G1 X175.857 Y162.303 E0.01677
G1 X169.296 Y155.742 E0.29133
G1 X169.296 Y155.208 E0.01677
G1 X175.857 Y161.769 E0.29133
G1 X175.857 Y161.234 E0.01677
G1 X169.296 Y154.674 E0.29133
G1 X169.296 Y154.140 E0.01677
G1 X175.857 Y160.700 E0.29133
G1 X175.857 Y160.166 E0.01677
G1 X169.296 Y153.606 E0.29133
G1 X169.296 Y153.072 E0.01677
G1 X175.857 Y159.632 E0.29133
G1 X175.857 Y159.098 E0.01677
G1 X169.296 Y152.538 E0.29133
G1 X169.296 Y152.004 E0.01677
G1 X175.857 Y158.564 E0.29133
G1 X175.857 Y158.030 E0.01677
G1 X169.296 Y151.470 E0.29133
G1 X169.296 Y150.936 E0.01677
G1 X175.857 Y157.496 E0.29133
G1 X175.857 Y156.962 E0.01677
G1 X169.296 Y150.402 E0.29133
G1 X169.296 Y149.867 E0.01677
G1 X175.857 Y156.428 E0.29133
G1 X175.857 Y155.894 E0.01677
G1 X169.296 Y149.333 E0.29133
G1 X169.296 Y148.799 E0.01677
G1 X175.857 Y155.360 E0.29133
G1 X175.857 Y154.826 E0.01677
G1 X169.296 Y148.265 E0.29133
G1 X169.296 Y147.731 E0.01677
G1 X175.857 Y154.291 E0.29133
G1 X175.857 Y153.757 E0.01677
G1 X169.296 Y147.197 E0.29133
G1 X169.296 Y146.663 E0.01677
G1 X175.857 Y153.223 E0.29133
G1 X175.857 Y152.689 E0.01677
G1 X169.296 Y146.129 E0.29133
G1 X169.296 Y145.595 E0.01677
G1 X175.857 Y152.155 E0.29133
G1 X175.857 Y151.621 E0.01677
G1 X169.296 Y145.061 E0.29133
G1 X169.296 Y144.527 E0.01677
G1 X175.857 Y151.087 E0.29133
G1 X175.857 Y150.553 E0.01677
G1 X169.296 Y143.993 E0.29133
G1 X169.296 Y143.459 E0.01677
G1 X175.857 Y150.019 E0.29133
G1 X175.857 Y149.485 E0.01677
G1 X169.296 Y142.925 E0.29133
G1 X169.296 Y142.390 E0.01677
G1 X175.857 Y148.951 E0.29133
G1 X175.857 Y148.417 E0.01677
G1 X169.296 Y141.856 E0.29133
G1 X169.296 Y141.322 E0.01677
G1 X175.857 Y147.883 E0.29133
G1 X175.857 Y147.348 E0.01677
G1 X169.296 Y140.788 E0.29133
G1 X169.296 Y140.254 E0.01677
G1 X175.857 Y146.814 E0.29133
G1 X175.857 Y146.280 E0.01677
G1 X169.296 Y139.720 E0.29133
G1 X169.296 Y139.186 E0.01677
G1 X175.857 Y145.746 E0.29133
G1 X175.857 Y145.212 E0.01677
G1 X169.296 Y138.652 E0.29133
G1 X169.296 Y138.118 E0.01677
G1 X175.857 Y144.678 E0.29133
G1 X175.857 Y144.144 E0.01677
G1 X169.296 Y137.584 E0.29133
G1 X169.296 Y137.050 E0.01677
G1 X175.857 Y143.610 E0.29133
G1 X175.857 Y143.076 E0.01677
G1 X169.296 Y136.516 E0.29133
G1 X169.296 Y135.982 E0.01677
G1 X175.857 Y142.542 E0.29133
G1 X175.857 Y142.008 E0.01677
G1 X169.296 Y135.447 E0.29133
G1 X169.296 Y134.913 E0.01677
G1 X175.857 Y141.474 E0.29133
G1 X175.857 Y140.940 E0.01677
G1 X169.296 Y134.379 E0.29133
G1 X169.296 Y133.845 E0.01677
G1 X175.857 Y140.406 E0.29133
G1 X175.857 Y139.871 E0.01677
G1 X169.296 Y133.311 E0.29133
G1 X169.296 Y132.777 E0.01677
G1 X175.857 Y139.337 E0.29133
G1 X175.857 Y138.803 E0.01677
G1 X169.296 Y132.243 E0.29133
G1 X169.296 Y131.709 E0.01677
G1 X175.857 Y138.269 E0.29133
G1 X175.857 Y137.735 E0.01677
G1 X169.296 Y131.175 E0.29133
G1 X169.296 Y130.641 E0.01677
G1 X175.857 Y137.201 E0.29133
G1 X175.857 Y136.667 E0.01677
G1 X169.296 Y130.107 E0.29133
G1 X169.296 Y129.573 E0.01677
G1 X175.857 Y136.133 E0.29133
G1 X175.857 Y135.599 E0.01677
G1 X169.296 Y129.039 E0.29133
G1 X169.296 Y128.504 E0.01677
G1 X175.857 Y135.065 E0.29133
G1 X175.857 Y134.531 E0.01677
G1 X169.296 Y127.970 E0.29133
G1 X169.296 Y127.436 E0.01677
G1 X175.857 Y133.997 E0.29133
G1 X175.857 Y133.463 E0.01677
G1 X169.296 Y126.902 E0.29133
G1 X169.296 Y126.368 E0.01677
G1 X175.857 Y132.928 E0.29133
G1 X175.857 Y132.394 E0.01677
G1 X169.296 Y125.834 E0.29133
G1 X169.296 Y125.300 E0.01677
G1 X175.857 Y131.860 E0.29133
G1 X175.857 Y131.326 E0.01677
G1 X169.296 Y124.766 E0.29133
G1 X169.296 Y124.232 E0.01677
G1 X175.857 Y130.792 E0.29133
G1 X175.857 Y130.258 E0.01677
G1 X169.296 Y123.698 E0.29133
G1 X169.296 Y123.164 E0.01677
G1 X175.857 Y129.724 E0.29133
G1 X175.857 Y129.190 E0.01677
G1 X169.296 Y122.630 E0.29133
G1 X169.296 Y122.096 E0.01677
G1 X175.857 Y128.656 E0.29133
G1 X175.857 Y128.122 E0.01677
G1 X169.296 Y121.562 E0.29133
G1 X169.296 Y121.027 E0.01677
G1 X175.857 Y127.588 E0.29133
G1 X175.857 Y127.054 E0.01677
G1 X169.296 Y120.493 E0.29133
G1 X169.296 Y119.959 E0.01677
G1 X175.857 Y126.520 E0.29133
G1 X175.857 Y125.985 E0.01677
G1 X169.296 Y119.425 E0.29133
G1 X169.296 Y118.891 E0.01677
G1 X175.857 Y125.451 E0.29133
G1 X175.857 Y124.917 E0.01677
G1 X169.296 Y118.357 E0.29133
G1 X169.296 Y117.823 E0.01677
G1 X175.857 Y124.383 E0.29133
G1 X175.857 Y123.849 E0.01677
G1 X169.296 Y117.289 E0.29133
G1 X169.296 Y116.755 E0.01677
G1 X175.857 Y123.315 E0.29133
G1 X175.857 Y122.781 E0.01677
G1 X169.296 Y116.221 E0.29133
G1 X169.296 Y115.687 E0.01677
G1 X175.857 Y122.247 E0.29133
G1 X175.857 Y121.713 E0.01677
G1 X169.296 Y115.153 E0.29133
G1 X169.296 Y114.619 E0.01677
G1 X175.857 Y121.179 E0.29133
G1 X175.857 Y120.645 E0.01677
G1 X169.296 Y114.084 E0.29133
G1 X169.296 Y113.550 E0.01677
G1 X175.857 Y120.111 E0.29133
G1 X175.857 Y119.577 E0.01677
G1 X169.296 Y113.016 E0.29133
G1 X169.296 Y112.482 E0.01677
G1 X175.857 Y119.043 E0.29133
G1 X175.857 Y118.508 E0.01677
G1 X169.296 Y111.948 E0.29133
G1 X169.296 Y111.414 E0.01677
G1 X175.857 Y117.974 E0.29133
G1 X175.857 Y117.440 E0.01677
G1 X169.296 Y110.880 E0.29133
G1 X169.296 Y110.346 E0.01677
G1 X175.857 Y116.906 E0.29133
G1 X175.857 Y116.372 E0.01677
G1 X169.296 Y109.812 E0.29133
G1 X169.296 Y109.278 E0.01677
G1 X175.857 Y115.838 E0.29133
G1 X175.857 Y115.304 E0.01677
G1 X169.296 Y108.744 E0.29133
G1 X169.296 Y108.210 E0.01677
G1 X175.857 Y114.770 E0.29133
G1 X175.857 Y114.236 E0.01677
G1 X169.296 Y107.676 E0.29133
G1 X169.296 Y107.141 E0.01677
G1 X175.857 Y113.702 E0.29133
G1 X175.857 Y113.168 E0.01677
G1 X169.296 Y106.607 E0.29133
G1 X169.296 Y106.073 E0.01677
G1 X175.857 Y112.634 E0.29133
G1 X175.857 Y112.100 E0.01677
G1 X169.296 Y105.539 E0.29133
G1 X169.296 Y105.005 E0.01677
G1 X175.857 Y111.565 E0.29133
G1 X175.857 Y111.031 E0.01677
G1 X169.296 Y104.471 E0.29133
G1 X169.296 Y103.937 E0.01677
G1 X175.857 Y110.497 E0.29133
G1 X175.857 Y109.963 E0.01677
G1 X169.296 Y103.403 E0.29133
G1 X169.296 Y102.869 E0.01677
G1 X175.857 Y109.429 E0.29133
G1 X175.857 Y108.895 E0.01677
G1 X169.296 Y102.335 E0.29133
G1 X169.296 Y101.801 E0.01677
G1 X175.857 Y108.361 E0.29133
G1 X175.857 Y107.827 E0.01677
G1 X169.296 Y101.267 E0.29133
G1 X169.296 Y100.733 E0.01677
G1 X175.857 Y107.293 E0.29133
G1 X175.857 Y106.759 E0.01677
G1 X169.296 Y100.199 E0.29133
G1 X169.296 Y99.664 E0.01677
G1 X175.857 Y106.225 E0.29133
G1 X175.857 Y105.691 E0.01677
G1 X169.296 Y99.130 E0.29133
G1 X169.296 Y98.596 E0.01677
G1 X175.857 Y105.157 E0.29133
G1 X175.857 Y104.622 E0.01677
G1 X169.296 Y98.062 E0.29133
G1 X169.296 Y97.528 E0.01677
G1 X175.857 Y104.088 E0.29133
G1 X175.857 Y103.554 E0.01677
G1 X169.296 Y96.994 E0.29133
G1 X169.296 Y96.460 E0.01677
G1 X175.857 Y103.020 E0.29133
G1 X175.857 Y102.486 E0.01677
G1 X169.296 Y95.926 E0.29133
G1 X169.296 Y95.392 E0.01677
G1 X175.857 Y101.952 E0.29133
G1 X175.857 Y101.418 E0.01677
G1 X169.296 Y94.858 E0.29133
G1 X169.296 Y94.324 E0.01677
G1 X175.857 Y100.884 E0.29133
G1 X175.857 Y100.350 E0.01677
G1 X169.296 Y93.790 E0.29133
G1 X169.296 Y93.256 E0.01677
G1 X175.857 Y99.816 E0.29133
G1 X175.857 Y99.282 E0.01677
G1 X169.296 Y92.721 E0.29133
G1 X169.296 Y92.187 E0.01677
G1 X175.857 Y98.748 E0.29133
G1 X175.857 Y98.214 E0.01677
G1 X169.296 Y91.653 E0.29133
G1 X169.296 Y91.119 E0.01677
G1 X175.857 Y97.680 E0.29133
G1 X175.857 Y97.145 E0.01677
G1 X169.296 Y90.585 E0.29133
G1 X169.296 Y90.051 E0.01677
G1 X175.857 Y96.611 E0.29133
G1 X175.857 Y96.077 E0.01677
G1 X169.296 Y89.517 E0.29133
G1 X169.296 Y88.983 E0.01677
G1 X175.857 Y95.543 E0.29133
G1 X175.857 Y95.009 E0.01677
G1 X169.296 Y88.449 E0.29133
G1 X169.296 Y87.915 E0.01677
G1 X175.857 Y94.475 E0.29133
G1 X175.857 Y93.941 E0.01677
G1 X169.296 Y87.381 E0.29133
G1 X169.296 Y86.847 E0.01677
G1 X175.857 Y93.407 E0.29133
G1 X175.857 Y92.873 E0.01677
G1 X169.296 Y86.313 E0.29133
G1 X169.296 Y85.779 E0.01677
G1 X175.857 Y92.339 E0.29133
G1 X175.857 Y91.805 E0.01677
G1 X169.296 Y85.244 E0.29133
G1 X169.296 Y84.710 E0.01677
G1 X175.857 Y91.271 E0.29133
G1 X175.857 Y90.737 E0.01677
G1 X169.296 Y84.176 E0.29133
G1 X169.296 Y83.642 E0.01677
G1 X175.857 Y90.202 E0.29133
G1 X175.857 Y89.668 E0.01677
G1 X169.296 Y83.108 E0.29133
G1 X169.296 Y82.574 E0.01677
G1 X175.857 Y89.134 E0.29133
G1 X175.857 Y88.600 E0.01677
G1 X169.296 Y82.040 E0.29133
G1 X169.296 Y81.506 E0.01677
G1 X175.857 Y88.066 E0.29133
G1 X175.857 Y87.532 E0.01677
G1 X169.296 Y80.972 E0.29133
G1 X169.296 Y80.438 E0.01677
G1 X175.857 Y86.998 E0.29133
G1 X175.857 Y86.464 E0.01677
G1 X169.296 Y79.904 E0.29133
G1 X169.296 Y79.370 E0.01677
G1 X175.857 Y85.930 E0.29133
G1 X175.857 Y85.396 E0.01677
G1 X169.296 Y78.836 E0.29133
G1 X169.296 Y78.301 E0.01677
G1 X175.857 Y84.862 E0.29133
G1 X175.857 Y84.328 E0.01677
G1 X169.296 Y77.767 E0.29133
G1 X169.296 Y77.233 E0.01677
G1 X175.857 Y83.794 E0.29133
G1 X175.857 Y83.259 E0.01677
