;FLAVOR:Marlin
;TIME:4189
;Filament used: 2.61293m
;Layer height: 0.2
;MINX:54.936
;MINY:95.207
;MINZ:0.2
;MAXX:180.064
;MAXY:129.776
;MAXZ:10
;Generated with Cura_SteamEngine 4.8.0-beta
M140 S60
M105
M190 S60
M104 S200
M105
M109 S200
M82 ;absolute extrusion mode
M201 X500.00 Y500.00 Z100.00 E5000.00 ;Setup machine max acceleration
M203 X500.00 Y500.00 Z10.00 E50.00 ;Setup machine max feedrate
M204 P500.00 R1000.00 T500.00 ;Setup Print/Retract/Travel acceleration
M205 X8.00 Y8.00 Z0.40 E5.00 ;Setup Jerk
M220 S100 ;Reset Feedrate
M221 S100 ;Reset Flowrate

G28 ;Home

G92 E0 ;Reset Extruder
G1 Z2.0 F3000 ;Move Z Axis up
G1 X10.1 Y20 Z0.28 F5000.0 ;Move to start position
G1 X10.1 Y200.0 Z0.28 F1500.0 E15 ;Draw the first line
G1 X10.4 Y200.0 Z0.28 F5000.0 ;Move to side a little
G1 X10.4 Y20 Z0.28 F1500.0 E30 ;Draw the second line
G92 E0 ;Reset Extruder
G1 Z2.0 F3000 ;Move Z Axis up

G92 E0
G92 E0
G1 F1500 E-6.5
;LAYER_COUNT:50
;LAYER:0
M107
G0 F6000 X59.443 Y101.159 Z0.2
;TYPE:SKIRT
G1 F1500 E0
G1 F1200 X60.451 Y100.649 E0.03757
G1 X60.772 Y100.515 E0.04914
G1 X61.808 Y100.166 E0.0855
G1 X61.831 Y100.16 E0.08629
G1 X62.846 Y99.966 E0.12066
G1 X63.211 Y99.921 E0.1329
G1 X64.165 Y99.862 E0.16469
G1 X82.391 Y99.862 E0.77089
G1 X85.103 Y99.796 E0.86111
G1 X87.649 Y99.611 E0.94602
G1 X89.425 Y99.396 E1.00552
G1 X90.232 Y99.296 E1.03256
G1 X92.735 Y98.867 E1.11703
G1 X94.334 Y98.502 E1.17158
G1 X95.258 Y98.299 E1.20304
G1 X96.666 Y97.894 E1.25177
G1 X96.887 Y97.834 E1.25939
G1 X98.564 Y97.405 E1.31696
G1 X98.77 Y97.356 E1.32401
G1 X100.439 Y96.977 E1.38093
G1 X100.642 Y96.933 E1.38784
G1 X102.324 Y96.598 E1.44488
G1 X102.512 Y96.563 E1.45124
G1 X104.203 Y96.269 E1.50833
G1 X104.393 Y96.239 E1.51473
G1 X106.262 Y95.963 E1.57756
G1 X107.97 Y95.748 E1.63482
G1 X108.16 Y95.726 E1.64118
G1 X109.873 Y95.553 E1.69845
G1 X110.043 Y95.538 E1.70412
G1 X111.739 Y95.404 E1.76071
G1 X111.916 Y95.392 E1.76661
G1 X113.645 Y95.295 E1.82421
G1 X113.821 Y95.287 E1.83007
G1 X115.525 Y95.23 E1.88677
G1 X115.699 Y95.226 E1.89256
G1 X117.4 Y95.207 E1.94914
G1 X117.573 Y95.207 E1.95489
G1 X119.29 Y95.226 E2.01201
G1 X119.462 Y95.23 E2.01773
G1 X121.182 Y95.287 E2.07497
G1 X121.358 Y95.295 E2.08083
G1 X123.063 Y95.39 E2.13762
G1 X123.244 Y95.402 E2.14366
G1 X124.963 Y95.538 E2.20101
G1 X126.85 Y95.728 E2.26409
G1 X127.032 Y95.749 E2.27018
G1 X128.723 Y95.961 E2.32686
G1 X128.901 Y95.985 E2.33284
G1 X130.614 Y96.24 E2.39044
G1 X130.801 Y96.27 E2.39674
G1 X132.493 Y96.564 E2.45386
G1 X132.684 Y96.6 E2.46032
G1 X134.358 Y96.934 E2.5171
G1 X134.551 Y96.975 E2.52366
G1 X136.228 Y97.354 E2.58085
G1 X136.436 Y97.404 E2.58796
G1 X138.115 Y97.832 E2.64559
G1 X138.353 Y97.897 E2.6538
G1 X139.744 Y98.299 E2.70195
G1 X140.732 Y98.517 E2.73561
G1 X142.239 Y98.862 E2.78703
G1 X144.783 Y99.299 E2.87288
G1 X147.325 Y99.61 E2.95806
G1 X149.913 Y99.798 E3.04436
G1 X152.606 Y99.862 E3.13396
G1 X170.855 Y99.864 E3.74092
G1 X171.819 Y99.924 E3.77304
G1 X172.164 Y99.967 E3.78461
G1 X173.168 Y100.16 E3.81861
G1 X173.191 Y100.166 E3.8194
G1 X174.227 Y100.515 E3.85576
G1 X174.548 Y100.649 E3.86733
G1 X175.26 Y100.99 E3.89359
G1 X175.773 Y101.293 E3.91341
G1 X176.332 Y101.687 E3.93615
G1 X176.634 Y101.92 E3.94884
G1 X177.233 Y102.435 E3.97511
G1 X177.776 Y103.008 E4.00137
G1 X178.046 Y103.34 E4.0156
G1 X178.259 Y103.618 E4.02725
G1 X178.767 Y104.369 E4.05741
G1 X179.278 Y105.38 E4.09508
G1 X179.411 Y105.699 E4.10658
G1 X179.723 Y106.598 E4.13823
G1 X179.73 Y106.623 E4.13909
G1 X179.96 Y107.766 E4.17787
G1 X180.005 Y108.129 E4.19004
G1 X180.064 Y109.093 E4.22216
G1 X180.062 Y113.094 E4.35523
G1 X180.002 Y114.055 E4.38726
G1 X179.959 Y114.4 E4.39882
G1 X179.744 Y115.487 E4.43568
G1 X179.419 Y116.443 E4.46926
G1 X179.286 Y116.764 E4.48082
G1 X178.795 Y117.746 E4.51733
G1 X178.782 Y117.768 E4.51818
G1 X178.255 Y118.549 E4.54952
G1 X178.047 Y118.82 E4.56088
G1 X177.535 Y119.421 E4.58714
G1 X177.204 Y119.751 E4.60269
G1 X176.616 Y120.256 E4.62847
G1 X176.341 Y120.469 E4.64004
G1 X175.65 Y120.947 E4.66798
G1 X174.958 Y121.328 E4.69426
G1 X174.549 Y121.513 E4.70919
G1 X174.228 Y121.647 E4.72076
G1 X173.192 Y121.996 E4.75712
G1 X173.169 Y122.002 E4.75791
G1 X172.154 Y122.196 E4.79228
G1 X171.789 Y122.241 E4.80451
G1 X170.832 Y122.3 E4.8364
G1 X167.991 Y122.299 E4.93089
G1 X167.735 Y122.314 E4.93942
G1 X167.671 Y122.328 E4.9416
G1 X167.592 Y122.378 E4.94471
G1 X167.544 Y122.439 E4.94729
G1 X167.48 Y122.735 E4.95736
G1 X167.398 Y123.086 E4.96935
G1 X167.18 Y123.845 E4.99562
G1 X166.772 Y124.816 E5.03065
G1 X166.684 Y124.991 E5.03716
G1 X166.294 Y125.678 E5.06344
G1 X165.859 Y126.293 E5.08849
G1 X165.701 Y126.495 E5.09702
G1 X165.183 Y127.091 E5.12329
G1 X164.721 Y127.535 E5.1446
G1 X164.247 Y127.924 E5.16499
G1 X164.07 Y128.058 E5.17238
G1 X163.097 Y128.687 E5.21091
G1 X162.328 Y129.056 E5.23928
G1 X162.111 Y129.146 E5.24709
G1 X161.153 Y129.472 E5.28075
G1 X160.033 Y129.691 E5.31871
G1 X159.792 Y129.72 E5.32678
G1 X158.854 Y129.776 E5.35804
G1 X156.231 Y129.774 E5.44528
G1 X155.281 Y129.715 E5.47694
G1 X154.941 Y129.673 E5.48833
G1 X154.163 Y129.537 E5.5146
G1 X153.51 Y129.358 E5.53712
G1 X152.931 Y129.148 E5.5576
G1 X152.612 Y129.018 E5.56906
G1 X151.799 Y128.631 E5.59901
G1 X150.847 Y128.017 E5.63669
G1 X150.577 Y127.814 E5.64792
G1 X149.749 Y127.095 E5.6844
G1 X149.73 Y127.076 E5.68529
G1 X149.103 Y126.369 E5.71672
G1 X148.883 Y126.088 E5.72859
G1 X148.402 Y125.4 E5.75651
G1 X147.992 Y124.741 E5.78232
G1 X147.861 Y124.523 E5.79078
G1 X147.376 Y123.881 E5.81754
G1 X146.74 Y123.168 E5.84932
G1 X146.146 Y122.587 E5.87696
G1 X145.491 Y122.017 E5.90584
G1 X144.762 Y121.444 E5.93668
G1 X143.962 Y120.876 E5.96931
G1 X143.047 Y120.288 E6.00549
G1 X142.02 Y119.69 E6.04501
G1 X141.019 Y119.159 E6.0827
G1 X139.923 Y118.63 E6.12318
G1 X138.892 Y118.176 E6.16065
G1 X137.774 Y117.721 E6.20079
G1 X136.725 Y117.333 E6.23799
G1 X135.629 Y116.96 E6.2765
G1 X133.297 Y116.266 E6.35742
G1 X130.934 Y115.687 E6.43834
G1 X128.535 Y115.21 E6.51969
G1 X126.09 Y114.831 E6.60199
G1 X123.596 Y114.546 E6.68548
G1 X121.125 Y114.362 E6.76789
G1 X119.325 Y114.288 E6.82781
G1 X117.5 Y114.263 E6.88851
G1 X115.678 Y114.288 E6.94912
G1 X113.862 Y114.363 E7.00957
G1 X112.057 Y114.487 E7.06975
G1 X110.284 Y114.661 E7.129
G1 X107.575 Y115.025 E7.21991
G1 X104.914 Y115.505 E7.30985
G1 X103.675 Y115.772 E7.352
G1 X102.395 Y116.081 E7.3958
G1 X101.125 Y116.425 E7.43956
G1 X99.885 Y116.795 E7.4826
G1 X98.665 Y117.197 E7.52532
G1 X97.445 Y117.639 E7.56848
G1 X96.291 Y118.099 E7.6098
G1 X95.151 Y118.596 E7.65116
G1 X94.044 Y119.126 E7.69199
G1 X93.001 Y119.677 E7.73122
G1 X91.994 Y120.262 E7.76995
G1 X91.007 Y120.896 E7.80897
G1 X90.4 Y121.324 E7.83367
G1 X89.798 Y121.782 E7.85883
G1 X89.245 Y122.238 E7.88267
G1 X88.721 Y122.708 E7.90608
G1 X88.243 Y123.182 E7.92847
G1 X87.816 Y123.648 E7.9495
G1 X87.426 Y124.122 E7.96991
G1 X87.167 Y124.477 E7.98453
G1 X87.007 Y124.744 E7.99488
G1 X86.593 Y125.409 E8.02093
G1 X86.103 Y126.108 E8.04933
G1 X85.886 Y126.384 E8.061
G1 X85.367 Y126.979 E8.08726
G1 X84.918 Y127.409 E8.10794
G1 X84.427 Y127.811 E8.12905
G1 X84.156 Y128.015 E8.14033
G1 X83.354 Y128.544 E8.17228
G1 X82.343 Y129.036 E8.20968
G1 X82.067 Y129.147 E8.21957
G1 X81.323 Y129.41 E8.24582
G1 X80.555 Y129.596 E8.2721
G1 X80.061 Y129.673 E8.28873
G1 X79.705 Y129.717 E8.30066
G1 X78.742 Y129.776 E8.33275
G1 X76.121 Y129.774 E8.41993
G1 X75.176 Y129.716 E8.45142
G1 X74.948 Y129.688 E8.45906
G1 X74.17 Y129.552 E8.48533
G1 X73.512 Y129.372 E8.50802
G1 X72.98 Y129.181 E8.52682
G1 X72.765 Y129.095 E8.53452
G1 X72.048 Y128.765 E8.56077
G1 X71.058 Y128.149 E8.59955
G1 X70.857 Y128.002 E8.60783
G1 X70.075 Y127.348 E8.64174
G1 X70.053 Y127.327 E8.64275
G1 X69.284 Y126.476 E8.6809
G1 X69.133 Y126.282 E8.68908
G1 X68.68 Y125.635 E8.71535
G1 X68.263 Y124.88 E8.74403
G1 X68.167 Y124.681 E8.75138
G1 X67.86 Y123.953 E8.77766
G1 X67.593 Y123.049 E8.80901
G1 X67.516 Y122.716 E8.82038
G1 X67.457 Y122.44 E8.82977
G1 X67.425 Y122.396 E8.83158
G1 X67.371 Y122.349 E8.83396
G1 X67.325 Y122.327 E8.83565
G1 X67.309 Y122.322 E8.83621
G1 X67.258 Y122.313 E8.83793
G1 X67.023 Y122.3 E8.84576
G1 X64.141 Y122.298 E8.94162
G1 X63.181 Y122.238 E8.97361
G1 X62.836 Y122.195 E8.98517
G1 X61.832 Y122.002 E9.01918
G1 X61.809 Y121.996 E9.01997
G1 X60.781 Y121.65 E9.05604
G1 X60.459 Y121.516 E9.06764
G1 X59.443 Y121.003 E9.1055
G1 X58.677 Y120.483 E9.13629
G1 X58.403 Y120.272 E9.14779
G1 X57.647 Y119.607 E9.18128
G1 X57.628 Y119.588 E9.18218
G1 X56.961 Y118.829 E9.21578
G1 X56.751 Y118.556 E9.22724
G1 X56.27 Y117.856 E9.25549
G1 X55.88 Y117.138 E9.28266
G1 X55.708 Y116.751 E9.29675
G1 X55.576 Y116.431 E9.30826
G1 X55.256 Y115.487 E9.34142
G1 X55.041 Y114.397 E9.37837
G1 X54.996 Y114.035 E9.3905
G1 X54.936 Y113.069 E9.42269
G1 X54.938 Y109.066 E9.55583
G1 X54.999 Y108.1 E9.58803
G1 X55.042 Y107.757 E9.59952
G1 X55.256 Y106.675 E9.63621
G1 X55.262 Y106.653 E9.63697
G1 X55.586 Y105.708 E9.67019
G1 X55.72 Y105.386 E9.68179
G1 X56.06 Y104.673 E9.70807
G1 X56.322 Y104.225 E9.72533
G1 X56.762 Y103.592 E9.75097
G1 X56.998 Y103.288 E9.76377
G1 X57.513 Y102.689 E9.79004
G1 X58.086 Y102.146 E9.8163
G1 X58.414 Y101.88 E9.83034
G1 X58.692 Y101.667 E9.84199
G1 X59.443 Y101.159 E9.87215
G0 F6000 X59.649 Y101.502
G1 F1200 X60.605 Y101.018 E9.90779
G1 X60.926 Y100.884 E9.91936
G1 X61.909 Y100.553 E9.95386
G1 X61.932 Y100.547 E9.95465
G1 X62.895 Y100.363 E9.98726
G1 X63.26 Y100.318 E9.99949
G1 X64.165 Y100.262 E10.02965
G1 X82.401 Y100.262 E10.63618
G1 X85.121 Y100.196 E10.72667
G1 X87.684 Y100.009 E10.81214
G1 X89.473 Y99.793 E10.87208
G1 X90.308 Y99.69 E10.90006
G1 X92.799 Y99.262 E10.98413
G1 X94.42 Y98.893 E11.03942
G1 X95.357 Y98.687 E11.07133
G1 X96.776 Y98.279 E11.12044
G1 X96.986 Y98.222 E11.12767
G1 X98.663 Y97.793 E11.18525
G1 X98.858 Y97.746 E11.19192
G1 X100.527 Y97.367 E11.24884
G1 X100.721 Y97.326 E11.25544
G1 X102.58 Y96.957 E11.31848
G1 X104.271 Y96.663 E11.37556
G1 X104.452 Y96.634 E11.38166
G1 X106.149 Y96.382 E11.43872
G1 X108.02 Y96.145 E11.50145
G1 X108.2 Y96.124 E11.50747
G1 X109.913 Y95.951 E11.56474
G1 X111.77 Y95.803 E11.6267
G1 X111.938 Y95.792 E11.6323
G1 X113.835 Y95.687 E11.69549
G1 X115.703 Y95.626 E11.75765
G1 X117.404 Y95.607 E11.81423
G1 X117.569 Y95.607 E11.81972
G1 X119.286 Y95.626 E11.87683
G1 X121.169 Y95.687 E11.93949
G1 X121.336 Y95.694 E11.94505
G1 X123.041 Y95.789 E12.00185
G1 X123.213 Y95.801 E12.00758
G1 X124.932 Y95.937 E12.06494
G1 X126.809 Y96.126 E12.12768
G1 X126.983 Y96.145 E12.1335
G1 X128.674 Y96.357 E12.19019
G1 X130.556 Y96.636 E12.25347
G1 X130.733 Y96.664 E12.25943
G1 X132.425 Y96.958 E12.31654
G1 X132.606 Y96.992 E12.32267
G1 X134.28 Y97.326 E12.37945
G1 X134.463 Y97.365 E12.38567
G1 X136.14 Y97.744 E12.44285
G1 X136.337 Y97.791 E12.44959
G1 X138.016 Y98.219 E12.50722
G1 X138.242 Y98.281 E12.51501
G1 X139.655 Y98.689 E12.56393
G1 X140.643 Y98.907 E12.59758
G1 X142.174 Y99.258 E12.64982
G1 X144.706 Y99.692 E12.73527
G1 X147.289 Y100.008 E12.82182
G1 X149.895 Y100.197 E12.90872
G1 X152.597 Y100.262 E12.99862
G1 X170.855 Y100.264 E13.60588
G1 X171.769 Y100.321 E13.63634
G1 X172.114 Y100.364 E13.6479
G1 X173.067 Y100.547 E13.68018
G1 X173.09 Y100.553 E13.68097
G1 X174.073 Y100.884 E13.71547
G1 X174.394 Y101.018 E13.72704
G1 X175.087 Y101.351 E13.75261
G1 X175.557 Y101.63 E13.77079
G1 X176.087 Y102.003 E13.79234
G1 X176.389 Y102.236 E13.80503
G1 X176.971 Y102.739 E13.83061
G1 X177.728 Y103.583 E13.86832
G1 X177.941 Y103.861 E13.87997
G1 X178.424 Y104.575 E13.90864
G1 X178.909 Y105.534 E13.94439
G1 X179.042 Y105.853 E13.95588
G1 X179.338 Y106.706 E13.98591
G1 X179.345 Y106.731 E13.98678
G1 X179.563 Y107.816 E14.02358
G1 X179.608 Y108.179 E14.03575
G1 X179.664 Y109.093 E14.06621
G1 X179.662 Y113.094 E14.19928
G1 X179.605 Y114.005 E14.22964
G1 X179.562 Y114.35 E14.2412
G1 X179.358 Y115.382 E14.27619
G1 X179.049 Y116.29 E14.30809
G1 X178.916 Y116.611 E14.31965
G1 X178.451 Y117.543 E14.35429
G1 X178.438 Y117.565 E14.35514
G1 X177.937 Y118.306 E14.38489
G1 X177.729 Y118.577 E14.39625
G1 X177.23 Y119.162 E14.42183
G1 X176.929 Y119.461 E14.43594
G1 X176.371 Y119.939 E14.46038
G1 X176.096 Y120.152 E14.47195
G1 X175.439 Y120.607 E14.49853
G1 X174.765 Y120.977 E14.5241
G1 X174.395 Y121.144 E14.5376
G1 X174.074 Y121.278 E14.54917
G1 X173.091 Y121.609 E14.58367
G1 X173.068 Y121.615 E14.58446
G1 X172.105 Y121.799 E14.61707
G1 X171.74 Y121.844 E14.6293
G1 X170.833 Y121.9 E14.65953
G1 X167.984 Y121.899 E14.75428
G1 X167.682 Y121.917 E14.76435
G1 X167.606 Y121.931 E14.76692
G1 X167.528 Y121.955 E14.76963
G1 X167.467 Y121.981 E14.77184
G1 X167.399 Y122.022 E14.77448
G1 X167.336 Y122.069 E14.77709
G1 X167.273 Y122.13 E14.78001
G1 X167.239 Y122.172 E14.78181
G1 X167.194 Y122.243 E14.7846
G1 X167.165 Y122.303 E14.78682
G1 X167.091 Y122.644 E14.79842
G1 X167.009 Y122.995 E14.81041
G1 X166.795 Y123.734 E14.836
G1 X166.414 Y124.636 E14.86857
G1 X166.326 Y124.811 E14.87508
G1 X165.945 Y125.48 E14.90069
G1 X165.544 Y126.046 E14.92376
G1 X165.386 Y126.248 E14.93229
G1 X164.881 Y126.829 E14.95789
G1 X164.455 Y127.236 E14.97749
G1 X164.006 Y127.605 E14.99682
G1 X163.829 Y127.739 E15.0042
G1 X162.906 Y128.335 E15.04075
G1 X162.175 Y128.686 E15.06772
G1 X161.958 Y128.776 E15.07553
G1 X161.07 Y129.08 E15.10675
G1 X161.048 Y129.086 E15.10751
G1 X159.985 Y129.294 E15.14353
G1 X159.744 Y129.323 E15.15161
G1 X158.854 Y129.376 E15.18126
G1 X156.231 Y129.374 E15.2685
G1 X155.33 Y129.318 E15.29853
G1 X154.99 Y129.276 E15.30992
G1 X154.232 Y129.142 E15.33552
G1 X153.631 Y128.977 E15.35625
G1 X153.082 Y128.778 E15.37568
G1 X152.763 Y128.648 E15.38713
G1 X151.99 Y128.279 E15.41562
G1 X151.087 Y127.698 E15.45134
G1 X150.817 Y127.495 E15.46257
G1 X150.031 Y126.813 E15.49718
G1 X150.012 Y126.794 E15.49808
G1 X149.418 Y126.123 E15.52788
G1 X149.198 Y125.842 E15.53975
G1 X148.742 Y125.189 E15.56624
G1 X148.245 Y124.387 E15.59762
G1 X148.195 Y124.302 E15.6009
G1 X147.69 Y123.631 E15.62883
G1 X147.036 Y122.898 E15.66151
G1 X146.419 Y122.295 E15.6902
G1 X145.727 Y121.693 E15.72071
G1 X145.004 Y121.125 E15.75129
G1 X144.198 Y120.553 E15.78416
G1 X143.242 Y119.938 E15.82197
G1 X142.223 Y119.345 E15.86118
G1 X141.169 Y118.787 E15.90085
G1 X140.114 Y118.277 E15.93982
G1 X139.037 Y117.803 E15.97896
G1 X137.925 Y117.351 E16.01888
G1 X136.843 Y116.951 E16.05725
G1 X135.769 Y116.584 E16.095
G1 X133.386 Y115.875 E16.17769
G1 X131.02 Y115.295 E16.25872
G1 X128.623 Y114.819 E16.34
G1 X126.119 Y114.431 E16.42428
G1 X123.672 Y114.151 E16.50619
G1 X121.141 Y113.963 E16.59061
G1 X119.311 Y113.887 E16.65153
G1 X117.5 Y113.863 E16.71177
G1 X115.692 Y113.887 E16.77191
G1 X113.818 Y113.965 E16.83429
G1 X112.026 Y114.089 E16.89403
G1 X110.217 Y114.266 E16.95449
G1 X107.541 Y114.625 E17.04429
G1 X104.82 Y115.116 E17.13625
G1 X103.575 Y115.385 E17.17862
G1 X102.302 Y115.692 E17.22217
G1 X101.031 Y116.036 E17.26597
G1 X99.741 Y116.421 E17.31074
G1 X98.52 Y116.824 E17.35351
G1 X97.342 Y117.25 E17.39517
G1 X96.122 Y117.736 E17.43885
G1 X94.975 Y118.236 E17.48046
G1 X93.884 Y118.759 E17.52071
G1 X92.793 Y119.335 E17.56174
G1 X91.782 Y119.922 E17.60062
G1 X90.782 Y120.564 E17.64015
G1 X90.162 Y121.002 E17.66539
G1 X89.545 Y121.471 E17.69117
G1 X89.002 Y121.919 E17.71459
G1 X88.434 Y122.429 E17.73998
G1 X87.959 Y122.9 E17.76222
G1 X87.513 Y123.387 E17.78419
G1 X87.107 Y123.88 E17.80543
G1 X86.835 Y124.252 E17.82076
G1 X86.667 Y124.533 E17.83165
G1 X86.253 Y125.198 E17.8577
G1 X85.788 Y125.861 E17.88463
G1 X85.571 Y126.137 E17.89631
G1 X85.065 Y126.716 E17.92189
G1 X84.652 Y127.11 E17.94087
G1 X84.186 Y127.491 E17.96089
G1 X83.915 Y127.695 E17.97217
G1 X83.154 Y128.198 E18.00251
G1 X82.194 Y128.665 E18.03802
G1 X81.915 Y128.777 E18.04802
G1 X81.19 Y129.032 E18.07358
G1 X80.441 Y129.21 E18.09919
G1 X80.012 Y129.276 E18.11362
G1 X79.656 Y129.32 E18.12556
G1 X78.742 Y129.376 E18.15601
G1 X76.121 Y129.374 E18.24319
G1 X75.225 Y129.319 E18.27304
G1 X74.997 Y129.291 E18.28068
G1 X74.239 Y129.158 E18.30628
G1 X73.633 Y128.991 E18.32719
G1 X73.129 Y128.81 E18.345
G1 X72.914 Y128.724 E18.3527
