;FLAVOR:Marlin
;TIME:7160
;Filament used: 4.71032m
;Layer height: 0.2
;MINX:54.936
;MINY:67.866
;MINZ:0.2
;MAXX:180.064
;MAXY:157.134
;MAXZ:10
;Generated with Cura_SteamEngine 4.8.0-beta
M140 S60
M105
M190 S60
M104 S200
M105
M109 S200
M82 ;absolute extrusion mode
M201 X500.00 Y500.00 Z100.00 E5000.00 ;Setup machine max acceleration
M203 X500.00 Y500.00 Z10.00 E50.00 ;Setup machine max feedrate
M204 P500.00 R1000.00 T500.00 ;Setup Print/Retract/Travel acceleration
M205 X8.00 Y8.00 Z0.40 E5.00 ;Setup Jerk
M220 S100 ;Reset Feedrate
M221 S100 ;Reset Flowrate

G28 ;Home

G92 E0 ;Reset Extruder
G1 Z2.0 F3000 ;Move Z Axis up
G1 X10.1 Y20 Z0.28 F5000.0 ;Move to start position
G1 X10.1 Y200.0 Z0.28 F1500.0 E15 ;Draw the first line
G1 X10.4 Y200.0 Z0.28 F5000.0 ;Move to side a little
G1 X10.4 Y20 Z0.28 F1500.0 E30 ;Draw the second line
G92 E0 ;Reset Extruder
G1 Z2.0 F3000 ;Move Z Axis up

G92 E0
G92 E0
G1 F1500 E-6.5
;LAYER_COUNT:50
;LAYER:0
M107
G0 F6000 X85.088 Y81.811 Z0.2
;TYPE:SKIRT
G1 F1500 E0
G1 F1200 X85.454 Y81.429 E0.0176
G1 X87.224 Y79.703 E0.09982
G1 X87.608 Y79.353 E0.1171
G1 X89.494 Y77.744 E0.19956
G1 X89.914 Y77.41 E0.21741
G1 X91.911 Y75.931 E0.30006
G1 X92.329 Y75.642 E0.31696
G1 X94.4 Y74.308 E0.3989
G1 X94.856 Y74.035 E0.41657
G1 X97.033 Y72.834 E0.49927
G1 X97.504 Y72.595 E0.51684
G1 X99.751 Y71.547 E0.5993
G1 X100.227 Y71.344 E0.61651
G1 X102.524 Y70.453 E0.69846
G1 X103.022 Y70.279 E0.716
G1 X105.4 Y69.537 E0.79885
G1 X105.904 Y69.398 E0.81624
G1 X108.301 Y68.823 E0.89823
G1 X108.819 Y68.717 E0.91582
G1 X111.26 Y68.304 E0.99816
G1 X111.775 Y68.235 E1.01544
G1 X114.242 Y67.985 E1.09791
G1 X114.767 Y67.949 E1.11542
G1 X117.242 Y67.866 E1.19778
G1 X117.764 Y67.866 E1.21514
G1 X120.241 Y67.949 E1.29757
G1 X120.767 Y67.985 E1.31511
G1 X123.233 Y68.235 E1.39755
G1 X123.747 Y68.304 E1.4148
G1 X126.188 Y68.717 E1.49714
G1 X126.709 Y68.824 E1.51483
G1 X129.106 Y69.4 E1.59682
G1 X129.607 Y69.538 E1.61411
G1 X131.985 Y70.28 E1.69696
G1 X132.482 Y70.454 E1.71448
G1 X134.78 Y71.345 E1.79645
G1 X135.263 Y71.551 E1.81392
G1 X137.509 Y72.601 E1.89638
G1 X137.975 Y72.838 E1.91377
G1 X140.151 Y74.039 E1.99643
G1 X140.602 Y74.308 E2.0139
G1 X142.674 Y75.641 E2.09584
G1 X143.103 Y75.938 E2.1132
G1 X145.101 Y77.421 E2.19596
G1 X145.517 Y77.752 E2.21364
G1 X147.399 Y79.359 E2.29595
G1 X147.78 Y79.707 E2.31311
G1 X149.559 Y81.442 E2.39576
G1 X149.925 Y81.825 E2.41338
G1 X151.568 Y83.661 E2.49533
G1 X151.906 Y84.065 E2.51285
G1 X153.434 Y86.024 E2.59548
G1 X153.739 Y86.443 E2.61272
G1 X155.126 Y88.488 E2.6949
G1 X155.407 Y88.933 E2.71241
G1 X156.663 Y91.084 E2.79525
G1 X156.914 Y91.549 E2.81283
G1 X158.009 Y93.755 E2.89474
G1 X158.225 Y94.229 E2.91207
G1 X159.181 Y96.529 E2.99491
G1 X159.366 Y97.021 E3.01239
G1 X160.156 Y99.354 E3.09432
G1 X160.29 Y99.792 E3.10955
G1 X160.698 Y101.281 E3.1609
G1 X170.855 Y101.283 E3.49873
G1 X171.819 Y101.343 E3.53085
G1 X172.164 Y101.386 E3.54241
G1 X173.168 Y101.579 E3.57642
G1 X173.191 Y101.585 E3.57721
G1 X174.227 Y101.934 E3.61357
G1 X174.548 Y102.068 E3.62514
G1 X175.26 Y102.409 E3.6514
G1 X175.773 Y102.712 E3.67121
G1 X176.332 Y103.106 E3.69396
G1 X176.634 Y103.339 E3.70665
G1 X177.233 Y103.854 E3.73292
G1 X177.776 Y104.427 E3.75918
G1 X178.043 Y104.756 E3.77327
G1 X178.257 Y105.035 E3.78496
G1 X178.84 Y105.912 E3.81999
G1 X178.852 Y105.933 E3.82079
G1 X179.284 Y106.813 E3.8534
G1 X179.416 Y107.131 E3.86485
G1 X179.723 Y108.018 E3.89607
G1 X179.73 Y108.043 E3.89693
G1 X179.959 Y109.184 E3.93564
G1 X180.004 Y109.546 E3.94777
G1 X180.064 Y110.512 E3.97996
G1 X180.062 Y114.513 E4.11304
G1 X180.002 Y115.474 E4.14506
G1 X179.959 Y115.819 E4.15663
G1 X179.744 Y116.906 E4.19348
G1 X179.738 Y116.928 E4.19424
G1 X179.414 Y117.873 E4.22747
G1 X179.28 Y118.195 E4.23907
G1 X178.94 Y118.908 E4.26534
G1 X178.678 Y119.356 E4.2826
G1 X178.238 Y119.989 E4.30824
G1 X178.002 Y120.293 E4.32104
G1 X177.487 Y120.892 E4.34732
G1 X176.914 Y121.435 E4.37357
G1 X176.586 Y121.701 E4.38762
G1 X176.308 Y121.914 E4.39927
G1 X175.557 Y122.422 E4.42942
G1 X174.549 Y122.932 E4.46699
G1 X174.228 Y123.066 E4.47856
G1 X173.192 Y123.415 E4.51492
G1 X173.169 Y123.421 E4.51571
G1 X172.154 Y123.615 E4.55008
G1 X171.789 Y123.66 E4.56232
G1 X170.834 Y123.719 E4.59414
G1 X160.699 Y123.718 E4.93123
G1 X160.285 Y125.221 E4.98308
G1 X160.155 Y125.647 E4.9979
G1 X159.365 Y127.983 E5.07992
G1 X159.178 Y128.48 E5.09758
G1 X158.222 Y130.778 E5.18036
G1 X158.002 Y131.259 E5.19795
G1 X156.914 Y133.448 E5.27926
G1 X156.657 Y133.926 E5.29731
G1 X155.404 Y136.07 E5.3799
G1 X155.126 Y136.511 E5.39724
G1 X153.737 Y138.56 E5.47957
G1 X153.43 Y138.981 E5.4969
G1 X151.91 Y140.929 E5.57908
G1 X151.572 Y141.334 E5.59663
G1 X149.912 Y143.188 E5.6794
G1 X149.548 Y143.568 E5.6969
G1 X147.777 Y145.296 E5.7792
G1 X147.392 Y145.647 E5.79653
G1 X145.506 Y147.256 E5.87898
G1 X145.086 Y147.59 E5.89683
G1 X143.089 Y149.069 E5.97948
G1 X142.671 Y149.358 E5.99638
G1 X140.6 Y150.692 E6.07832
G1 X140.144 Y150.965 E6.096
G1 X137.967 Y152.166 E6.17869
G1 X137.496 Y152.405 E6.19626
G1 X135.249 Y153.453 E6.27872
G1 X134.773 Y153.656 E6.29593
G1 X132.476 Y154.547 E6.37788
G1 X131.977 Y154.722 E6.39547
G1 X129.597 Y155.464 E6.47838
G1 X129.096 Y155.601 E6.49566
G1 X126.701 Y156.176 E6.57758
G1 X126.181 Y156.283 E6.59524
G1 X123.74 Y156.696 E6.67758
G1 X123.225 Y156.765 E6.69486
G1 X120.758 Y157.015 E6.77733
G1 X120.233 Y157.051 E6.79484
G1 X117.758 Y157.134 E6.8772
G1 X117.236 Y157.134 E6.89456
G1 X114.759 Y157.051 E6.97699
G1 X114.233 Y157.015 E6.99453
G1 X111.767 Y156.765 E7.07697
G1 X111.253 Y156.696 E7.09422
G1 X108.812 Y156.283 E7.17656
G1 X108.289 Y156.176 E7.19432
G1 X105.894 Y155.6 E7.27625
G1 X105.396 Y155.463 E7.29342
G1 X103.016 Y154.721 E7.37634
G1 X102.518 Y154.546 E7.3939
G1 X100.22 Y153.655 E7.47587
G1 X99.737 Y153.449 E7.49334
G1 X97.491 Y152.399 E7.5758
G1 X97.025 Y152.162 E7.59319
G1 X94.849 Y150.961 E7.67586
G1 X94.398 Y150.692 E7.69332
G1 X92.326 Y149.359 E7.77527
G1 X91.897 Y149.062 E7.79262
G1 X89.898 Y147.578 E7.87543
G1 X89.482 Y147.247 E7.89311
G1 X87.6 Y145.64 E7.97542
G1 X87.219 Y145.292 E7.99258
G1 X85.44 Y143.557 E8.07523
G1 X85.074 Y143.174 E8.09285
G1 X83.431 Y141.338 E8.1748
G1 X83.093 Y140.934 E8.19232
G1 X81.565 Y138.975 E8.27495
G1 X81.259 Y138.555 E8.29223
G1 X79.87 Y136.506 E8.37457
G1 X79.59 Y136.062 E8.39203
G1 X78.337 Y133.916 E8.47468
G1 X78.086 Y133.45 E8.49228
G1 X76.991 Y131.243 E8.57423
G1 X76.776 Y130.771 E8.59148
G1 X75.819 Y128.47 E8.67436
G1 X75.632 Y127.975 E8.69196
G1 X74.843 Y125.643 E8.77384
G1 X74.71 Y125.208 E8.78897
G1 X74.302 Y123.719 E8.84032
G1 X64.145 Y123.717 E9.17815
G1 X63.181 Y123.657 E9.21027
G1 X62.836 Y123.614 E9.22183
G1 X61.832 Y123.421 E9.25584
G1 X61.809 Y123.415 E9.25663
G1 X60.773 Y123.066 E9.29299
G1 X60.452 Y122.932 E9.30456
G1 X59.74 Y122.591 E9.33082
G1 X59.227 Y122.288 E9.35063
G1 X58.67 Y121.896 E9.37329
G1 X58.342 Y121.642 E9.38708
G1 X57.745 Y121.125 E9.41335
G1 X57.204 Y120.55 E9.43961
G1 X56.95 Y120.236 E9.45304
G1 X56.738 Y119.959 E9.46465
G1 X56.142 Y119.056 E9.50063
G1 X56.129 Y119.033 E9.50151
G1 X55.712 Y118.177 E9.53318
G1 X55.58 Y117.858 E9.54466
G1 X55.256 Y116.906 E9.57811
G1 X55.041 Y115.816 E9.61506
G1 X54.996 Y115.454 E9.62719
G1 X54.936 Y114.488 E9.65938
G1 X54.938 Y110.487 E9.79246
G1 X54.998 Y109.526 E9.82448
G1 X55.041 Y109.181 E9.83605
G1 X55.256 Y108.094 E9.8729
G1 X55.262 Y108.072 E9.87366
G1 X55.586 Y107.127 E9.90689
G1 X55.72 Y106.805 E9.91849
G1 X56.06 Y106.092 E9.94476
G1 X56.322 Y105.644 E9.96202
G1 X56.762 Y105.011 E9.98766
G1 X56.998 Y104.707 E10.00046
G1 X57.513 Y104.108 E10.02674
G1 X58.086 Y103.565 E10.05299
G1 X58.414 Y103.299 E10.06704
G1 X58.692 Y103.086 E10.07869
G1 X59.443 Y102.578 E10.10884
G1 X60.451 Y102.068 E10.14642
G1 X60.772 Y101.934 E10.15798
G1 X61.808 Y101.585 E10.19435
G1 X61.831 Y101.579 E10.19514
G1 X62.846 Y101.385 E10.22951
G1 X63.211 Y101.34 E10.24174
G1 X64.166 Y101.281 E10.27356
G1 X74.301 Y101.282 E10.61065
G1 X74.715 Y99.779 E10.6625
G1 X74.845 Y99.353 E10.67732
G1 X75.635 Y97.017 E10.75934
G1 X75.822 Y96.52 E10.777
G1 X76.778 Y94.222 E10.85978
G1 X76.998 Y93.741 E10.87737
G1 X78.086 Y91.552 E10.95868
G1 X78.343 Y91.074 E10.97673
G1 X79.599 Y88.925 E11.05952
G1 X79.877 Y88.483 E11.07688
G1 X81.263 Y86.439 E11.15902
G1 X81.57 Y86.019 E11.17633
G1 X83.09 Y84.071 E11.25851
G1 X83.427 Y83.667 E11.276
G1 X85.088 Y81.811 E11.35885
G0 F6000 X85.386 Y82.078
G1 F1200 X85.734 Y81.715 E11.37557
G1 X87.504 Y79.989 E11.4578
G1 X87.867 Y79.657 E11.47416
G1 X89.753 Y78.048 E11.55661
G1 X90.152 Y77.731 E11.57356
G1 X92.149 Y76.252 E11.65622
G1 X92.546 Y75.978 E11.67226
G1 X94.617 Y74.644 E11.7542
G1 X95.049 Y74.386 E11.77093
G1 X97.226 Y73.185 E11.85363
G1 X97.673 Y72.958 E11.8703
G1 X99.92 Y71.91 E11.95277
G1 X100.372 Y71.717 E11.96911
G1 X102.669 Y70.826 E12.05106
G1 X103.141 Y70.661 E12.06769
G1 X105.519 Y69.919 E12.15054
G1 X105.997 Y69.787 E12.16703
G1 X108.394 Y69.212 E12.24902
G1 X108.886 Y69.112 E12.26572
G1 X111.327 Y68.699 E12.34806
G1 X111.815 Y68.633 E12.36444
G1 X114.282 Y68.383 E12.44691
G1 X114.78 Y68.349 E12.46351
G1 X117.255 Y68.266 E12.54588
G1 X117.751 Y68.266 E12.56238
G1 X120.228 Y68.349 E12.64481
G1 X120.726 Y68.383 E12.66141
G1 X123.192 Y68.633 E12.74385
G1 X123.68 Y68.699 E12.76023
G1 X126.121 Y69.112 E12.84257
G1 X126.616 Y69.213 E12.85937
G1 X129.013 Y69.789 E12.94137
G1 X129.488 Y69.92 E12.95776
G1 X131.866 Y70.662 E13.04061
G1 X132.337 Y70.826 E13.0572
G1 X134.635 Y71.717 E13.13917
G1 X135.094 Y71.913 E13.15577
G1 X137.34 Y72.963 E13.23824
G1 X137.782 Y73.188 E13.25473
G1 X139.958 Y74.389 E13.3374
G1 X140.386 Y74.645 E13.35399
G1 X142.458 Y75.978 E13.43593
G1 X142.864 Y76.259 E13.45235
G1 X144.862 Y77.742 E13.53511
G1 X145.257 Y78.056 E13.55189
G1 X147.139 Y79.663 E13.6342
G1 X147.501 Y79.993 E13.6505
G1 X149.28 Y81.728 E13.73315
G1 X149.627 Y82.091 E13.74985
G1 X151.27 Y83.927 E13.8318
G1 X151.591 Y84.311 E13.84844
G1 X153.119 Y86.27 E13.93108
G1 X153.408 Y86.667 E13.94741
G1 X154.795 Y88.712 E14.02959
G1 X155.061 Y89.135 E14.04621
G1 X156.317 Y91.286 E14.12906
G1 X156.555 Y91.727 E14.14573
G1 X157.65 Y93.933 E14.22764
G1 X157.855 Y94.383 E14.24409
G1 X158.811 Y96.683 E14.32693
G1 X158.987 Y97.15 E14.34353
G1 X159.777 Y99.483 E14.42545
G1 X159.904 Y99.898 E14.43989
G1 X160.317 Y101.404 E14.49183
G1 X160.389 Y101.68 E14.50131
G1 X170.855 Y101.683 E14.84941
G1 X171.769 Y101.74 E14.87987
G1 X172.114 Y101.783 E14.89144
G1 X173.067 Y101.966 E14.92371
G1 X173.09 Y101.972 E14.9245
G1 X174.073 Y102.303 E14.959
G1 X174.394 Y102.437 E14.97057
G1 X175.087 Y102.77 E14.99614
G1 X175.557 Y103.049 E15.01432
G1 X176.087 Y103.422 E15.03588
G1 X176.389 Y103.655 E15.04857
G1 X176.971 Y104.158 E15.07415
G1 X177.726 Y104.999 E15.11174
G1 X177.94 Y105.278 E15.12344
G1 X178.493 Y106.111 E15.15669
G1 X178.505 Y106.132 E15.15749
G1 X178.915 Y106.966 E15.1884
G1 X179.047 Y107.284 E15.19986
G1 X179.338 Y108.126 E15.22949
G1 X179.345 Y108.151 E15.23035
G1 X179.562 Y109.233 E15.26705
G1 X179.607 Y109.595 E15.27919
G1 X179.664 Y110.512 E15.30975
G1 X179.662 Y114.513 E15.44282
G1 X179.605 Y115.424 E15.47318
G1 X179.562 Y115.769 E15.48474
G1 X179.358 Y116.801 E15.51973
G1 X179.352 Y116.823 E15.52049
G1 X179.045 Y117.719 E15.55199
G1 X178.911 Y118.041 E15.56359
G1 X178.579 Y118.735 E15.58918
G1 X178.339 Y119.144 E15.60495
G1 X177.922 Y119.744 E15.62925
G1 X177.687 Y120.048 E15.64203
G1 X177.184 Y120.63 E15.66762
G1 X176.343 Y121.383 E15.70516
G1 X176.065 Y121.596 E15.71681
G1 X175.351 Y122.079 E15.74548
G1 X174.395 Y122.563 E15.78112
G1 X174.074 Y122.697 E15.79269
G1 X173.091 Y123.028 E15.82719
G1 X173.068 Y123.034 E15.82798
G1 X172.105 Y123.218 E15.86059
G1 X171.74 Y123.263 E15.87282
G1 X170.834 Y123.319 E15.90301
G1 X160.391 Y123.318 E16.25035
G1 X160.299 Y123.668 E16.26239
G1 X159.9 Y125.115 E16.31231
G1 X159.776 Y125.519 E16.32637
G1 X158.986 Y127.855 E16.40838
G1 X158.808 Y128.326 E16.42513
G1 X157.852 Y130.624 E16.50791
G1 X157.644 Y131.08 E16.52458
G1 X156.556 Y133.271 E16.60595
G1 X156.312 Y133.724 E16.62306
G1 X155.059 Y135.868 E16.70565
G1 X154.795 Y136.286 E16.7221
G1 X153.406 Y138.335 E16.80443
G1 X153.115 Y138.735 E16.82088
G1 X151.595 Y140.683 E16.90306
G1 X151.274 Y141.067 E16.91971
G1 X149.614 Y142.921 E17.00248
G1 X149.269 Y143.281 E17.01906
G1 X147.498 Y145.009 E17.10136
G1 X147.133 Y145.343 E17.11782
G1 X145.247 Y146.952 E17.20027
G1 X144.848 Y147.269 E17.21722
G1 X142.851 Y148.748 E17.29987
G1 X142.454 Y149.022 E17.31592
G1 X140.383 Y150.356 E17.39785
G1 X139.951 Y150.614 E17.41459
G1 X137.774 Y151.815 E17.49728
G1 X137.327 Y152.042 E17.51396
G1 X135.08 Y153.09 E17.59642
G1 X134.628 Y153.283 E17.61277
G1 X132.331 Y154.174 E17.69471
G1 X131.858 Y154.34 E17.71139
G1 X129.478 Y155.082 E17.7943
G1 X129.003 Y155.213 E17.81069
G1 X126.608 Y155.788 E17.89261
G1 X126.114 Y155.888 E17.90938
G1 X123.673 Y156.301 E17.99172
G1 X123.185 Y156.367 E18.0081
G1 X120.718 Y156.617 E18.09057
G1 X120.22 Y156.651 E18.10717
G1 X117.745 Y156.734 E18.18954
G1 X117.249 Y156.734 E18.20603
G1 X114.772 Y156.651 E18.28847
G1 X114.274 Y156.617 E18.30507
G1 X111.808 Y156.367 E18.38751
G1 X111.32 Y156.301 E18.40389
G1 X108.879 Y155.888 E18.48623
G1 X108.383 Y155.787 E18.50306
G1 X105.988 Y155.211 E18.58499
G1 X105.515 Y155.081 E18.60131
G1 X103.135 Y154.339 E18.68423
G1 X102.663 Y154.174 E18.70086
G1 X100.365 Y153.283 E18.78283
G1 X99.906 Y153.087 E18.79943
G1 X97.66 Y152.037 E18.88189
G1 X97.218 Y151.812 E18.89839
G1 X95.042 Y150.611 E18.98106
G1 X94.614 Y150.355 E18.99764
G1 X92.542 Y149.022 E19.07959
G1 X92.135 Y148.741 E19.09604
G1 X90.136 Y147.257 E19.17884
G1 X89.742 Y146.943 E19.1956
G1 X87.86 Y145.336 E19.27791
G1 X87.498 Y145.006 E19.2942
G1 X85.719 Y143.271 E19.37685
G1 X85.372 Y142.908 E19.39356
G1 X83.729 Y141.072 E19.4755
G1 X83.408 Y140.688 E19.49215
G1 X81.88 Y138.729 E19.57478
G1 X81.59 Y138.33 E19.59119
G1 X80.201 Y136.281 E19.67352
G1 X79.936 Y135.86 E19.69007
G1 X78.683 Y133.714 E19.77272
G1 X78.444 Y133.272 E19.78943
G1 X77.349 Y131.065 E19.87137
G1 X77.145 Y130.618 E19.88772
G1 X76.188 Y128.317 E19.9706
G1 X76.011 Y127.847 E19.98731
G1 X75.222 Y125.515 E20.06919
G1 X75.096 Y125.102 E20.08355
G1 X74.684 Y123.598 E20.13542
G1 X74.611 Y123.32 E20.14498
G1 X64.145 Y123.317 E20.49308
G1 X63.231 Y123.26 E20.52354
G1 X62.886 Y123.217 E20.5351
G1 X61.933 Y123.034 E20.56738
G1 X61.91 Y123.028 E20.56817
G1 X60.927 Y122.697 E20.60267
G1 X60.606 Y122.563 E20.61423
G1 X59.913 Y122.23 E20.63981
G1 X59.443 Y121.951 E20.65799
G1 X58.914 Y121.579 E20.6795
G1 X58.588 Y121.326 E20.69322
G1 X58.008 Y120.822 E20.71878
G1 X57.268 Y119.992 E20.75576
G1 X57.056 Y119.715 E20.76736
G1 X56.49 Y118.859 E20.80149
G1 X56.477 Y118.836 E20.80237
G1 X56.081 Y118.024 E20.83242
G1 X55.949 Y117.705 E20.8439
G1 X55.642 Y116.801 E20.87566
G1 X55.438 Y115.767 E20.91071
G1 X55.393 Y115.405 E20.92284
G1 X55.336 Y114.488 E20.9534
G1 X55.338 Y110.487 E21.08648
G1 X55.395 Y109.576 E21.11684
G1 X55.438 Y109.231 E21.1284
G1 X55.642 Y108.199 E21.16339
G1 X55.648 Y108.177 E21.16415
G1 X55.955 Y107.281 E21.19565
G1 X56.089 Y106.959 E21.20725
G1 X56.421 Y106.265 E21.23284
G1 X56.661 Y105.856 E21.24861
G1 X57.078 Y105.256 E21.27291
G1 X57.313 Y104.952 E21.28569
G1 X57.816 Y104.37 E21.31128
G1 X58.657 Y103.617 E21.34882
G1 X58.935 Y103.404 E21.36047
G1 X59.649 Y102.921 E21.38914
G1 X60.605 Y102.437 E21.42478
G1 X60.926 Y102.303 E21.43635
G1 X61.909 Y101.972 E21.47085
G1 X61.932 Y101.966 E21.47164
G1 X62.895 Y101.782 E21.50425
G1 X63.26 Y101.737 E21.51648
G1 X64.166 Y101.681 E21.54667
G1 X74.609 Y101.682 E21.89401
G1 X74.701 Y101.332 E21.90604
G1 X75.1 Y99.885 E21.95597
G1 X75.224 Y99.481 E21.97002
G1 X76.014 Y97.145 E22.05204
G1 X76.192 Y96.674 E22.06879
G1 X77.148 Y94.376 E22.15157
G1 X77.356 Y93.92 E22.16824
G1 X78.444 Y91.729 E22.2496
G1 X78.688 Y91.276 E22.26672
G1 X79.944 Y89.127 E22.3495
G1 X80.208 Y88.708 E22.36598
G1 X81.594 Y86.664 E22.44812
G1 X81.885 Y86.265 E22.46454
G1 X83.405 Y84.317 E22.54672
G1 X83.725 Y83.934 E22.56332
G1 X85.386 Y82.078 E22.64616
