;FLAVOR:Marlin
;TIME:7068
;Filament used: 4.71041m
;Layer height: 0.2
;MINX:54.936
;MINY:67.866
;MINZ:0.2
;MAXX:180.064
;MAXY:157.134
;MAXZ:10
;Generated with Cura_SteamEngine 4.7.1
M140 S50
M105
M190 S50
M104 S200
M105
M109 S200
M82 ;absolute extrusion mode
; Ender 3 Custom Start G-code
G92 E0 ; Reset Extruder
G28 ; Home all axes
G1 Z2.0 F3000 ; Move Z Axis up little to prevent scratching of Heat Bed
G1 X0.1 Y20 Z0.3 F5000.0 ; Move to start position
G1 X0.1 Y200.0 Z0.3 F1500.0 E15 ; Draw the first line
G1 X0.4 Y200.0 Z0.3 F5000.0 ; Move to side a little
G1 X0.4 Y20 Z0.3 F1500.0 E30 ; Draw the second line
G92 E0 ; Reset Extruder
G1 Z2.0 F3000 ; Move Z Axis up little to prevent scratching of Heat Bed
G1 X5 Y20 Z0.3 F5000.0 ; Move over to prevent blob squish
G92 E0
G92 E0
G1 F2700 E-5
;LAYER_COUNT:50
;LAYER:0
M107
G0 F6000 X85.453 Y81.43 Z0.2
;TYPE:SKIRT
G1 F2700 E0
G1 F1200 X87.222 Y79.704 E0.0822
G1 X87.608 Y79.352 E0.09958
G1 X89.495 Y77.743 E0.18206
G1 X89.914 Y77.41 E0.19986
G1 X91.911 Y75.931 E0.28251
G1 X92.331 Y75.64 E0.29951
G1 X94.402 Y74.307 E0.38142
G1 X94.853 Y74.038 E0.39889
G1 X97.029 Y72.836 E0.48157
G1 X97.501 Y72.596 E0.49918
G1 X99.742 Y71.55 E0.58144
G1 X100.222 Y71.345 E0.5988
G1 X102.526 Y70.452 E0.68098
G1 X103.021 Y70.279 E0.69843
G1 X105.392 Y69.539 E0.78104
G1 X105.9 Y69.399 E0.79856
G1 X108.306 Y68.823 E0.88085
G1 X108.812 Y68.72 E0.89802
G1 X111.254 Y68.304 E0.98041
G1 X111.798 Y68.231 E0.99867
G1 X112.606 Y68.151 E1.02567
G1 X114.239 Y67.985 E1.08027
G1 X114.767 Y67.949 E1.09787
G1 X117.242 Y67.866 E1.18024
G1 X117.764 Y67.866 E1.1976
G1 X120.241 Y67.949 E1.28003
G1 X120.768 Y67.985 E1.2976
G1 X122.392 Y68.15 E1.35189
G1 X123.211 Y68.231 E1.37926
G1 X123.752 Y68.304 E1.39742
G1 X126.197 Y68.72 E1.47991
G1 X126.718 Y68.826 E1.49759
G1 X128.302 Y69.208 E1.55179
G1 X129.088 Y69.395 E1.57866
G1 X129.611 Y69.539 E1.5967
G1 X131.987 Y70.281 E1.67949
G1 X132.482 Y70.454 E1.69693
G1 X134.78 Y71.345 E1.77891
G1 X135.266 Y71.552 E1.79648
G1 X137.501 Y72.597 E1.87854
G1 X137.976 Y72.838 E1.89625
G1 X140.152 Y74.039 E1.97892
G1 X140.605 Y74.309 E1.99646
G1 X142.676 Y75.642 E2.07838
G1 X143.1 Y75.936 E2.09554
G1 X145.093 Y77.414 E2.17806
G1 X145.516 Y77.75 E2.19603
G1 X146.752 Y78.807 E2.25012
G1 X147.392 Y79.352 E2.27808
G1 X147.783 Y79.708 E2.29567
G1 X149.561 Y81.443 E2.3783
G1 X149.931 Y81.83 E2.3961
G1 X151.017 Y83.046 E2.45033
G1 X151.558 Y83.649 E2.47727
G1 X151.904 Y84.061 E2.49517
G1 X153.433 Y86.019 E2.5778
G1 X153.746 Y86.451 E2.59554
G1 X154.649 Y87.785 E2.64912
G1 X155.119 Y88.475 E2.67689
G1 X155.413 Y88.942 E2.69524
G1 X156.227 Y90.341 E2.74907
G1 X156.656 Y91.073 E2.77729
G1 X156.916 Y91.554 E2.79548
G1 X157.632 Y92.999 E2.84912
G1 X158.004 Y93.746 E2.87687
G1 X158.225 Y94.229 E2.89454
G1 X159.181 Y96.529 E2.97738
G1 X159.366 Y97.021 E2.99487
G1 X160.156 Y99.354 E3.07679
G1 X160.29 Y99.792 E3.09202
G1 X160.698 Y101.281 E3.14337
G1 X170.852 Y101.283 E3.4811
G1 X171.837 Y101.346 E3.51392
G1 X172.19 Y101.391 E3.52576
G1 X173.096 Y101.561 E3.55642
G1 X173.12 Y101.567 E3.55724
G1 X173.875 Y101.797 E3.58349
G1 X174.259 Y101.947 E3.59721
G1 X174.572 Y102.079 E3.6085
G1 X175.057 Y102.303 E3.62627
G1 X175.745 Y102.692 E3.65256
G1 X176.371 Y103.133 E3.67803
G1 X176.689 Y103.383 E3.69148
G1 X177.283 Y103.903 E3.71774
G1 X177.822 Y104.48 E3.744
G1 X178.069 Y104.789 E3.75716
G1 X178.319 Y105.12 E3.77096
G1 X178.76 Y105.775 E3.79722
G1 X179.288 Y106.822 E3.83622
G1 X179.421 Y107.144 E3.84781
G1 X179.723 Y108.019 E3.87859
G1 X179.73 Y108.044 E3.87946
G1 X179.959 Y109.18 E3.918
G1 X180.004 Y109.54 E3.93007
G1 X180.064 Y110.511 E3.96242
G1 X180.062 Y114.51 E4.09543
G1 X179.999 Y115.492 E4.12816
G1 X179.954 Y115.845 E4.14
G1 X179.784 Y116.751 E4.17066
G1 X179.778 Y116.775 E4.17148
G1 X179.548 Y117.53 E4.19773
G1 X179.385 Y117.944 E4.21253
G1 X179.246 Y118.271 E4.22435
G1 X178.901 Y118.981 E4.2506
G1 X178.486 Y119.653 E4.27687
G1 X178.219 Y120.016 E4.29186
G1 X177.962 Y120.344 E4.30572
G1 X177.442 Y120.938 E4.33197
G1 X176.865 Y121.477 E4.35824
G1 X176.55 Y121.728 E4.37163
G1 X176.235 Y121.966 E4.38476
G1 X175.581 Y122.409 E4.41104
G1 X174.527 Y122.941 E4.45031
G1 X174.208 Y123.073 E4.46179
G1 X173.369 Y123.366 E4.49135
G1 X173.341 Y123.374 E4.49231
G1 X172.572 Y123.552 E4.51857
G1 X172.16 Y123.614 E4.53242
G1 X171.798 Y123.659 E4.54456
G1 X170.835 Y123.719 E4.57665
G1 X160.699 Y123.718 E4.91377
G1 X160.285 Y125.221 E4.96563
G1 X160.155 Y125.647 E4.98044
G1 X159.365 Y127.983 E5.06246
G1 X159.178 Y128.48 E5.08012
G1 X158.222 Y130.778 E5.1629
G1 X158.002 Y131.259 E5.18049
G1 X157.276 Y132.717 E5.23467
G1 X156.914 Y133.448 E5.2618
G1 X156.656 Y133.927 E5.27989
G1 X155.828 Y135.343 E5.33445
G1 X155.41 Y136.062 E5.36211
G1 X155.12 Y136.523 E5.38023
G1 X154.205 Y137.87 E5.43439
G1 X153.753 Y138.542 E5.46132
G1 X153.421 Y138.997 E5.48006
G1 X152.429 Y140.263 E5.53355
G1 X151.916 Y140.922 E5.56133
G1 X151.572 Y141.334 E5.57918
G1 X149.912 Y143.188 E5.66195
G1 X149.55 Y143.566 E5.67936
G1 X147.78 Y145.294 E5.76163
G1 X147.392 Y145.648 E5.7791
G1 X145.505 Y147.257 E5.86158
G1 X145.086 Y147.59 E5.87938
G1 X143.089 Y149.069 E5.96203
G1 X142.669 Y149.36 E5.97903
G1 X140.598 Y150.693 E6.06095
G1 X140.147 Y150.962 E6.07841
G1 X137.971 Y152.164 E6.16109
G1 X137.499 Y152.404 E6.1787
G1 X135.258 Y153.45 E6.26096
G1 X134.778 Y153.655 E6.27832
G1 X132.474 Y154.548 E6.36051
G1 X131.979 Y154.721 E6.37795
G1 X129.611 Y155.46 E6.46045
G1 X129.105 Y155.599 E6.47791
G1 X126.689 Y156.178 E6.56054
G1 X126.178 Y156.283 E6.57789
G1 X123.743 Y156.697 E6.66004
G1 X123.202 Y156.769 E6.67819
G1 X122.394 Y156.849 E6.7052
G1 X120.761 Y157.015 E6.75979
G1 X120.233 Y157.051 E6.77739
G1 X117.758 Y157.134 E6.85976
G1 X117.236 Y157.134 E6.87712
G1 X114.759 Y157.051 E6.95955
G1 X114.232 Y157.015 E6.97712
G1 X112.608 Y156.85 E7.03141
G1 X111.789 Y156.769 E7.05879
G1 X111.248 Y156.696 E7.07694
G1 X108.803 Y156.28 E7.15943
G1 X108.282 Y156.174 E7.17712
G1 X106.698 Y155.792 E7.23131
G1 X105.911 Y155.605 E7.25821
G1 X105.391 Y155.462 E7.27615
G1 X103.014 Y154.72 E7.35897
G1 X102.518 Y154.546 E7.37646
G1 X100.22 Y153.655 E7.45843
G1 X99.734 Y153.448 E7.476
G1 X97.499 Y152.403 E7.55806
G1 X97.023 Y152.161 E7.57582
G1 X94.848 Y150.96 E7.65846
G1 X94.395 Y150.69 E7.676
G1 X92.325 Y149.357 E7.75789
G1 X91.904 Y149.066 E7.77491
G1 X89.908 Y147.587 E7.85754
G1 X89.487 Y147.252 E7.87543
G1 X87.599 Y145.64 E7.958
G1 X87.216 Y145.291 E7.97524
G1 X85.438 Y143.556 E8.05786
G1 X85.068 Y143.168 E8.07569
G1 X83.983 Y141.953 E8.12987
G1 X83.441 Y141.35 E8.15684
G1 X83.095 Y140.938 E8.17473
G1 X81.566 Y138.98 E8.25736
G1 X81.252 Y138.547 E8.27515
G1 X80.336 Y137.192 E8.32955
G1 X79.877 Y136.518 E8.35667
G1 X79.584 Y136.053 E8.37495
G1 X78.761 Y134.639 E8.42937
G1 X78.344 Y133.927 E8.45681
G1 X78.086 Y133.45 E8.47485
G1 X76.991 Y131.243 E8.55679
G1 X76.776 Y130.771 E8.57404
G1 X75.819 Y128.47 E8.65693
G1 X75.632 Y127.975 E8.67453
G1 X74.843 Y125.643 E8.75641
G1 X74.71 Y125.208 E8.77154
G1 X74.302 Y123.719 E8.82289
G1 X64.148 Y123.717 E9.16061
G1 X63.163 Y123.654 E9.19344
G1 X62.81 Y123.609 E9.20528
G1 X61.904 Y123.439 E9.23594
G1 X61.88 Y123.433 E9.23676
G1 X61.125 Y123.203 E9.26301
G1 X60.741 Y123.053 E9.27672
G1 X60.428 Y122.921 E9.28802
G1 X59.943 Y122.697 E9.30579
G1 X59.255 Y122.308 E9.33208
G1 X58.629 Y121.867 E9.35755
G1 X58.292 Y121.602 E9.3718
G1 X57.7 Y121.081 E9.39803
G1 X56.917 Y120.193 E9.43741
G1 X56.672 Y119.868 E9.45095
G1 X56.232 Y119.212 E9.47722
G1 X55.708 Y118.168 E9.51607
G1 X55.575 Y117.845 E9.52769
G1 X55.262 Y116.927 E9.55995
G1 X55.256 Y116.905 E9.56071
G1 X55.041 Y115.82 E9.5975
G1 X54.996 Y115.46 E9.60956
G1 X54.936 Y114.489 E9.64192
G1 X54.938 Y110.49 E9.77493
G1 X55.001 Y109.508 E9.80766
G1 X55.046 Y109.155 E9.81949
G1 X55.216 Y108.249 E9.85015
G1 X55.222 Y108.225 E9.85097
G1 X55.452 Y107.47 E9.87722
G1 X55.613 Y107.06 E9.89188
G1 X55.757 Y106.722 E9.90409
G1 X56.103 Y106.012 E9.93036
G1 X56.519 Y105.341 E9.95662
G1 X56.781 Y104.984 E9.97135
G1 X57.038 Y104.656 E9.98521
G1 X57.558 Y104.062 E10.01147
G1 X58.135 Y103.523 E10.03773
G1 X58.45 Y103.272 E10.05113
G1 X58.765 Y103.034 E10.06426
G1 X59.419 Y102.591 E10.09053
G1 X60.473 Y102.059 E10.1298
G1 X60.792 Y101.927 E10.14128
G1 X61.631 Y101.634 E10.17084
G1 X61.659 Y101.626 E10.17181
G1 X62.428 Y101.448 E10.19806
G1 X62.84 Y101.386 E10.21192
G1 X63.202 Y101.341 E10.22405
G1 X64.165 Y101.281 E10.25614
G1 X74.301 Y101.282 E10.59327
G1 X74.715 Y99.779 E10.64512
G1 X74.845 Y99.353 E10.65993
G1 X75.635 Y97.017 E10.74195
G1 X75.822 Y96.52 E10.75961
G1 X76.778 Y94.222 E10.8424
G1 X76.998 Y93.741 E10.85999
G1 X77.724 Y92.283 E10.91416
G1 X78.086 Y91.552 E10.94129
G1 X78.344 Y91.073 E10.95939
G1 X79.172 Y89.657 E11.01394
G1 X79.59 Y88.938 E11.04161
G1 X79.88 Y88.477 E11.05972
G1 X80.795 Y87.13 E11.11388
G1 X81.247 Y86.458 E11.14082
G1 X81.579 Y86.003 E11.15955
G1 X82.571 Y84.737 E11.21304
G1 X83.084 Y84.078 E11.24082
G1 X83.43 Y83.663 E11.25879
G1 X85.081 Y81.819 E11.34111
G1 X85.453 Y81.43 E11.35902
G0 F6000 X85.732 Y81.716
G1 F1200 X87.501 Y79.99 E11.44122
G1 X87.868 Y79.656 E11.45772
G1 X89.755 Y78.047 E11.5402
G1 X90.152 Y77.731 E11.55708
G1 X92.149 Y76.252 E11.63973
G1 X92.548 Y75.977 E11.65585
G1 X94.619 Y74.644 E11.73777
G1 X95.046 Y74.389 E11.75431
G1 X97.222 Y73.187 E11.83699
G1 X97.67 Y72.958 E11.85373
G1 X99.911 Y71.912 E11.93598
G1 X100.367 Y71.718 E11.95246
G1 X102.671 Y70.825 E12.03465
G1 X103.14 Y70.661 E12.05117
G1 X105.511 Y69.921 E12.13379
G1 X105.993 Y69.788 E12.15042
G1 X108.399 Y69.212 E12.2327
G1 X108.879 Y69.114 E12.249
G1 X111.321 Y68.698 E12.33139
G1 X111.837 Y68.629 E12.3487
G1 X112.647 Y68.549 E12.37577
G1 X114.28 Y68.383 E12.43037
G1 X114.78 Y68.349 E12.44704
G1 X117.255 Y68.266 E12.5294
G1 X117.751 Y68.266 E12.5459
G1 X120.228 Y68.349 E12.62833
G1 X120.728 Y68.383 E12.645
G1 X122.332 Y68.546 E12.69862
G1 X123.172 Y68.629 E12.7267
G1 X123.685 Y68.698 E12.74391
G1 X126.13 Y69.114 E12.8264
G1 X126.624 Y69.215 E12.84317
G1 X128.208 Y69.597 E12.89737
G1 X128.995 Y69.784 E12.92427
G1 X129.492 Y69.92 E12.94141
G1 X131.868 Y70.662 E13.0242
G1 X132.337 Y70.826 E13.04073
G1 X134.635 Y71.717 E13.1227
G1 X135.097 Y71.915 E13.13942
G1 X137.332 Y72.959 E13.22147
G1 X137.783 Y73.188 E13.23829
G1 X139.959 Y74.389 E13.32095
G1 X140.388 Y74.646 E13.33759
G1 X142.459 Y75.979 E13.4195
G1 X142.862 Y76.257 E13.43579
G1 X144.855 Y77.735 E13.51831
G1 X145.256 Y78.054 E13.53536
G1 X146.493 Y79.112 E13.5895
G1 X147.133 Y79.657 E13.61745
G1 X147.503 Y79.995 E13.63412
G1 X149.281 Y81.73 E13.71675
G1 X149.632 Y82.097 E13.73364
G1 X150.704 Y83.297 E13.78716
G1 X151.261 Y83.917 E13.81488
G1 X151.588 Y84.308 E13.83183
G1 X153.117 Y86.266 E13.91446
G1 X153.415 Y86.675 E13.93129
G1 X154.318 Y88.01 E13.9849
G1 X154.788 Y88.7 E14.01266
G1 X155.067 Y89.143 E14.03008
G1 X155.882 Y90.543 E14.08396
G1 X156.311 Y91.275 E14.11218
G1 X156.558 Y91.731 E14.12943
G1 X157.646 Y93.924 E14.21085
G1 X157.855 Y94.383 E14.22762
G1 X158.811 Y96.683 E14.31047
G1 X158.987 Y97.15 E14.32707
G1 X159.777 Y99.483 E14.40899
G1 X159.904 Y99.898 E14.42342
G1 X160.316 Y101.402 E14.47529
G1 X160.389 Y101.68 E14.48485
G1 X170.852 Y101.683 E14.83285
G1 X171.787 Y101.742 E14.86401
G1 X172.14 Y101.787 E14.87585
G1 X172.999 Y101.949 E14.90492
G1 X173.023 Y101.955 E14.90574
G1 X174.104 Y102.316 E14.94365
G1 X174.417 Y102.448 E14.95495
G1 X174.878 Y102.661 E14.97184
G1 X175.548 Y103.041 E14.99746
G1 X176.125 Y103.449 E15.02096
G1 X176.441 Y103.697 E15.03432
G1 X177.019 Y104.204 E15.05989
G1 X177.751 Y105.031 E15.09663
G1 X177.999 Y105.36 E15.11033
G1 X178.428 Y105.998 E15.1359
G1 X178.919 Y106.975 E15.17227
G1 X179.052 Y107.297 E15.18386
G1 X179.338 Y108.127 E15.21306
G1 X179.345 Y108.152 E15.21392
G1 X179.562 Y109.229 E15.25046
G1 X179.607 Y109.589 E15.26253
G1 X179.664 Y110.511 E15.29325
G1 X179.662 Y114.51 E15.42626
G1 X179.603 Y115.442 E15.45732
G1 X179.558 Y115.795 E15.46916
G1 X179.396 Y116.654 E15.49823
G1 X179.39 Y116.678 E15.49905
G1 X179.165 Y117.413 E15.52462
G1 X179.017 Y117.787 E15.538
G1 X178.878 Y118.114 E15.54981
G1 X178.541 Y118.806 E15.57541
G1 X178.134 Y119.458 E15.60098
G1 X177.903 Y119.77 E15.61389
G1 X177.648 Y120.096 E15.62766
G1 X177.141 Y120.674 E15.65323
G1 X176.309 Y121.409 E15.69015
G1 X175.995 Y121.647 E15.70326
G1 X175.357 Y122.077 E15.72885
G1 X174.374 Y122.572 E15.76545
G1 X174.055 Y122.704 E15.77693
G1 X173.259 Y122.981 E15.80497
G1 X173.231 Y122.989 E15.80594
G1 X172.111 Y123.217 E15.84395
G1 X171.749 Y123.262 E15.85608
G1 X170.835 Y123.319 E15.88654
G1 X160.39 Y123.319 E16.23394
G1 X160.299 Y123.668 E16.24594
G1 X159.9 Y125.115 E16.29586
G1 X159.776 Y125.519 E16.30992
G1 X158.986 Y127.855 E16.39194
G1 X158.808 Y128.326 E16.40869
G1 X157.852 Y130.624 E16.49147
G1 X157.644 Y131.08 E16.50814
G1 X156.927 Y132.521 E16.56167
G1 X156.556 Y133.271 E16.5895
G1 X156.311 Y133.725 E16.60666
G1 X155.483 Y135.141 E16.66122
G1 X155.064 Y135.861 E16.68892
G1 X154.789 Y136.298 E16.7061
G1 X153.874 Y137.645 E16.76026
G1 X153.421 Y138.318 E16.78724
G1 X153.107 Y138.751 E16.80503
G1 X152.098 Y140.038 E16.85942
G1 X151.6 Y140.677 E16.88637
G1 X151.274 Y141.067 E16.90327
G1 X149.614 Y142.921 E16.98604
G1 X149.27 Y143.28 E17.00258
G1 X147.5 Y145.008 E17.08485
G1 X147.132 Y145.344 E17.10143
G1 X145.245 Y146.953 E17.18391
G1 X144.848 Y147.269 E17.20078
G1 X142.851 Y148.748 E17.28344
G1 X142.452 Y149.023 E17.29955
G1 X140.381 Y150.356 E17.38147
G1 X139.954 Y150.611 E17.39801
G1 X137.778 Y151.813 E17.4807
G1 X137.33 Y152.042 E17.49743
G1 X135.089 Y153.088 E17.57969
G1 X134.633 Y153.282 E17.59617
G1 X132.329 Y154.175 E17.67835
G1 X131.86 Y154.339 E17.69488
G1 X129.492 Y155.078 E17.77738
G1 X129.012 Y155.21 E17.79394
G1 X126.596 Y155.789 E17.87657
G1 X126.111 Y155.888 E17.89304
G1 X123.676 Y156.302 E17.97519
G1 X123.163 Y156.371 E17.9924
G1 X122.353 Y156.451 E18.01948
G1 X120.72 Y156.617 E18.07407
G1 X120.22 Y156.651 E18.09074
G1 X117.745 Y156.734 E18.1731
G1 X117.249 Y156.734 E18.1896
G1 X114.772 Y156.651 E18.27203
G1 X114.272 Y156.617 E18.2887
G1 X112.648 Y156.452 E18.34299
G1 X111.828 Y156.371 E18.3704
G1 X111.315 Y156.302 E18.38762
G1 X108.87 Y155.886 E18.47011
G1 X108.376 Y155.785 E18.48688
G1 X106.792 Y155.402 E18.54108
G1 X106.004 Y155.215 E18.56801
G1 X105.51 Y155.08 E18.58505
G1 X103.133 Y154.338 E18.66787
G1 X102.663 Y154.174 E18.68443
G1 X100.365 Y153.283 E18.7664
G1 X99.903 Y153.085 E18.78312
G1 X97.668 Y152.041 E18.86517
G1 X97.216 Y151.811 E18.88203
G1 X95.041 Y150.61 E18.96467
G1 X94.612 Y150.354 E18.98129
G1 X92.542 Y149.021 E19.06318
G1 X92.142 Y148.745 E19.07934
G1 X90.146 Y147.266 E19.16197
G1 X89.747 Y146.948 E19.17894
G1 X87.859 Y145.336 E19.26151
G1 X87.496 Y145.004 E19.27787
G1 X85.718 Y143.269 E19.36049
G1 X85.366 Y142.902 E19.37741
G1 X84.281 Y141.687 E19.43159
G1 X83.739 Y141.083 E19.45858
G1 X83.411 Y140.691 E19.47558
G1 X81.882 Y138.733 E19.55821
G1 X81.583 Y138.323 E19.57508
G1 X80.68 Y136.988 E19.62869
G1 X80.207 Y136.293 E19.65665
G1 X79.929 Y135.851 E19.67402
G1 X79.106 Y134.437 E19.72843
G1 X78.689 Y133.725 E19.75588
G1 X78.444 Y133.272 E19.77301
G1 X77.349 Y131.065 E19.85495
G1 X77.145 Y130.618 E19.87129
G1 X76.188 Y128.317 E19.95418
G1 X76.011 Y127.847 E19.97088
G1 X75.222 Y125.515 E20.05276
G1 X75.096 Y125.102 E20.06713
G1 X74.684 Y123.6 E20.11893
G1 X74.611 Y123.319 E20.12858
G1 X64.148 Y123.317 E20.47659
G1 X63.213 Y123.258 E20.50775
G1 X62.86 Y123.213 E20.51958
G1 X62.001 Y123.051 E20.54866
G1 X61.977 Y123.045 E20.54948
G1 X60.896 Y122.684 E20.58738
G1 X60.583 Y122.552 E20.59868
G1 X60.122 Y122.339 E20.61557
G1 X59.452 Y121.959 E20.64119
G1 X58.875 Y121.551 E20.6647
G1 X58.541 Y121.289 E20.67881
G1 X57.964 Y120.78 E20.70441
G1 X57.236 Y119.952 E20.74108
G1 X56.993 Y119.628 E20.75455
G1 X56.565 Y118.989 E20.78013
G1 X56.077 Y118.016 E20.81633
G1 X55.944 Y117.693 E20.82795
G1 X55.648 Y116.822 E20.85855
G1 X55.642 Y116.8 E20.8593
G1 X55.438 Y115.771 E20.89419
G1 X55.393 Y115.411 E20.90626
G1 X55.336 Y114.489 E20.93699
G1 X55.338 Y110.49 E21.06999
G1 X55.397 Y109.558 E21.10105
