;FLAVOR:Marlin
;TIME:5349
;Filament used: 3.31944m
;Layer height: 0.2
;MINX:50.053
;MINY:90.192
;MINZ:0.2
;MAXX:175.182
;MAXY:142.657
;MAXZ:10
;Generated with Cura_SteamEngine 4.7.1
M140 S50
M105
M190 S50
M104 S200
M105
M109 S200
M82 ;absolute extrusion mode
; Ender 3 Custom Start G-code
G92 E0 ; Reset Extruder
G28 ; Home all axes
G1 Z2.0 F3000 ; Move Z Axis up little to prevent scratching of Heat Bed
G1 X0.1 Y20 Z0.3 F5000.0 ; Move to start position
G1 X0.1 Y200.0 Z0.3 F1500.0 E15 ; Draw the first line
G1 X0.4 Y200.0 Z0.3 F5000.0 ; Move to side a little
G1 X0.4 Y20 Z0.3 F1500.0 E30 ; Draw the second line
G92 E0 ; Reset Extruder
G1 Z2.0 F3000 ; Move Z Axis up little to prevent scratching of Heat Bed
G1 X5 Y20 Z0.3 F5000.0 ; Move over to prevent blob squish
G92 E0
G92 E0
G1 F2700 E-5
;LAYER_COUNT:50
;LAYER:0
M107
G0 F6000 X54.876 Y106.319 Z0.2
;TYPE:SKIRT
G1 F2700 E0
G1 F1200 X55.576 Y105.986 E0.02578
G1 X55.893 Y105.854 E0.0372
G1 X56.748 Y105.555 E0.06733
G1 X56.776 Y105.547 E0.0683
G1 X57.545 Y105.369 E0.09455
G1 X57.957 Y105.307 E0.10841
G1 X58.319 Y105.262 E0.12054
G1 X59.282 Y105.202 E0.15263
G1 X69.767 Y105.203 E0.50137
G1 X70.419 Y105.168 E0.52308
G1 X70.839 Y105.103 E0.53722
G1 X71.23 Y104.998 E0.55068
G1 X71.684 Y104.823 E0.56687
G1 X72.04 Y104.641 E0.58016
G1 X72.417 Y104.395 E0.59514
G1 X72.694 Y104.171 E0.60699
G1 X72.883 Y103.975 E0.61604
G1 X73.003 Y103.853 E0.62173
G1 X73.234 Y103.624 E0.63255
G1 X73.688 Y103.126 E0.65497
G1 X73.999 Y102.804 E0.66986
G1 X74.617 Y102.2 E0.6986
G1 X74.976 Y101.87 E0.71482
G1 X76.274 Y100.751 E0.77181
G1 X76.723 Y100.392 E0.79094
G1 X78.101 Y99.371 E0.84798
G1 X78.513 Y99.086 E0.86464
G1 X79.97 Y98.145 E0.92233
G1 X80.294 Y97.947 E0.93496
G1 X81.339 Y97.342 E0.97512
G1 X81.589 Y97.203 E0.98463
G1 X82.67 Y96.629 E1.02534
G1 X82.893 Y96.515 E1.03367
G1 X83.996 Y95.974 E1.07453
G1 X84.236 Y95.861 E1.08336
G1 X85.343 Y95.364 E1.12371
G1 X85.646 Y95.236 E1.13465
G1 X87.92 Y94.328 E1.21609
G1 X88.301 Y94.187 E1.22961
G1 X90.598 Y93.406 E1.3103
G1 X90.951 Y93.295 E1.32261
G1 X93.299 Y92.619 E1.40388
G1 X93.624 Y92.534 E1.41505
G1 X95.981 Y91.964 E1.4957
G1 X96.285 Y91.896 E1.50606
G1 X98.676 Y91.418 E1.58716
G1 X98.969 Y91.366 E1.59706
G1 X101.368 Y90.981 E1.67787
G1 X101.634 Y90.943 E1.68681
G1 X103.82 Y90.669 E1.76008
G1 X104.065 Y90.642 E1.76828
G1 X106.26 Y90.437 E1.84161
G1 X106.502 Y90.418 E1.84968
G1 X108.71 Y90.281 E1.92326
G1 X108.945 Y90.27 E1.93108
G1 X111.148 Y90.2 E2.00439
G1 X111.382 Y90.196 E2.01218
G1 X113.58 Y90.192 E2.08528
G1 X113.813 Y90.195 E2.09303
G1 X116.018 Y90.257 E2.1664
G1 X116.258 Y90.268 E2.17439
G1 X118.463 Y90.398 E2.24786
G1 X118.699 Y90.415 E2.25573
G1 X120.89 Y90.611 E2.32889
G1 X121.142 Y90.638 E2.33732
G1 X123.332 Y90.906 E2.4107
G1 X123.578 Y90.94 E2.41896
G1 X125.755 Y91.277 E2.49223
G1 X126.017 Y91.322 E2.50107
G1 X128.192 Y91.735 E2.57471
G1 X128.459 Y91.79 E2.58378
G1 X130.611 Y92.277 E2.65716
G1 X130.908 Y92.351 E2.66734
G1 X133.039 Y92.922 E2.74072
G1 X133.348 Y93.011 E2.75141
G1 X135.465 Y93.673 E2.82519
G1 X135.796 Y93.785 E2.83681
G1 X137.878 Y94.54 E2.91047
G1 X138.232 Y94.678 E2.92311
G1 X140.264 Y95.529 E2.99638
G1 X140.583 Y95.672 E3.00801
G1 X141.838 Y96.265 E3.05417
G1 X142.094 Y96.391 E3.06366
G1 X143.335 Y97.034 E3.11015
G1 X143.617 Y97.188 E3.12084
G1 X144.826 Y97.879 E3.16715
G1 X145.123 Y98.057 E3.17867
G1 X146.302 Y98.802 E3.22506
G1 X146.634 Y99.024 E3.23834
G1 X147.767 Y99.824 E3.28447
G1 X148.113 Y100.083 E3.29885
G1 X149.208 Y100.951 E3.34532
G1 X149.594 Y101.278 E3.36215
G1 X150.646 Y102.229 E3.40931
G1 X151.08 Y102.653 E3.42949
G1 X151.951 Y103.574 E3.47166
G1 X152.23 Y103.85 E3.48471
G1 X152.352 Y103.974 E3.49049
G1 X152.536 Y104.165 E3.49932
G1 X152.83 Y104.404 E3.51192
G1 X153.183 Y104.634 E3.52593
G1 X153.563 Y104.828 E3.54012
G1 X153.988 Y104.992 E3.55527
G1 X154.391 Y105.101 E3.56916
G1 X154.824 Y105.17 E3.58374
G1 X155.46 Y105.203 E3.60492
G1 X165.97 Y105.204 E3.95449
G1 X166.955 Y105.267 E3.98732
G1 X167.308 Y105.312 E3.99915
G1 X168.214 Y105.482 E4.02981
G1 X168.238 Y105.488 E4.03063
G1 X168.993 Y105.718 E4.05688
G1 X169.377 Y105.868 E4.0706
G1 X169.69 Y106 E4.08189
G1 X170.175 Y106.224 E4.09966
G1 X170.863 Y106.613 E4.12595
G1 X171.489 Y107.054 E4.15142
G1 X171.807 Y107.304 E4.16487
G1 X172.401 Y107.824 E4.19113
G1 X172.94 Y108.401 E4.21739
G1 X173.187 Y108.71 E4.23055
G1 X173.437 Y109.041 E4.24435
G1 X173.878 Y109.696 E4.27061
G1 X174.406 Y110.743 E4.30961
G1 X174.539 Y111.065 E4.3212
G1 X174.841 Y111.94 E4.35198
G1 X174.848 Y111.965 E4.35285
G1 X175.077 Y113.101 E4.39139
G1 X175.122 Y113.461 E4.40346
G1 X175.182 Y114.432 E4.43582
G1 X175.18 Y118.431 E4.56882
G1 X175.117 Y119.413 E4.60155
G1 X175.072 Y119.766 E4.61339
G1 X174.902 Y120.672 E4.64405
G1 X174.896 Y120.696 E4.64487
G1 X174.666 Y121.451 E4.67112
G1 X174.503 Y121.865 E4.68592
G1 X174.364 Y122.192 E4.69774
G1 X174.019 Y122.902 E4.72399
G1 X173.604 Y123.574 E4.75026
G1 X173.337 Y123.937 E4.76525
G1 X173.08 Y124.265 E4.77911
G1 X172.56 Y124.859 E4.80536
G1 X171.983 Y125.398 E4.83163
G1 X171.668 Y125.649 E4.84502
G1 X171.353 Y125.887 E4.85815
G1 X170.699 Y126.33 E4.88443
G1 X169.644 Y126.863 E4.92374
G1 X169.32 Y126.997 E4.9354
G1 X168.308 Y127.336 E4.9709
G1 X168.285 Y127.342 E4.97169
G1 X167.278 Y127.535 E5.00579
G1 X166.916 Y127.58 E5.01793
G1 X165.953 Y127.64 E5.05002
G1 X155.459 Y127.639 E5.39905
G1 X154.82 Y127.673 E5.42033
G1 X154.407 Y127.737 E5.43423
G1 X153.967 Y127.855 E5.44938
G1 X153.588 Y128 E5.46288
G1 X153.191 Y128.203 E5.47771
G1 X152.834 Y128.436 E5.49189
G1 X152.532 Y128.681 E5.50482
G1 X152.352 Y128.867 E5.51343
G1 X152.011 Y129.207 E5.52945
G1 X151.508 Y129.757 E5.55424
G1 X151.19 Y130.085 E5.56943
G1 X150.543 Y130.714 E5.59945
G1 X150.287 Y130.952 E5.61107
G1 X149.605 Y131.558 E5.64142
G1 X149.365 Y131.762 E5.65189
G1 X148.659 Y132.34 E5.68224
G1 X148.331 Y132.594 E5.69604
G1 X147.164 Y133.45 E5.74418
G1 X146.838 Y133.678 E5.75741
G1 X145.637 Y134.468 E5.80522
G1 X145.249 Y134.706 E5.82036
G1 X143.487 Y135.723 E5.88802
G1 X143.085 Y135.94 E5.90322
G1 X141.253 Y136.859 E5.97139
G1 X140.884 Y137.032 E5.98494
G1 X139.029 Y137.844 E6.05229
G1 X138.683 Y137.986 E6.06473
G1 X136.781 Y138.712 E6.13244
G1 X136.477 Y138.821 E6.14319
G1 X134.731 Y139.406 E6.20443
G1 X134.477 Y139.486 E6.21329
G1 X132.722 Y140.008 E6.27419
G1 X132.471 Y140.078 E6.28285
G1 X130.708 Y140.539 E6.34346
G1 X130.466 Y140.598 E6.35175
G1 X128.678 Y141.005 E6.41274
G1 X128.451 Y141.054 E6.42046
G1 X126.655 Y141.407 E6.48134
G1 X126.435 Y141.447 E6.48878
G1 X124.637 Y141.747 E6.54941
G1 X124.429 Y141.778 E6.5564
G1 X122.62 Y142.03 E6.61715
G1 X122.411 Y142.057 E6.62416
G1 X120.588 Y142.261 E6.68517
G1 X120.393 Y142.28 E6.69169
G1 X118.578 Y142.437 E6.75228
G1 X118.374 Y142.452 E6.75908
G1 X116.544 Y142.562 E6.82006
G1 X116.345 Y142.571 E6.82668
G1 X114.519 Y142.634 E6.88745
G1 X114.327 Y142.639 E6.89384
G1 X112.503 Y142.657 E6.95451
G1 X112.306 Y142.656 E6.96106
G1 X110.483 Y142.628 E7.0217
G1 X110.292 Y142.623 E7.02806
G1 X108.465 Y142.55 E7.08887
G1 X108.269 Y142.54 E7.0954
G1 X106.442 Y142.421 E7.15629
G1 X106.239 Y142.405 E7.16307
G1 X104.423 Y142.239 E7.22372
G1 X104.22 Y142.217 E7.23051
G1 X102.429 Y142.006 E7.29049
G1 X102.229 Y141.98 E7.2972
G1 X100.446 Y141.723 E7.35712
G1 X100.233 Y141.689 E7.36429
G1 X98.459 Y141.383 E7.42416
G1 X98.249 Y141.344 E7.43127
G1 X96.487 Y140.99 E7.49104
G1 X96.259 Y140.941 E7.4988
G1 X94.497 Y140.532 E7.55896
G1 X94.252 Y140.471 E7.56736
G1 X92.519 Y140.009 E7.62701
G1 X92.284 Y139.942 E7.63514
G1 X90.55 Y139.421 E7.69536
G1 X90.281 Y139.335 E7.70475
G1 X88.58 Y138.756 E7.76452
G1 X88.302 Y138.656 E7.77434
G1 X86.608 Y138.007 E7.83468
G1 X86.308 Y137.884 E7.84546
G1 X84.649 Y137.168 E7.90556
G1 X84.325 Y137.02 E7.91741
G1 X82.705 Y136.231 E7.97734
G1 X82.351 Y136.047 E7.99061
G1 X80.755 Y135.166 E8.05125
G1 X80.368 Y134.938 E8.06618
G1 X78.832 Y133.971 E8.12655
G1 X78.407 Y133.683 E8.14363
G1 X76.935 Y132.615 E8.20412
G1 X76.586 Y132.346 E8.21877
G1 X75.881 Y131.771 E8.24903
G1 X75.629 Y131.557 E8.26003
G1 X74.946 Y130.95 E8.29042
G1 X74.695 Y130.716 E8.30183
G1 X74.044 Y130.084 E8.33201
G1 X73.658 Y129.682 E8.35055
G1 X73.199 Y129.167 E8.37349
G1 X72.752 Y128.719 E8.39454
G1 X72.404 Y128.437 E8.40944
G1 X72.064 Y128.215 E8.42294
G1 X71.666 Y128.01 E8.43783
G1 X71.27 Y127.856 E8.45196
G1 X70.848 Y127.742 E8.4665
G1 X70.419 Y127.674 E8.48095
G1 X69.766 Y127.64 E8.5027
G1 X59.265 Y127.638 E8.85196
G1 X58.28 Y127.575 E8.88479
G1 X57.927 Y127.53 E8.89663
G1 X57.093 Y127.378 E8.92482
G1 X57.068 Y127.372 E8.92568
G1 X56.31 Y127.149 E8.95196
G1 X55.823 Y126.96 E8.96933
G1 X55.495 Y126.82 E8.98119
G1 X54.786 Y126.474 E9.00743
G1 X54.114 Y126.058 E9.03372
G1 X53.753 Y125.792 E9.04863
G1 X53.41 Y125.523 E9.06313
G1 X52.818 Y125.002 E9.08936
G1 X52.078 Y124.17 E9.1264
G1 X51.868 Y123.897 E9.13785
G1 X51.335 Y123.109 E9.16949
G1 X51.322 Y123.087 E9.17034
G1 X50.825 Y122.089 E9.20743
G1 X50.692 Y121.766 E9.21904
G1 X50.379 Y120.848 E9.2513
G1 X50.373 Y120.826 E9.25206
G1 X50.158 Y119.741 E9.28885
G1 X50.113 Y119.381 E9.30092
G1 X50.053 Y118.41 E9.33327
G1 X50.055 Y114.41 E9.46631
G1 X50.118 Y113.425 E9.49914
G1 X50.163 Y113.073 E9.51095
G1 X50.333 Y112.17 E9.54151
G1 X50.339 Y112.146 E9.54233
G1 X50.569 Y111.391 E9.56858
G1 X50.73 Y110.981 E9.58323
G1 X50.87 Y110.652 E9.59512
G1 X51.215 Y109.942 E9.62138
G1 X51.63 Y109.27 E9.64765
G1 X51.904 Y108.898 E9.66301
G1 X52.181 Y108.546 E9.67791
G1 X52.704 Y107.955 E9.70416
G1 X53.489 Y107.254 E9.73916
G1 X53.759 Y107.044 E9.75054
G1 X54.406 Y106.591 E9.77681
G1 X54.876 Y106.319 E9.79487
G0 F6000 X55.066 Y106.672
G1 F1200 X55.729 Y106.356 E9.8193
G1 X56.046 Y106.224 E9.83072
G1 X56.858 Y105.94 E9.85933
G1 X56.886 Y105.932 E9.8603
G1 X58.006 Y105.704 E9.89832
G1 X58.368 Y105.659 E9.91045
G1 X59.282 Y105.602 E9.94091
G1 X69.788 Y105.603 E10.29034
G1 X70.452 Y105.568 E10.31245
G1 X70.914 Y105.496 E10.32801
G1 X71.37 Y105.374 E10.34371
G1 X71.835 Y105.194 E10.36029
G1 X72.231 Y104.993 E10.37506
G1 X72.658 Y104.715 E10.39201
G1 X72.965 Y104.466 E10.40516
G1 X73.285 Y104.137 E10.42042
G1 X73.518 Y103.906 E10.43133
G1 X73.983 Y103.396 E10.45429
G1 X74.279 Y103.09 E10.46845
G1 X74.897 Y102.486 E10.49719
G1 X75.237 Y102.173 E10.51256
G1 X76.535 Y101.054 E10.56956
G1 X76.962 Y100.713 E10.58773
G1 X78.34 Y99.692 E10.64478
G1 X78.73 Y99.422 E10.66055
G1 X80.187 Y98.481 E10.71824
G1 X80.494 Y98.293 E10.73022
G1 X81.539 Y97.688 E10.77038
G1 X81.777 Y97.556 E10.77943
G1 X82.858 Y96.982 E10.82014
G1 X83.069 Y96.874 E10.82802
G1 X84.172 Y96.333 E10.86888
G1 X84.4 Y96.226 E10.87726
G1 X85.507 Y95.729 E10.91762
G1 X85.794 Y95.608 E10.92798
G1 X88.068 Y94.7 E11.00942
G1 X88.43 Y94.566 E11.02226
G1 X90.727 Y93.785 E11.10295
G1 X91.062 Y93.68 E11.11463
G1 X93.41 Y93.004 E11.19589
G1 X93.718 Y92.922 E11.20649
G1 X96.075 Y92.352 E11.28715
G1 X96.363 Y92.289 E11.29695
G1 X98.754 Y91.811 E11.37805
G1 X99.032 Y91.76 E11.38745
G1 X101.431 Y91.375 E11.46827
G1 X101.684 Y91.339 E11.47676
G1 X103.87 Y91.065 E11.55004
G1 X104.102 Y91.04 E11.5578
G1 X106.297 Y90.835 E11.63113
G1 X106.527 Y90.817 E11.6388
G1 X108.735 Y90.68 E11.71238
G1 X108.958 Y90.67 E11.7198
G1 X111.161 Y90.6 E11.79311
G1 X111.383 Y90.596 E11.8005
G1 X113.581 Y90.592 E11.8736
G1 X113.802 Y90.595 E11.88095
G1 X116.007 Y90.657 E11.95432
G1 X116.235 Y90.667 E11.96191
G1 X118.44 Y90.797 E12.03538
G1 X118.663 Y90.813 E12.04281
G1 X120.854 Y91.009 E12.11598
G1 X121.094 Y91.035 E12.12401
G1 X123.284 Y91.303 E12.19739
G1 X123.517 Y91.335 E12.20521
G1 X125.694 Y91.672 E12.27848
G1 X125.942 Y91.715 E12.28685
G1 X128.117 Y92.128 E12.36049
G1 X128.37 Y92.181 E12.36908
G1 X130.522 Y92.668 E12.44247
G1 X130.804 Y92.737 E12.45213
G1 X132.935 Y93.308 E12.5255
G1 X133.229 Y93.393 E12.53568
G1 X135.346 Y94.055 E12.60946
G1 X135.66 Y94.161 E12.62048
G1 X137.742 Y94.916 E12.69414
G1 X138.078 Y95.047 E12.70613
G1 X140.11 Y95.898 E12.77941
G1 X140.412 Y96.033 E12.79041
G1 X141.667 Y96.626 E12.83658
G1 X141.91 Y96.747 E12.8456
G1 X143.151 Y97.39 E12.89209
G1 X143.419 Y97.535 E12.90223
G1 X144.628 Y98.226 E12.94854
G1 X144.909 Y98.395 E12.95945
G1 X146.088 Y99.14 E13.00584
G1 X146.403 Y99.351 E13.01845
G1 X147.536 Y100.151 E13.06458
G1 X147.865 Y100.397 E13.07824
G1 X148.96 Y101.265 E13.12471
G1 X149.325 Y101.575 E13.14064
G1 X150.377 Y102.526 E13.18781
G1 X150.789 Y102.928 E13.20695
G1 X151.662 Y103.85 E13.24919
G1 X152.064 Y104.251 E13.26807
G1 X152.273 Y104.467 E13.27807
G1 X152.584 Y104.721 E13.29142
G1 X152.984 Y104.981 E13.30729
G1 X153.407 Y105.198 E13.3231
G1 X153.855 Y105.37 E13.33906
G1 X154.31 Y105.493 E13.35474
G1 X154.778 Y105.567 E13.3705
G1 X155.458 Y105.603 E13.39315
G1 X165.97 Y105.604 E13.74278
G1 X166.905 Y105.663 E13.77394
G1 X167.258 Y105.708 E13.78577
G1 X168.117 Y105.87 E13.81485
G1 X168.141 Y105.876 E13.81567
G1 X169.222 Y106.237 E13.85358
G1 X169.535 Y106.369 E13.86488
G1 X169.996 Y106.582 E13.88177
G1 X170.666 Y106.962 E13.90739
G1 X171.243 Y107.37 E13.93089
G1 X171.559 Y107.618 E13.94425
G1 X172.137 Y108.125 E13.96982
G1 X172.869 Y108.952 E14.00656
G1 X173.117 Y109.281 E14.02026
G1 X173.546 Y109.919 E14.04583
G1 X174.037 Y110.896 E14.0822
G1 X174.17 Y111.218 E14.09379
G1 X174.456 Y112.048 E14.12298
G1 X174.463 Y112.073 E14.12385
G1 X174.68 Y113.15 E14.16039
G1 X174.725 Y113.51 E14.17246
G1 X174.782 Y114.432 E14.20318
G1 X174.78 Y118.431 E14.33619
G1 X174.721 Y119.363 E14.36725
G1 X174.676 Y119.716 E14.37908
G1 X174.514 Y120.575 E14.40816
G1 X174.508 Y120.599 E14.40898
G1 X174.283 Y121.334 E14.43455
G1 X174.135 Y121.708 E14.44792
G1 X173.996 Y122.035 E14.45974
G1 X173.659 Y122.727 E14.48534
G1 X173.252 Y123.379 E14.51091
G1 X173.021 Y123.691 E14.52382
G1 X172.766 Y124.017 E14.53758
G1 X172.259 Y124.595 E14.56316
G1 X171.427 Y125.33 E14.60008
G1 X171.113 Y125.568 E14.61318
G1 X170.475 Y125.998 E14.63877
G1 X169.491 Y126.493 E14.67541
G1 X169.167 Y126.627 E14.68707
G1 X168.207 Y126.949 E14.72075
G1 X168.184 Y126.955 E14.72154
G1 X167.229 Y127.138 E14.75388
G1 X166.867 Y127.183 E14.76601
G1 X165.953 Y127.24 E14.79647
G1 X155.457 Y127.239 E15.14557
G1 X154.766 Y127.275 E15.16859
G1 X154.331 Y127.344 E15.18323
G1 X153.844 Y127.474 E15.2
G1 X153.418 Y127.638 E15.21518
G1 X152.999 Y127.851 E15.23081
G1 X152.594 Y128.114 E15.24688
G1 X152.261 Y128.385 E15.26116
G1 X151.95 Y128.705 E15.276
G1 X151.717 Y128.936 E15.28691
G1 X151.213 Y129.487 E15.31175
G1 X150.911 Y129.798 E15.32617
G1 X150.264 Y130.427 E15.35618
G1 X150.021 Y130.653 E15.36722
G1 X149.339 Y131.259 E15.39756
G1 X149.112 Y131.453 E15.40749
G1 X148.406 Y132.031 E15.43784
G1 X148.095 Y132.272 E15.45093
G1 X146.928 Y133.128 E15.49906
G1 X146.618 Y133.343 E15.51161
G1 X145.417 Y134.133 E15.55942
G1 X145.049 Y134.36 E15.5738
G1 X143.287 Y135.377 E15.64147
G1 X142.906 Y135.582 E15.65586
G1 X141.074 Y136.501 E15.72403
G1 X140.723 Y136.666 E15.73693
G1 X138.868 Y137.478 E15.80428
G1 X138.54 Y137.612 E15.81606
G1 X136.638 Y138.338 E15.88377
G1 X136.35 Y138.442 E15.89396
G1 X134.604 Y139.027 E15.9552
G1 X134.363 Y139.103 E15.96361
G1 X132.608 Y139.625 E16.02451
G1 X132.37 Y139.691 E16.03272
G1 X130.607 Y140.152 E16.09333
G1 X130.377 Y140.208 E16.10121
G1 X128.589 Y140.615 E16.1622
G1 X128.374 Y140.661 E16.16951
G1 X126.578 Y141.014 E16.23039
G1 X126.369 Y141.052 E16.23745
G1 X124.571 Y141.352 E16.29808
G1 X124.374 Y141.382 E16.30471
G1 X122.565 Y141.634 E16.36546
G1 X122.367 Y141.659 E16.37209
G1 X120.544 Y141.863 E16.43311
G1 X120.359 Y141.881 E16.43929
G1 X118.544 Y142.038 E16.49988
G1 X118.35 Y142.053 E16.50635
G1 X116.52 Y142.163 E16.56733
G1 X116.331 Y142.172 E16.57362
G1 X114.505 Y142.235 E16.63439
G1 X114.323 Y142.239 E16.64045
G1 X112.499 Y142.257 E16.70111
G1 X112.312 Y142.256 E16.70733
G1 X110.489 Y142.228 E16.76798
G1 X110.308 Y142.223 E16.774
G1 X108.481 Y142.15 E16.83481
G1 X108.295 Y142.14 E16.84101
G1 X106.468 Y142.021 E16.9019
G1 X106.275 Y142.006 E16.90834
G1 X104.459 Y141.84 E16.96899
G1 X104.267 Y141.82 E16.97541
G1 X102.476 Y141.609 E17.03539
