;FLAVOR:Marlin
;TIME:4105
;Filament used: 2.61276m
;Layer height: 0.2
;MINX:54.936
;MINY:95.208
;MINZ:0.2
;MAXX:180.064
;MAXY:129.776
;MAXZ:10
;Generated with Cura_SteamEngine 4.7.1
M140 S50
M105
M190 S50
M104 S200
M105
M109 S200
M82 ;absolute extrusion mode
; Ender 3 Custom Start G-code
G92 E0 ; Reset Extruder
G28 ; Home all axes
G1 Z2.0 F3000 ; Move Z Axis up little to prevent scratching of Heat Bed
G1 X0.1 Y20 Z0.3 F5000.0 ; Move to start position
G1 X0.1 Y200.0 Z0.3 F1500.0 E15 ; Draw the first line
G1 X0.4 Y200.0 Z0.3 F5000.0 ; Move to side a little
G1 X0.4 Y20 Z0.3 F1500.0 E30 ; Draw the second line
G92 E0 ; Reset Extruder
G1 Z2.0 F3000 ; Move Z Axis up little to prevent scratching of Heat Bed
G1 X5 Y20 Z0.3 F5000.0 ; Move over to prevent blob squish
G92 E0
G92 E0
G1 F2700 E-5
;LAYER_COUNT:50
;LAYER:0
M107
G0 F6000 X59.419 Y101.172 Z0.2
;TYPE:SKIRT
G1 F2700 E0
G1 F1200 X60.473 Y100.64 E0.03927
G1 X60.792 Y100.508 E0.05075
G1 X61.631 Y100.215 E0.08031
G1 X61.659 Y100.207 E0.08128
G1 X62.428 Y100.029 E0.10753
G1 X62.84 Y99.967 E0.12139
G1 X63.202 Y99.922 E0.13352
G1 X64.164 Y99.862 E0.16558
G1 X82.391 Y99.862 E0.77181
G1 X85.103 Y99.796 E0.86204
G1 X87.646 Y99.611 E0.94684
G1 X90.236 Y99.295 E1.03363
G1 X92.777 Y98.859 E1.11938
G1 X94.334 Y98.502 E1.17251
G1 X95.268 Y98.296 E1.20432
G1 X96.662 Y97.895 E1.25256
G1 X96.895 Y97.831 E1.2606
G1 X98.572 Y97.404 E1.31816
G1 X98.771 Y97.356 E1.32496
G1 X100.441 Y96.977 E1.38192
G1 X100.643 Y96.934 E1.38879
G1 X102.325 Y96.599 E1.44583
G1 X102.513 Y96.564 E1.45219
G1 X104.204 Y96.27 E1.50928
G1 X104.394 Y96.24 E1.51568
G1 X106.091 Y95.988 E1.57274
G1 X106.263 Y95.964 E1.57851
G1 X107.971 Y95.749 E1.63577
G1 X108.161 Y95.727 E1.64213
G1 X109.874 Y95.554 E1.6994
G1 X110.044 Y95.539 E1.70507
G1 X111.74 Y95.405 E1.76166
G1 X111.917 Y95.393 E1.76756
G1 X113.646 Y95.296 E1.82516
G1 X113.822 Y95.288 E1.83102
G1 X115.526 Y95.231 E1.88772
G1 X115.7 Y95.227 E1.89351
G1 X117.4 Y95.208 E1.95006
G1 X117.573 Y95.208 E1.95581
G1 X119.289 Y95.227 E2.01289
G1 X119.461 Y95.231 E2.01861
G1 X121.181 Y95.288 E2.07585
G1 X121.357 Y95.296 E2.08171
G1 X123.062 Y95.391 E2.13851
G1 X123.243 Y95.403 E2.14454
G1 X124.962 Y95.539 E2.20189
G1 X125.135 Y95.555 E2.20767
G1 X126.849 Y95.729 E2.26497
G1 X127.031 Y95.75 E2.27107
G1 X128.722 Y95.962 E2.32775
G1 X128.9 Y95.986 E2.33372
G1 X130.613 Y96.241 E2.39133
G1 X130.8 Y96.271 E2.39762
G1 X132.492 Y96.565 E2.45474
G1 X132.683 Y96.601 E2.46121
G1 X134.357 Y96.935 E2.51798
G1 X134.55 Y96.976 E2.52455
G1 X136.227 Y97.355 E2.58173
G1 X136.435 Y97.405 E2.58885
G1 X138.114 Y97.833 E2.64647
G1 X138.348 Y97.896 E2.65453
G1 X139.762 Y98.304 E2.70348
G1 X140.734 Y98.517 E2.73658
G1 X142.244 Y98.863 E2.7881
G1 X144.783 Y99.299 E2.87379
G1 X147.339 Y99.611 E2.95943
G1 X148.159 Y99.669 E2.98677
G1 X149.907 Y99.798 E3.04507
G1 X152.606 Y99.862 E3.13486
G1 X170.852 Y99.864 E3.74173
G1 X171.837 Y99.927 E3.77456
G1 X172.19 Y99.972 E3.78639
G1 X173.096 Y100.142 E3.81705
G1 X173.12 Y100.148 E3.81787
G1 X173.875 Y100.378 E3.84413
G1 X174.259 Y100.528 E3.85784
G1 X174.572 Y100.66 E3.86914
G1 X175.057 Y100.884 E3.8869
G1 X175.745 Y101.273 E3.91319
G1 X176.371 Y101.714 E3.93866
G1 X176.689 Y101.964 E3.95211
G1 X177.283 Y102.484 E3.97837
G1 X177.822 Y103.061 E4.00463
G1 X178.069 Y103.37 E4.01779
G1 X178.319 Y103.701 E4.03159
G1 X178.76 Y104.356 E4.05785
G1 X179.288 Y105.403 E4.09685
G1 X179.421 Y105.725 E4.10844
G1 X179.723 Y106.6 E4.13923
G1 X179.73 Y106.625 E4.14009
G1 X179.959 Y107.761 E4.17863
G1 X180.004 Y108.121 E4.1907
G1 X180.064 Y109.092 E4.22306
G1 X180.062 Y113.091 E4.35606
G1 X179.999 Y114.073 E4.38879
G1 X179.954 Y114.426 E4.40063
G1 X179.784 Y115.332 E4.43129
G1 X179.778 Y115.356 E4.43211
G1 X179.548 Y116.111 E4.45836
G1 X179.385 Y116.525 E4.47316
G1 X179.251 Y116.841 E4.48458
G1 X178.906 Y117.552 E4.51086
G1 X178.492 Y118.224 E4.53711
G1 X178.216 Y118.6 E4.55263
G1 X177.962 Y118.924 E4.56632
G1 X177.442 Y119.518 E4.59258
G1 X176.591 Y120.277 E4.6305
G1 X176.315 Y120.489 E4.64208
G1 X175.577 Y120.991 E4.67176
G1 X175.557 Y121.003 E4.67254
G1 X174.534 Y121.519 E4.71065
G1 X174.216 Y121.651 E4.7221
G1 X173.369 Y121.947 E4.75194
G1 X173.341 Y121.955 E4.75291
G1 X172.572 Y122.133 E4.77916
G1 X172.176 Y122.193 E4.79249
G1 X171.828 Y122.237 E4.80415
G1 X170.85 Y122.299 E4.83675
G1 X167.992 Y122.299 E4.9318
G1 X167.739 Y122.314 E4.94023
G1 X167.689 Y122.323 E4.94192
G1 X167.623 Y122.353 E4.94433
G1 X167.568 Y122.402 E4.94678
G1 X167.544 Y122.44 E4.94828
G1 X167.483 Y122.724 E4.95794
G1 X167.403 Y123.069 E4.96972
G1 X167.186 Y123.828 E4.99598
G1 X166.797 Y124.764 E5.02969
G1 X166.707 Y124.946 E5.03644
G1 X166.321 Y125.636 E5.06274
G1 X165.815 Y126.35 E5.09184
G1 X165.658 Y126.547 E5.10022
G1 X165.135 Y127.139 E5.1265
G1 X164.347 Y127.843 E5.16164
G1 X164.149 Y127.997 E5.16998
G1 X163.198 Y128.63 E5.20798
G1 X163.175 Y128.643 E5.20886
G1 X162.292 Y129.072 E5.24151
G1 X162.077 Y129.16 E5.24924
G1 X161.174 Y129.466 E5.28095
G1 X161.152 Y129.472 E5.28171
G1 X160.036 Y129.691 E5.31953
G1 X159.796 Y129.72 E5.32757
G1 X158.854 Y129.776 E5.35896
G1 X156.231 Y129.774 E5.4462
G1 X155.284 Y129.716 E5.47776
G1 X154.943 Y129.674 E5.48919
G1 X153.927 Y129.479 E5.52359
G1 X153.904 Y129.473 E5.52439
G1 X152.873 Y129.126 E5.56057
G1 X152.514 Y128.976 E5.57351
G1 X151.803 Y128.633 E5.59976
G1 X150.833 Y128.007 E5.63816
G1 X150.558 Y127.799 E5.64963
G1 X149.748 Y127.093 E5.68537
G1 X149.729 Y127.074 E5.68626
G1 X149.091 Y126.352 E5.71831
G1 X149.006 Y126.242 E5.72293
G1 X148.96 Y126.186 E5.72534
G1 X148.397 Y125.393 E5.75769
G1 X147.988 Y124.734 E5.78348
G1 X147.858 Y124.518 E5.79187
G1 X147.382 Y123.888 E5.81813
G1 X146.736 Y123.163 E5.85043
G1 X146.151 Y122.592 E5.87762
G1 X145.487 Y122.013 E5.90692
G1 X144.742 Y121.43 E5.93838
G1 X144.506 Y121.26 E5.94806
G1 X143.975 Y120.885 E5.96968
G1 X143.622 Y120.657 E5.98366
G1 X143.038 Y120.283 E6.00672
G1 X142.035 Y119.697 E6.04536
G1 X141.657 Y119.495 E6.05961
G1 X141.012 Y119.155 E6.08386
G1 X140.633 Y118.971 E6.09788
G1 X139.929 Y118.633 E6.12385
G1 X139.573 Y118.475 E6.1368
G1 X138.864 Y118.165 E6.16254
G1 X138.457 Y117.998 E6.17717
G1 X137.812 Y117.738 E6.2003
G1 X136.703 Y117.326 E6.23965
G1 X136.306 Y117.189 E6.25362
G1 X135.637 Y116.962 E6.27712
G1 X133.286 Y116.263 E6.3587
G1 X130.932 Y115.685 E6.43932
G1 X128.573 Y115.216 E6.51931
G1 X127.62 Y115.067 E6.55139
G1 X126.072 Y114.829 E6.60349
G1 X125.141 Y114.721 E6.63466
G1 X123.614 Y114.547 E6.68577
G1 X121.133 Y114.362 E6.76852
G1 X119.3 Y114.287 E6.82954
G1 X117.509 Y114.263 E6.88911
G1 X115.693 Y114.287 E6.94952
G1 X113.848 Y114.363 E7.01094
G1 X113.185 Y114.408 E7.03304
G1 X112.047 Y114.489 E7.07098
G1 X110.267 Y114.662 E7.13047
G1 X107.589 Y115.023 E7.22034
G1 X104.9 Y115.508 E7.31122
G1 X103.681 Y115.77 E7.35269
G1 X102.38 Y116.085 E7.39721
G1 X101.155 Y116.415 E7.43941
G1 X99.874 Y116.798 E7.48388
G1 X98.665 Y117.197 E7.52622
G1 X98.186 Y117.369 E7.54315
G1 X97.463 Y117.633 E7.56875
G1 X96.998 Y117.816 E7.58537
G1 X96.278 Y118.104 E7.61116
G1 X95.177 Y118.584 E7.65111
G1 X94.041 Y119.129 E7.69302
G1 X93.005 Y119.676 E7.73199
G1 X91.977 Y120.274 E7.77154
G1 X91.615 Y120.505 E7.78582
G1 X91.013 Y120.893 E7.80964
G1 X90.772 Y121.061 E7.81942
G1 X90.418 Y121.312 E7.83385
G1 X90.153 Y121.511 E7.84487
G1 X89.794 Y121.786 E7.85991
G1 X89.223 Y122.257 E7.88453
G1 X88.728 Y122.703 E7.90669
G1 X88.536 Y122.891 E7.91563
G1 X88.24 Y123.185 E7.92951
G1 X87.811 Y123.653 E7.95062
G1 X87.428 Y124.12 E7.97071
G1 X87.162 Y124.483 E7.98568
G1 X87.011 Y124.737 E7.99551
G1 X86.596 Y125.405 E8.02166
G1 X86.089 Y126.126 E8.05098
G1 X85.874 Y126.398 E8.06251
G1 X85.27 Y127.076 E8.09271
G1 X85.251 Y127.095 E8.0936
G1 X84.39 Y127.84 E8.13147
G1 X84.094 Y128.059 E8.14372
G1 X83.437 Y128.497 E8.16998
G1 X82.739 Y128.867 E8.19626
G1 X82.307 Y129.053 E8.2119
G1 X81.989 Y129.178 E8.22327
G1 X81.242 Y129.433 E8.24952
G1 X80.472 Y129.611 E8.27581
G1 X80.062 Y129.673 E8.2896
G1 X79.707 Y129.717 E8.30149
G1 X78.742 Y129.776 E8.33365
G1 X76.122 Y129.774 E8.42079
G1 X75.215 Y129.72 E8.45101
G1 X74.986 Y129.693 E8.45868
G1 X74.207 Y129.561 E8.48496
G1 X73.446 Y129.351 E8.51122
G1 X73.045 Y129.206 E8.5254
G1 X72.811 Y129.114 E8.53376
G1 X72.092 Y128.788 E8.56002
G1 X71.675 Y128.557 E8.57588
G1 X70.947 Y128.07 E8.60501
G1 X70.764 Y127.932 E8.61263
G1 X70.158 Y127.425 E8.63891
G1 X69.417 Y126.635 E8.67494
G1 X69.244 Y126.423 E8.68404
G1 X68.776 Y125.787 E8.7103
G1 X68.303 Y124.965 E8.74184
G1 X68.211 Y124.78 E8.74871
G1 X67.896 Y124.056 E8.77498
G1 X67.589 Y123.034 E8.81047
G1 X67.51 Y122.686 E8.82234
G1 X67.459 Y122.446 E8.8305
G1 X67.447 Y122.425 E8.8313
G1 X67.411 Y122.38 E8.83322
G1 X67.345 Y122.336 E8.83586
G1 X67.256 Y122.313 E8.83891
G1 X67.023 Y122.3 E8.84668
G1 X64.144 Y122.298 E8.94243
G1 X63.163 Y122.235 E8.97513
G1 X62.81 Y122.19 E8.98696
G1 X61.976 Y122.038 E9.01516
G1 X61.951 Y122.032 E9.01601
G1 X61.193 Y121.809 E9.04229
G1 X60.706 Y121.62 E9.05967
G1 X60.378 Y121.48 E9.07153
G1 X59.669 Y121.134 E9.09777
G1 X58.997 Y120.718 E9.12406
G1 X58.632 Y120.449 E9.13914
G1 X58.359 Y120.235 E9.15067
G1 X58.263 Y120.158 E9.15477
G1 X57.672 Y119.633 E9.18106
G1 X56.966 Y118.836 E9.21647
G1 X56.757 Y118.565 E9.22786
G1 X56.271 Y117.858 E9.25639
G1 X56.257 Y117.835 E9.25729
G1 X55.881 Y117.14 E9.28357
G1 X55.708 Y116.749 E9.29779
G1 X55.575 Y116.426 E9.30941
G1 X55.262 Y115.508 E9.34167
G1 X55.256 Y115.486 E9.34242
G1 X55.041 Y114.401 E9.37921
G1 X54.996 Y114.041 E9.39128
G1 X54.936 Y113.07 E9.42364
G1 X54.938 Y109.071 E9.55664
G1 X55.001 Y108.089 E9.58937
G1 X55.046 Y107.736 E9.60121
G1 X55.216 Y106.83 E9.63187
G1 X55.222 Y106.806 E9.63269
G1 X55.452 Y106.051 E9.65894
G1 X55.615 Y105.637 E9.67374
G1 X55.754 Y105.31 E9.68556
G1 X56.099 Y104.6 E9.71181
G1 X56.514 Y103.928 E9.73808
G1 X56.781 Y103.565 E9.75307
G1 X57.038 Y103.237 E9.76693
G1 X57.558 Y102.643 E9.79319
G1 X58.135 Y102.104 E9.81945
G1 X58.45 Y101.853 E9.83284
G1 X58.765 Y101.615 E9.84598
G1 X59.419 Y101.172 E9.87225
G0 F6000 X59.643 Y101.504
G1 F1200 X60.626 Y101.009 E9.90885
G1 X60.945 Y100.877 E9.92034
G1 X61.741 Y100.6 E9.94837
G1 X61.769 Y100.592 E9.94934
G1 X62.889 Y100.364 E9.98735
G1 X63.251 Y100.319 E9.99949
G1 X64.164 Y100.262 E10.02991
G1 X82.401 Y100.262 E10.63648
G1 X85.121 Y100.196 E10.72697
G1 X87.681 Y100.009 E10.81234
G1 X90.313 Y99.688 E10.90053
G1 X92.841 Y99.255 E10.98584
G1 X94.42 Y98.893 E11.03972
G1 X95.353 Y98.688 E11.07149
G1 X96.772 Y98.279 E11.12061
G1 X96.994 Y98.219 E11.12826
G1 X98.671 Y97.792 E11.18581
G1 X98.859 Y97.747 E11.19224
G1 X100.529 Y97.368 E11.2492
G1 X100.722 Y97.327 E11.25576
G1 X102.404 Y96.992 E11.31281
G1 X102.581 Y96.958 E11.3188
G1 X104.272 Y96.664 E11.37589
G1 X104.453 Y96.635 E11.38198
G1 X106.15 Y96.383 E11.43905
G1 X106.313 Y96.361 E11.44452
G1 X108.021 Y96.146 E11.50177
G1 X108.201 Y96.125 E11.5078
G1 X109.914 Y95.952 E11.56506
G1 X110.075 Y95.938 E11.57044
G1 X111.771 Y95.804 E11.62702
G1 X111.939 Y95.793 E11.63262
G1 X113.668 Y95.696 E11.69022
G1 X113.836 Y95.688 E11.69582
G1 X115.54 Y95.631 E11.75252
G1 X115.704 Y95.627 E11.75798
G1 X117.404 Y95.608 E11.81452
G1 X117.569 Y95.608 E11.82001
G1 X119.285 Y95.627 E11.87709
G1 X119.448 Y95.631 E11.88251
G1 X121.168 Y95.688 E11.93975
G1 X121.335 Y95.695 E11.94531
G1 X123.04 Y95.79 E12.00211
G1 X123.212 Y95.802 E12.00784
G1 X124.931 Y95.938 E12.0652
G1 X125.094 Y95.953 E12.07064
G1 X126.808 Y96.127 E12.12794
G1 X126.982 Y96.146 E12.13376
G1 X128.673 Y96.358 E12.19045
G1 X128.842 Y96.382 E12.19612
G1 X130.555 Y96.637 E12.25373
G1 X130.732 Y96.665 E12.25969
G1 X132.424 Y96.959 E12.3168
G1 X132.605 Y96.993 E12.32293
G1 X134.279 Y97.327 E12.37971
G1 X134.462 Y97.366 E12.38593
G1 X136.139 Y97.745 E12.44311
G1 X136.336 Y97.792 E12.44985
G1 X138.015 Y98.22 E12.50748
G1 X138.237 Y98.281 E12.51514
G1 X139.644 Y98.687 E12.56384
G1 X140.645 Y98.907 E12.59793
G1 X142.179 Y99.258 E12.65027
G1 X144.709 Y99.693 E12.73565
G1 X147.3 Y100.01 E12.82247
G1 X148.13 Y100.068 E12.85015
G1 X149.889 Y100.197 E12.90881
G1 X152.597 Y100.262 E12.9989
G1 X170.852 Y100.264 E13.60607
G1 X171.787 Y100.323 E13.63723
G1 X172.14 Y100.368 E13.64906
G1 X172.999 Y100.53 E13.67814
G1 X173.023 Y100.536 E13.67896
G1 X174.104 Y100.897 E13.71686
G1 X174.417 Y101.029 E13.72816
G1 X174.878 Y101.242 E13.74505
G1 X175.548 Y101.622 E13.77067
G1 X176.125 Y102.03 E13.79418
G1 X176.441 Y102.278 E13.80754
G1 X177.019 Y102.785 E13.83311
G1 X177.751 Y103.612 E13.86984
G1 X177.999 Y103.941 E13.88354
G1 X178.428 Y104.579 E13.90912
G1 X178.919 Y105.556 E13.94548
G1 X179.052 Y105.878 E13.95707
G1 X179.338 Y106.708 E13.98627
G1 X179.345 Y106.733 E13.98713
G1 X179.562 Y107.81 E14.02367
G1 X179.607 Y108.17 E14.03574
G1 X179.664 Y109.092 E14.06647
G1 X179.662 Y113.091 E14.19947
G1 X179.603 Y114.023 E14.23053
G1 X179.558 Y114.376 E14.24237
G1 X179.396 Y115.235 E14.27144
G1 X179.39 Y115.259 E14.27227
G1 X179.165 Y115.994 E14.29783
G1 X179.017 Y116.368 E14.31121
G1 X178.882 Y116.685 E14.32267
G1 X178.546 Y117.377 E14.34826
G1 X178.14 Y118.03 E14.37383
G1 X177.901 Y118.353 E14.38719
G1 X177.648 Y118.676 E14.40084
G1 X177.141 Y119.254 E14.42641
G1 X176.348 Y119.96 E14.46173
G1 X176.072 Y120.172 E14.4733
G1 X175.371 Y120.648 E14.50148
G1 X175.351 Y120.66 E14.50226
G1 X174.381 Y121.15 E14.5384
G1 X174.063 Y121.282 E14.54986
G1 X173.259 Y121.562 E14.57817
G1 X173.231 Y121.57 E14.57914
G1 X172.126 Y121.797 E14.61666
G1 X171.778 Y121.841 E14.62833
G1 X170.85 Y121.899 E14.65925
G1 X167.985 Y121.899 E14.75454
G1 X167.686 Y121.917 E14.76451
G1 X167.605 Y121.931 E14.76724
G1 X167.529 Y121.955 E14.76989
G1 X167.466 Y121.982 E14.77217
G1 X167.402 Y122.02 E14.77465
G1 X167.337 Y122.069 E14.77735
G1 X167.277 Y122.127 E14.78013
G1 X167.235 Y122.178 E14.78233
G1 X167.192 Y122.246 E14.785
G1 X167.165 Y122.302 E14.78707
G1 X167.151 Y122.362 E14.78912
G1 X167.094 Y122.634 E14.79836
G1 X167.014 Y122.979 E14.81014
G1 X166.801 Y123.718 E14.83572
G1 X166.438 Y124.587 E14.86705
G1 X166.348 Y124.769 E14.8738
G1 X165.972 Y125.44 E14.89938
G1 X165.502 Y126.101 E14.92636
G1 X165.345 Y126.298 E14.93474
G1 X164.835 Y126.874 E14.96032
G1 X164.101 Y127.527 E14.993
G1 X163.903 Y127.681 E15.00134
G1 X163.001 Y128.282 E15.03739
G1 X162.978 Y128.295 E15.03827
G1 X162.14 Y128.702 E15.06926
G1 X161.925 Y128.79 E15.07698
G1 X161.069 Y129.08 E15.10704
G1 X161.047 Y129.086 E15.1078
G1 X159.988 Y129.294 E15.1437
G1 X159.748 Y129.323 E15.15174
G1 X158.854 Y129.376 E15.18153
G1 X156.231 Y129.374 E15.26877
G1 X155.332 Y129.319 E15.29872
G1 X154.991 Y129.277 E15.31015
G1 X154.028 Y129.092 E15.34277
G1 X154.005 Y129.086 E15.34356
G1 X153.027 Y128.757 E15.37788
G1 X152.669 Y128.607 E15.39079
G1 X151.977 Y128.273 E15.41634
G1 X151.074 Y127.688 E15.45213
G1 X150.799 Y127.48 E15.4636
G1 X150.03 Y126.811 E15.4975
G1 X150.011 Y126.792 E15.49839
G1 X149.406 Y126.106 E15.52881
G1 X149.271 Y125.934 E15.53609
G1 X148.737 Y125.182 E15.56676
G1 X148.245 Y124.387 E15.59786
G1 X148.191 Y124.296 E15.60138
G1 X147.69 Y123.631 E15.62907
G1 X147.025 Y122.886 E15.66228
G1 X146.435 Y122.31 E15.68971
G1 X145.735 Y121.699 E15.72061
G1 X144.973 Y121.103 E15.75279
G1 X144.682 Y120.894 E15.7647
G1 X144.195 Y120.551 E15.78452
G1 X143.869 Y120.34 E15.79743
G1 X143.25 Y119.943 E15.82189
G1 X142.227 Y119.346 E15.86129
G1 X141.157 Y118.781 E15.90153
G1 X140.806 Y118.61 E15.91452
G1 X140.115 Y118.278 E15.94002
G1 X139.689 Y118.089 E15.95552
G1 X139.034 Y117.802 E15.9793
G1 X138.609 Y117.628 E15.99458
G1 X137.965 Y117.368 E16.01767
G1 X136.833 Y116.948 E16.05783
G1 X136.434 Y116.81 E16.07188
G1 X135.769 Y116.584 E16.09524
G1 X133.394 Y115.878 E16.17764
G1 X131.014 Y115.294 E16.25915
G1 X128.639 Y114.822 E16.33969
G1 X127.655 Y114.667 E16.37282
G1 X126.152 Y114.436 E16.4234
G1 X125.187 Y114.324 E16.45571
G1 X123.637 Y114.148 E16.50759
G1 X121.149 Y113.962 E16.59058
G1 X119.322 Y113.887 E16.65139
G1 X117.508 Y113.863 E16.71173
G1 X115.672 Y113.888 E16.7728
G1 X114.958 Y113.916 E16.79657
G1 X113.844 Y113.963 E16.83365
G1 X113.146 Y114.01 E16.85692
G1 X112.016 Y114.09 E16.8946
