;FLAVOR:Marlin
;TIME:4408
;Filament used: 2.04267m
;Layer height: 0.2
;MINX:62.355
;MINY:105.284
;MINZ:0.2
;MAXX:172.645
;MAXY:129.716
;MAXZ:74.908
;Generated with Cura_SteamEngine 4.7.1
M140 S50
M105
M190 S50
M104 S200
M105
M109 S200
M82 ;absolute extrusion mode
; Ender 3 Custom Start G-code
G92 E0 ; Reset Extruder
G28 ; Home all axes
G1 Z2.0 F3000 ; Move Z Axis up little to prevent scratching of Heat Bed
G1 X0.1 Y20 Z0.3 F5000.0 ; Move to start position
G1 X0.1 Y200.0 Z0.3 F1500.0 E15 ; Draw the first line
G1 X0.4 Y200.0 Z0.3 F5000.0 ; Move to side a little
G1 X0.4 Y20 Z0.3 F1500.0 E30 ; Draw the second line
G92 E0 ; Reset Extruder
G1 Z2.0 F3000 ; Move Z Axis up little to prevent scratching of Heat Bed
G1 X5 Y20 Z0.3 F5000.0 ; Move over to prevent blob squish
G92 E0
G92 E0
G1 F2700 E-5
;LAYER_COUNT:374
;LAYER:0
M107
G0 F6000 X109.453 Y107.849 Z0.2
;TYPE:SKIRT
G1 F2700 E0
G1 F1200 X110.101 Y107.297 E0.02831
G1 X110.261 Y107.175 E0.035
G1 X110.912 Y106.729 E0.06125
G1 X111.605 Y106.351 E0.08751
G1 X112.333 Y106.044 E0.11378
G1 X113.058 Y105.821 E0.13901
G1 X113.594 Y105.684 E0.15741
G1 X114.368 Y105.527 E0.18368
G1 X114.9 Y105.466 E0.20149
G1 X116.874 Y105.307 E0.26736
G1 X117.663 Y105.284 E0.29361
G1 X118.127 Y105.307 E0.30906
G1 X120.1 Y105.466 E0.3749
G1 X120.882 Y105.569 E0.40113
G1 X121.391 Y105.681 E0.41847
G1 X121.927 Y105.817 E0.43686
G1 X122.682 Y106.049 E0.46313
G1 X123.409 Y106.357 E0.48939
G1 X124.102 Y106.737 E0.51568
G1 X124.744 Y107.179 E0.5416
G1 X124.905 Y107.302 E0.54834
G1 X125.508 Y107.812 E0.57461
G1 X126.055 Y108.381 E0.60086
G1 X126.543 Y109.003 E0.62716
G1 X126.965 Y109.67 E0.65341
G1 X127.317 Y110.377 E0.67968
G1 X127.597 Y111.115 E0.70593
G1 X127.8 Y111.878 E0.73219
G1 X127.924 Y112.658 E0.75846
G1 X127.97 Y113.5 E0.7865
G1 X127.97 Y121.5 E1.05259
G1 X127.93 Y122.289 E1.07886
G1 X127.811 Y123.069 E1.1051
G1 X127.613 Y123.834 E1.13139
G1 X127.339 Y124.574 E1.15763
G1 X126.991 Y125.283 E1.1839
G1 X126.573 Y125.954 E1.21019
G1 X126.09 Y126.578 E1.23644
G1 X125.547 Y127.151 E1.2627
G1 X124.899 Y127.703 E1.29101
G1 X124.739 Y127.825 E1.2977
G1 X124.088 Y128.271 E1.32395
G1 X123.395 Y128.649 E1.3502
G1 X122.667 Y128.956 E1.37648
G1 X121.942 Y129.179 E1.40171
G1 X121.406 Y129.316 E1.42011
G1 X120.632 Y129.473 E1.44638
G1 X120.1 Y129.534 E1.46419
G1 X118.126 Y129.693 E1.53006
G1 X117.337 Y129.716 E1.55631
G1 X116.873 Y129.693 E1.57176
G1 X114.9 Y129.534 E1.6376
G1 X114.118 Y129.431 E1.66383
G1 X113.609 Y129.319 E1.68116
G1 X113.073 Y129.183 E1.69956
G1 X112.318 Y128.951 E1.72583
G1 X111.591 Y128.643 E1.75209
G1 X110.898 Y128.263 E1.77837
G1 X110.256 Y127.821 E1.8043
G1 X110.095 Y127.698 E1.81104
G1 X109.492 Y127.188 E1.8373
G1 X108.945 Y126.619 E1.86356
G1 X108.457 Y125.997 E1.88985
G1 X108.035 Y125.33 E1.9161
G1 X107.683 Y124.623 E1.94237
G1 X107.403 Y123.885 E1.96862
G1 X107.2 Y123.122 E1.99489
G1 X107.076 Y122.342 E2.02115
G1 X107.03 Y121.5 E2.0492
G1 X107.03 Y113.5 E2.31528
G1 X107.07 Y112.711 E2.34156
G1 X107.189 Y111.931 E2.3678
G1 X107.387 Y111.166 E2.39408
G1 X107.661 Y110.426 E2.42033
G1 X108.009 Y109.717 E2.4466
G1 X108.427 Y109.046 E2.47289
G1 X108.91 Y108.422 E2.49914
G1 X109.453 Y107.849 E2.52539
G0 F6000 X109.846 Y108.03
G1 F1200 X110.343 Y107.615 E2.54693
G1 X110.503 Y107.493 E2.55362
G1 X111.138 Y107.06 E2.57918
G1 X111.815 Y106.694 E2.60478
G1 X112.526 Y106.4 E2.63037
G1 X113.157 Y106.208 E2.65231
G1 X113.693 Y106.071 E2.67071
G1 X114.448 Y105.92 E2.69632
G1 X114.932 Y105.865 E2.71252
G1 X116.906 Y105.706 E2.77839
G1 X117.675 Y105.684 E2.80397
G1 X118.094 Y105.706 E2.81793
G1 X120.067 Y105.865 E2.88376
G1 X120.83 Y105.966 E2.90936
G1 X121.293 Y106.068 E2.92513
G1 X121.829 Y106.204 E2.94352
G1 X122.564 Y106.432 E2.96912
G1 X123.271 Y106.735 E2.9947
G1 X123.943 Y107.109 E3.02028
G1 X124.501 Y107.497 E3.04289
G1 X124.662 Y107.62 E3.04963
G1 X125.249 Y108.118 E3.07523
G1 X125.78 Y108.674 E3.1008
G1 X126.25 Y109.282 E3.12636
G1 X126.655 Y109.936 E3.15195
G1 X126.99 Y110.629 E3.17755
G1 X127.251 Y111.352 E3.20311
G1 X127.436 Y112.099 E3.22871
G1 X127.542 Y112.861 E3.2543
G1 X127.57 Y113.5 E3.27557
G1 X127.57 Y121.5 E3.54165
G1 X127.53 Y122.268 E3.56723
G1 X127.411 Y123.028 E3.59282
G1 X127.213 Y123.771 E3.61839
G1 X126.939 Y124.49 E3.64398
G1 X126.592 Y125.176 E3.66955
G1 X126.176 Y125.823 E3.69513
G1 X125.695 Y126.423 E3.72071
G1 X125.154 Y126.97 E3.7463
G1 X124.657 Y127.385 E3.76784
G1 X124.497 Y127.507 E3.77453
G1 X123.862 Y127.94 E3.80009
G1 X123.185 Y128.306 E3.82569
G1 X122.474 Y128.6 E3.85128
G1 X121.843 Y128.792 E3.87321
G1 X121.307 Y128.929 E3.89162
G1 X120.552 Y129.08 E3.91722
G1 X120.068 Y129.135 E3.93343
G1 X118.094 Y129.294 E3.99929
G1 X117.325 Y129.316 E4.02488
G1 X116.906 Y129.294 E4.03884
G1 X114.933 Y129.135 E4.10467
G1 X114.17 Y129.034 E4.13027
G1 X113.707 Y128.932 E4.14604
G1 X113.171 Y128.796 E4.16443
G1 X112.436 Y128.568 E4.19003
G1 X111.729 Y128.265 E4.21561
G1 X111.057 Y127.891 E4.24119
G1 X110.499 Y127.503 E4.26379
G1 X110.338 Y127.38 E4.27053
G1 X109.751 Y126.882 E4.29614
G1 X109.22 Y126.326 E4.32171
G1 X108.75 Y125.718 E4.34727
G1 X108.345 Y125.064 E4.37285
G1 X108.01 Y124.371 E4.39845
G1 X107.749 Y123.648 E4.42402
G1 X107.564 Y122.901 E4.44962
G1 X107.458 Y122.139 E4.4752
G1 X107.43 Y121.5 E4.49648
G1 X107.43 Y113.5 E4.76256
G1 X107.47 Y112.732 E4.78814
G1 X107.589 Y111.972 E4.81372
G1 X107.787 Y111.229 E4.8393
G1 X108.061 Y110.51 E4.86489
G1 X108.408 Y109.824 E4.89046
G1 X108.824 Y109.177 E4.91604
G1 X109.305 Y108.577 E4.94162
G1 X109.846 Y108.03 E4.96721
G0 F6000 X110.238 Y108.216
G1 F1200 X110.586 Y107.934 E4.98211
G1 X110.746 Y107.812 E4.9888
G1 X111.364 Y107.39 E5.01369
G1 X112.024 Y107.038 E5.03857
G1 X112.717 Y106.757 E5.06344
G1 X113.257 Y106.596 E5.08218
G1 X113.793 Y106.459 E5.10058
G1 X114.526 Y106.313 E5.12544
G1 X114.964 Y106.264 E5.1401
G1 X116.938 Y106.105 E5.20597
G1 X117.686 Y106.084 E5.23085
G1 X118.062 Y106.105 E5.24338
G1 X120.035 Y106.264 E5.30921
G1 X120.777 Y106.363 E5.33411
G1 X121.195 Y106.456 E5.34835
G1 X121.731 Y106.592 E5.36675
G1 X122.445 Y106.814 E5.39162
G1 X123.131 Y107.112 E5.41649
G1 X123.782 Y107.481 E5.44138
G1 X124.259 Y107.815 E5.46075
G1 X124.42 Y107.938 E5.46749
G1 X124.989 Y108.423 E5.49235
G1 X125.503 Y108.966 E5.51722
G1 X125.957 Y109.561 E5.54212
G1 X126.344 Y110.201 E5.56699
G1 X126.661 Y110.879 E5.59188
G1 X126.903 Y111.586 E5.61674
G1 X127.069 Y112.316 E5.64164
G1 X127.156 Y113.059 E5.66652
G1 X127.17 Y113.5 E5.6812
G1 X127.17 Y121.5 E5.94728
G1 X127.13 Y122.247 E5.97216
G1 X127.011 Y122.985 E5.99702
G1 X126.813 Y123.707 E6.02192
G1 X126.54 Y124.403 E6.04679
G1 X126.193 Y125.066 E6.07168
G1 X125.778 Y125.689 E6.09657
G1 X125.299 Y126.263 E6.12144
G1 X124.762 Y126.784 E6.14632
G1 X124.414 Y127.066 E6.16122
G1 X124.254 Y127.188 E6.16791
G1 X123.636 Y127.61 E6.1928
G1 X122.976 Y127.962 E6.21768
G1 X122.283 Y128.243 E6.24255
G1 X121.743 Y128.404 E6.2613
G1 X121.207 Y128.541 E6.2797
G1 X120.474 Y128.687 E6.30456
G1 X120.036 Y128.736 E6.31921
G1 X118.062 Y128.895 E6.38508
G1 X117.314 Y128.916 E6.40997
G1 X116.938 Y128.895 E6.4225
G1 X114.965 Y128.736 E6.48833
G1 X114.223 Y128.637 E6.51323
G1 X113.805 Y128.544 E6.52747
G1 X113.269 Y128.408 E6.54586
G1 X112.555 Y128.186 E6.57073
G1 X111.869 Y127.888 E6.59561
G1 X111.218 Y127.519 E6.6205
G1 X110.741 Y127.185 E6.63987
G1 X110.58 Y127.062 E6.6466
G1 X110.011 Y126.577 E6.67147
G1 X109.497 Y126.034 E6.69634
G1 X109.043 Y125.439 E6.72123
G1 X108.656 Y124.799 E6.74611
G1 X108.339 Y124.121 E6.771
G1 X108.097 Y123.414 E6.79586
G1 X107.931 Y122.684 E6.82076
G1 X107.844 Y121.941 E6.84564
G1 X107.83 Y121.5 E6.86031
G1 X107.83 Y113.5 E7.12639
G1 X107.87 Y112.753 E7.15127
G1 X107.989 Y112.015 E7.17614
G1 X108.187 Y111.293 E7.20104
G1 X108.46 Y110.597 E7.2259
G1 X108.807 Y109.934 E7.25079
G1 X109.222 Y109.311 E7.27569
G1 X109.701 Y108.737 E7.30056
G1 X110.238 Y108.216 E7.32544
G0 F6000 X110.095 Y108.902
G1 F1200 X110.828 Y108.252 E7.35803
G1 X110.988 Y108.13 E7.36472
G1 X111.589 Y107.722 E7.38888
G1 X112.231 Y107.382 E7.41304
G1 X112.907 Y107.115 E7.43721
G1 X113.356 Y106.984 E7.45277
G1 X113.892 Y106.847 E7.47117
G1 X114.604 Y106.706 E7.49531
G1 X114.996 Y106.662 E7.50843
G1 X116.97 Y106.503 E7.5743
G1 X118.03 Y106.503 E7.60956
G1 X120.003 Y106.662 E7.67539
G1 X120.723 Y106.76 E7.69956
G1 X121.096 Y106.844 E7.71228
G1 X121.632 Y106.98 E7.73067
G1 X122.325 Y107.197 E7.75482
G1 X122.99 Y107.489 E7.77898
G1 X123.619 Y107.852 E7.80313
G1 X124.016 Y108.132 E7.81929
G1 X124.177 Y108.255 E7.82603
G1 X124.729 Y108.727 E7.85019
G1 X125.226 Y109.257 E7.87435
G1 X125.661 Y109.839 E7.89852
G1 X126.03 Y110.464 E7.92266
G1 X126.328 Y111.127 E7.94684
G1 X126.552 Y111.818 E7.971
G1 X126.698 Y112.529 E7.99514
G1 X126.77 Y113.5 E8.02752
G1 X126.77 Y121.5 E8.2936
G1 X126.73 Y122.225 E8.31775
G1 X126.611 Y122.942 E8.34193
G1 X126.413 Y123.641 E8.36609
G1 X126.14 Y124.314 E8.39025
G1 X125.795 Y124.953 E8.4144
G1 X125.381 Y125.55 E8.43856
G1 X124.905 Y126.098 E8.4627
G1 X124.172 Y126.748 E8.49529
G1 X124.012 Y126.87 E8.50198
G1 X123.411 Y127.278 E8.52614
G1 X122.769 Y127.618 E8.5503
G1 X122.093 Y127.885 E8.57448
G1 X121.644 Y128.016 E8.59003
G1 X121.108 Y128.153 E8.60843
G1 X120.396 Y128.294 E8.63258
G1 X120.004 Y128.338 E8.6457
G1 X118.03 Y128.497 E8.71156
G1 X116.97 Y128.497 E8.74682
G1 X114.997 Y128.338 E8.81265
G1 X114.277 Y128.24 E8.83682
G1 X113.904 Y128.156 E8.84954
G1 X113.368 Y128.02 E8.86793
G1 X112.675 Y127.803 E8.89208
G1 X112.01 Y127.511 E8.91624
G1 X111.381 Y127.148 E8.9404
G1 X110.984 Y126.868 E8.95655
G1 X110.823 Y126.745 E8.96329
G1 X110.271 Y126.273 E8.98745
G1 X109.774 Y125.743 E9.01161
G1 X109.339 Y125.161 E9.03578
G1 X108.97 Y124.536 E9.05992
G1 X108.672 Y123.873 E9.0841
G1 X108.448 Y123.182 E9.10826
G1 X108.302 Y122.471 E9.1324
G1 X108.23 Y121.5 E9.16478
G1 X108.23 Y113.5 E9.43087
G1 X108.27 Y112.775 E9.45502
G1 X108.389 Y112.058 E9.47919
G1 X108.587 Y111.359 E9.50335
G1 X108.86 Y110.686 E9.52751
G1 X109.205 Y110.047 E9.55166
G1 X109.619 Y109.45 E9.57582
G1 X110.095 Y108.902 E9.59997
G0 F6000 X110.489 Y109.073
G1 F1200 X111.071 Y108.57 E9.62555
G1 X111.231 Y108.448 E9.63224
G1 X111.814 Y108.053 E9.65567
G1 X112.438 Y107.728 E9.67907
G1 X113.095 Y107.475 E9.70248
G1 X113.455 Y107.371 E9.71495
G1 X113.991 Y107.234 E9.73335
G1 X115.028 Y107.061 E9.76831
G1 X117.002 Y106.902 E9.83418
G1 X117.998 Y106.902 E9.86731
G1 X119.971 Y107.061 E9.93314
G1 X120.998 Y107.231 E9.96777
G1 X121.534 Y107.367 E9.98616
G1 X122.205 Y107.579 E10.00957
G1 X122.848 Y107.865 E10.03297
G1 X123.455 Y108.223 E10.05641
G1 X123.773 Y108.45 E10.06941
G1 X123.934 Y108.573 E10.07614
G1 X124.468 Y109.032 E10.09956
G1 X124.947 Y109.548 E10.12298
G1 X125.364 Y110.115 E10.14639
G1 X125.715 Y110.725 E10.1698
G1 X125.993 Y111.372 E10.19322
G1 X126.197 Y112.046 E10.21664
G1 X126.323 Y112.738 E10.24004
G1 X126.37 Y113.5 E10.26543
G1 X126.37 Y121.5 E10.53151
G1 X126.33 Y122.203 E10.55493
G1 X126.211 Y122.897 E10.57835
G1 X126.013 Y123.572 E10.60175
G1 X125.741 Y124.221 E10.62515
G1 X125.396 Y124.835 E10.64858
G1 X124.985 Y125.406 E10.67197
G1 X124.511 Y125.927 E10.6954
G1 X123.929 Y126.43 E10.72099
G1 X123.769 Y126.552 E10.72768
G1 X123.186 Y126.947 E10.7511
G1 X122.562 Y127.272 E10.7745
G1 X121.905 Y127.525 E10.79792
G1 X121.545 Y127.629 E10.81038
G1 X121.009 Y127.766 E10.82878
G1 X119.972 Y127.939 E10.86375
G1 X117.998 Y128.098 E10.92962
G1 X117.002 Y128.098 E10.96274
G1 X115.029 Y127.939 E11.02858
G1 X114.002 Y127.769 E11.0632
G1 X113.466 Y127.633 E11.08159
G1 X112.795 Y127.421 E11.105
G1 X112.152 Y127.135 E11.12841
G1 X111.545 Y126.777 E11.15184
G1 X111.227 Y126.55 E11.16484
G1 X111.066 Y126.427 E11.17158
G1 X110.532 Y125.968 E11.195
G1 X110.053 Y125.452 E11.21842
G1 X109.636 Y124.885 E11.24183
G1 X109.285 Y124.275 E11.26523
G1 X109.007 Y123.628 E11.28865
G1 X108.803 Y122.954 E11.31208
G1 X108.677 Y122.262 E11.33547
G1 X108.63 Y121.5 E11.36086
G1 X108.63 Y113.5 E11.62694
G1 X108.67 Y112.797 E11.65036
G1 X108.789 Y112.103 E11.67378
G1 X108.987 Y111.428 E11.69718
G1 X109.259 Y110.779 E11.72058
G1 X109.604 Y110.165 E11.74401
G1 X110.015 Y109.594 E11.76741
G1 X110.489 Y109.073 E11.79084
G0 F6000 X110.883 Y109.251
G1 F1200 X111.313 Y108.888 E11.80955
G1 X111.473 Y108.766 E11.81625
G1 X112.038 Y108.385 E11.83891
G1 X112.643 Y108.074 E11.86154
G1 X113.554 Y107.759 E11.8936
G1 X114.09 Y107.622 E11.912
G1 X115.06 Y107.46 E11.94471
G1 X117.034 Y107.301 E12.01057
G1 X117.966 Y107.301 E12.04157
G1 X119.939 Y107.46 E12.10741
G1 X120.899 Y107.619 E12.13977
G1 X121.435 Y107.755 E12.15816
G1 X122.084 Y107.961 E12.18081
G1 X122.705 Y108.242 E12.20348
G1 X123.53 Y108.768 E12.23602
G1 X123.691 Y108.891 E12.24276
G1 X124.207 Y109.335 E12.2654
G1 X124.667 Y109.837 E12.28805
G1 X125.065 Y110.39 E12.31071
G1 X125.396 Y110.985 E12.33336
G1 X125.655 Y111.614 E12.35598
G1 X125.838 Y112.27 E12.37863
G1 X125.943 Y112.943 E12.40129
G1 X125.97 Y113.5 E12.41984
G1 X125.97 Y121.5 E12.68592
G1 X125.93 Y122.18 E12.70857
G1 X125.811 Y122.85 E12.73121
G1 X125.614 Y123.502 E12.75386
G1 X125.342 Y124.126 E12.7765
G1 X124.998 Y124.714 E12.79916
G1 X124.588 Y125.258 E12.82182
G1 X124.117 Y125.749 E12.84445
G1 X123.687 Y126.112 E12.86316
G1 X123.527 Y126.234 E12.86985
G1 X122.962 Y126.615 E12.89252
G1 X122.357 Y126.926 E12.91515
G1 X121.446 Y127.241 E12.94721
G1 X120.91 Y127.378 E12.96561
G1 X119.94 Y127.54 E12.99831
G1 X117.966 Y127.699 E13.06418
G1 X117.034 Y127.699 E13.09518
G1 X115.061 Y127.54 E13.16102
G1 X114.101 Y127.381 E13.19338
G1 X113.565 Y127.245 E13.21177
G1 X112.916 Y127.039 E13.23442
G1 X112.295 Y126.758 E13.25709
G1 X111.47 Y126.232 E13.28963
G1 X111.309 Y126.109 E13.29637
G1 X110.793 Y125.665 E13.31901
G1 X110.333 Y125.163 E13.34166
G1 X109.935 Y124.61 E13.36432
G1 X109.604 Y124.015 E13.38697
G1 X109.345 Y123.386 E13.40959
G1 X109.162 Y122.73 E13.43224
G1 X109.057 Y122.057 E13.4549
G1 X109.03 Y121.5 E13.47345
G1 X109.03 Y113.5 E13.73953
G1 X109.07 Y112.82 E13.76218
G1 X109.189 Y112.15 E13.78482
G1 X109.386 Y111.498 E13.80747
G1 X109.658 Y110.874 E13.83011
G1 X110.002 Y110.286 E13.85277
G1 X110.412 Y109.742 E13.87543
G1 X110.883 Y109.251 E13.89805
G0 F6000 X111.275 Y109.435
G1 F1200 X111.556 Y109.206 E13.91011
G1 X111.716 Y109.084 E13.9168
G1 X112.261 Y108.718 E13.93864
G1 X112.848 Y108.421 E13.96052
G1 X113.653 Y108.146 E13.98881
G1 X114.189 Y108.009 E14.00721
G1 X115.092 Y107.858 E14.03766
G1 X117.066 Y107.699 E14.10353
G1 X117.934 Y107.699 E14.1324
G1 X119.907 Y107.858 E14.19824
G1 X120.801 Y108.007 E14.22838
G1 X121.337 Y108.143 E14.24677
G1 X121.963 Y108.343 E14.26863
G1 X122.56 Y108.617 E14.29048
G1 X123.287 Y109.086 E14.31925
G1 X123.448 Y109.209 E14.32599
G1 X123.945 Y109.639 E14.34785
G1 X124.386 Y110.126 E14.3697
G1 X124.765 Y110.663 E14.39156
G1 X125.075 Y111.242 E14.41341
G1 X125.313 Y111.854 E14.43525
G1 X125.475 Y112.491 E14.45711
G1 X125.558 Y113.142 E14.47894
G1 X125.57 Y113.5 E14.49085
G1 X125.57 Y121.5 E14.75693
G1 X125.53 Y122.156 E14.77879
G1 X125.411 Y122.802 E14.80064
G1 X125.214 Y123.429 E14.8225
G1 X124.942 Y124.027 E14.84435
G1 X124.6 Y124.588 E14.8662
G1 X124.192 Y125.103 E14.88805
G1 X123.725 Y125.565 E14.9099
G1 X123.444 Y125.794 E14.92196
G1 X123.284 Y125.916 E14.92865
G1 X122.739 Y126.282 E14.95049
G1 X122.152 Y126.579 E14.97237
G1 X121.347 Y126.854 E15.00066
G1 X120.811 Y126.991 E15.01906
G1 X119.908 Y127.142 E15.04951
G1 X117.934 Y127.301 E15.11538
G1 X117.066 Y127.301 E15.14425
G1 X115.093 Y127.142 E15.21009
G1 X114.199 Y126.993 E15.24023
G1 X113.663 Y126.857 E15.25862
G1 X113.037 Y126.657 E15.28048
G1 X112.44 Y126.383 E15.30233
G1 X111.713 Y125.914 E15.3311
G1 X111.552 Y125.791 E15.33784
G1 X111.055 Y125.361 E15.3597
G1 X110.614 Y124.874 E15.38155
G1 X110.235 Y124.337 E15.40341
G1 X109.925 Y123.758 E15.42526
G1 X109.687 Y123.146 E15.4471
G1 X109.525 Y122.509 E15.46896
G1 X109.442 Y121.858 E15.49079
G1 X109.43 Y121.5 E15.5027
G1 X109.43 Y113.5 E15.76878
G1 X109.47 Y112.844 E15.79064
G1 X109.589 Y112.198 E15.81249
G1 X109.786 Y111.571 E15.83435
G1 X110.058 Y110.973 E15.8562
