;FLAVOR:Marlin
;TIME:2481
;Filament used: 1.27895m
;Layer height: 0.2
;MINX:62.355
;MINY:105.271
;MINZ:0.2
;MAXX:172.645
;MAXY:129.731
;MAXZ:38.103
;Generated with Cura_SteamEngine 4.7.1
M140 S50
M105
M190 S50
M104 S200
M105
M109 S200
M82 ;absolute extrusion mode
; Ender 3 Custom Start G-code
G92 E0 ; Reset Extruder
G28 ; Home all axes
G1 Z2.0 F3000 ; Move Z Axis up little to prevent scratching of Heat Bed
G1 X0.1 Y20 Z0.3 F5000.0 ; Move to start position
G1 X0.1 Y200.0 Z0.3 F1500.0 E15 ; Draw the first line
G1 X0.4 Y200.0 Z0.3 F5000.0 ; Move to side a little
G1 X0.4 Y20 Z0.3 F1500.0 E30 ; Draw the second line
G92 E0 ; Reset Extruder
G1 Z2.0 F3000 ; Move Z Axis up little to prevent scratching of Heat Bed
G1 X5 Y20 Z0.3 F5000.0 ; Move over to prevent blob squish
G92 E0
G92 E0
G1 F2700 E-5
;LAYER_COUNT:190
;LAYER:0
M107
G0 F6000 X108.462 Y107.848 Z0.2
;TYPE:SKIRT
G1 F2700 E0
G1 F1200 X109.158 Y107.26 E0.0303
G1 X109.354 Y107.113 E0.03845
G1 X110.009 Y106.672 E0.06472
G1 X110.705 Y106.299 E0.09098
G1 X111.427 Y106.002 E0.11695
G1 X111.568 Y105.952 E0.12192
G1 X112.325 Y105.726 E0.1482
G1 X113.178 Y105.567 E0.17706
G1 X114.474 Y105.4 E0.22052
G1 X115.08 Y105.346 E0.24075
G1 X115.538 Y105.323 E0.25601
G1 X115.686 Y105.317 E0.26093
G1 X117.066 Y105.274 E0.30685
G1 X117.453 Y105.271 E0.31973
G1 X119.289 Y105.305 E0.3808
G1 X119.743 Y105.327 E0.39592
G1 X119.86 Y105.336 E0.39982
G1 X120.13 Y105.361 E0.40884
G1 X120.978 Y105.456 E0.43722
G1 X121.827 Y105.554 E0.46565
G1 X122.825 Y105.736 E0.49939
G1 X122.845 Y105.741 E0.50008
G1 X123.6 Y105.971 E0.52633
G1 X124.329 Y106.276 E0.55261
G1 X125.022 Y106.654 E0.57886
G1 X125.939 Y107.309 E0.61635
G1 X126.17 Y107.501 E0.62634
G1 X126.751 Y108.036 E0.6526
G1 X127.275 Y108.627 E0.67888
G1 X127.736 Y109.268 E0.70514
G1 X128.13 Y109.952 E0.73139
G1 X128.454 Y110.673 E0.75768
G1 X128.702 Y111.422 E0.78392
G1 X128.874 Y112.193 E0.8102
G1 X128.966 Y112.977 E0.83645
G1 X128.984 Y113.521 E0.85456
G1 X128.971 Y118.381 E1.0162
G1 X128.972 Y121.497 E1.11984
G1 X128.932 Y122.285 E1.14608
G1 X128.813 Y123.066 E1.17236
G1 X128.615 Y123.83 E1.19861
G1 X128.342 Y124.571 E1.22487
G1 X127.994 Y125.28 E1.25114
G1 X127.577 Y125.951 E1.27742
G1 X127.094 Y126.575 E1.30366
G1 X126.55 Y127.148 E1.32994
G1 X125.952 Y127.663 E1.35619
G1 X125.304 Y128.115 E1.38247
G1 X124.654 Y128.478 E1.40723
G1 X124.177 Y128.716 E1.42496
G1 X123.454 Y129.033 E1.45122
G1 X122.417 Y129.344 E1.48723
G1 X122.364 Y129.356 E1.48903
G1 X121.321 Y129.519 E1.52414
G1 X119.627 Y129.667 E1.5807
G1 X119.105 Y129.695 E1.59809
G1 X117.322 Y129.731 E1.6574
G1 X116.751 Y129.722 E1.6764
G1 X115.451 Y129.653 E1.7197
G1 X114.625 Y129.611 E1.74721
G1 X113.988 Y129.552 E1.76848
G1 X113.449 Y129.48 E1.78657
G1 X112.673 Y129.336 E1.81282
G1 X111.814 Y129.079 E1.84264
G1 X111.553 Y128.984 E1.85188
G1 X111.318 Y128.894 E1.86025
G1 X110.934 Y128.74 E1.87401
G1 X110.217 Y128.409 E1.90028
G1 X109.537 Y128.007 E1.92655
G1 X108.901 Y127.539 E1.95281
G1 X108.315 Y127.009 E1.97909
G1 X107.787 Y126.423 E2.00533
G1 X107.32 Y125.786 E2.0316
G1 X106.92 Y125.105 E2.05787
G1 X106.591 Y124.387 E2.08413
G1 X106.336 Y123.639 E2.11042
G1 X106.158 Y122.87 E2.13667
G1 X106.059 Y122.086 E2.16296
G1 X106.037 Y121.499 E2.18249
G1 X106.038 Y113.499 E2.44857
G1 X106.078 Y112.71 E2.47485
G1 X106.198 Y111.93 E2.5011
G1 X106.396 Y111.165 E2.52738
G1 X106.67 Y110.425 E2.55363
G1 X107.017 Y109.716 E2.57988
G1 X107.435 Y109.045 E2.60617
G1 X107.918 Y108.421 E2.63242
G1 X108.462 Y107.848 E2.6587
G0 F6000 X108.855 Y108.029
G1 F1200 X109.398 Y107.58 E2.68213
G1 X109.594 Y107.433 E2.69028
G1 X110.232 Y107.004 E2.71585
G1 X110.912 Y106.644 E2.74144
G1 X111.561 Y106.379 E2.76476
G1 X111.702 Y106.329 E2.76974
G1 X112.439 Y106.109 E2.79532
G1 X113.229 Y105.964 E2.82203
G1 X114.525 Y105.797 E2.86549
G1 X115.1 Y105.745 E2.8847
G1 X115.558 Y105.722 E2.89995
G1 X117.079 Y105.674 E2.95056
G1 X117.446 Y105.671 E2.96277
G1 X119.282 Y105.705 E3.02384
G1 X119.713 Y105.726 E3.0382
G1 X119.83 Y105.735 E3.0421
G1 X120.085 Y105.759 E3.05062
G1 X120.933 Y105.854 E3.079
G1 X121.782 Y105.952 E3.10742
G1 X122.728 Y106.124 E3.1394
G1 X122.748 Y106.129 E3.14009
G1 X123.483 Y106.354 E3.16566
G1 X124.191 Y106.654 E3.19123
G1 X124.865 Y107.026 E3.21684
G1 X125.683 Y107.617 E3.2504
G1 X125.914 Y107.809 E3.26039
G1 X126.479 Y108.331 E3.28598
G1 X126.987 Y108.908 E3.31155
G1 X127.432 Y109.536 E3.33714
G1 X127.81 Y110.206 E3.36273
G1 X128.116 Y110.911 E3.38829
G1 X128.348 Y111.645 E3.4139
G1 X128.502 Y112.398 E3.43946
G1 X128.584 Y113.52 E3.47688
G1 X128.571 Y118.38 E3.63852
G1 X128.572 Y121.497 E3.74219
G1 X128.532 Y122.265 E3.76777
G1 X128.413 Y123.025 E3.79336
G1 X128.216 Y123.768 E3.81892
G1 X127.942 Y124.487 E3.84452
G1 X127.595 Y125.173 E3.87009
G1 X127.179 Y125.82 E3.89567
G1 X126.698 Y126.421 E3.92127
G1 X126.157 Y126.968 E3.94686
G1 X125.563 Y127.456 E3.97243
G1 X124.921 Y127.879 E3.998
G1 X124.476 Y128.121 E4.01485
G1 X123.999 Y128.359 E4.03258
G1 X123.294 Y128.666 E4.05815
G1 X122.329 Y128.954 E4.09165
G1 X122.276 Y128.966 E4.09346
G1 X121.286 Y129.121 E4.12678
G1 X119.592 Y129.269 E4.18334
G1 X119.097 Y129.295 E4.19983
G1 X117.314 Y129.331 E4.25914
G1 X116.773 Y129.323 E4.27714
G1 X115.455 Y129.252 E4.32104
G1 X114.645 Y129.211 E4.34801
G1 X114.041 Y129.156 E4.36819
G1 X113.502 Y129.084 E4.38627
G1 X112.746 Y128.943 E4.41185
G1 X111.951 Y128.703 E4.43947
G1 X111.69 Y128.608 E4.44871
G1 X111.467 Y128.522 E4.45666
G1 X111.083 Y128.368 E4.47042
G1 X110.384 Y128.045 E4.49603
G1 X109.724 Y127.652 E4.52158
G1 X109.107 Y127.191 E4.5472
G1 X108.542 Y126.67 E4.57276
G1 X108.034 Y126.092 E4.59835
G1 X107.589 Y125.465 E4.62393
G1 X107.211 Y124.795 E4.64951
G1 X106.905 Y124.089 E4.6751
G1 X106.674 Y123.356 E4.70067
G1 X106.52 Y122.602 E4.72626
G1 X106.437 Y121.499 E4.76305
G1 X106.438 Y113.499 E5.02913
G1 X106.478 Y112.731 E5.05471
G1 X106.598 Y111.971 E5.0803
G1 X106.795 Y111.228 E5.10587
G1 X107.069 Y110.509 E5.13146
G1 X107.416 Y109.823 E5.15703
G1 X107.833 Y109.176 E5.18263
G1 X108.314 Y108.576 E5.20821
G1 X108.855 Y108.029 E5.2338
G0 F6000 X109.247 Y108.216
G1 F1200 X109.638 Y107.9 E5.25052
G1 X109.834 Y107.753 E5.25867
G1 X110.456 Y107.337 E5.28355
G1 X111.118 Y106.989 E5.30843
G1 X111.694 Y106.756 E5.32909
G1 X111.835 Y106.706 E5.33407
G1 X112.553 Y106.494 E5.35897
G1 X113.28 Y106.36 E5.38356
G1 X114.576 Y106.193 E5.42702
G1 X115.12 Y106.145 E5.44518
G1 X115.711 Y106.116 E5.46486
G1 X117.091 Y106.073 E5.51078
G1 X117.439 Y106.071 E5.52236
G1 X119.275 Y106.105 E5.58344
G1 X119.682 Y106.125 E5.59699
G1 X119.799 Y106.134 E5.60089
G1 X120.041 Y106.156 E5.60897
G1 X120.887 Y106.251 E5.63729
G1 X121.736 Y106.349 E5.66571
G1 X122.631 Y106.512 E5.69597
G1 X122.651 Y106.517 E5.69666
G1 X123.366 Y106.737 E5.72154
G1 X124.053 Y107.032 E5.74641
G1 X124.705 Y107.399 E5.77129
G1 X125.427 Y107.925 E5.801
G1 X125.658 Y108.117 E5.81099
G1 X126.207 Y108.625 E5.83587
G1 X126.699 Y109.189 E5.86076
G1 X127.127 Y109.802 E5.88563
G1 X127.488 Y110.457 E5.9105
G1 X127.777 Y111.147 E5.93539
G1 X127.99 Y111.864 E5.96026
G1 X128.126 Y112.6 E5.98516
G1 X128.184 Y113.519 E6.01578
G1 X128.171 Y118.379 E6.17743
G1 X128.172 Y121.497 E6.28113
G1 X128.132 Y122.244 E6.30601
G1 X128.013 Y122.982 E6.33088
G1 X127.816 Y123.704 E6.35577
G1 X127.542 Y124.4 E6.38065
G1 X127.196 Y125.063 E6.40552
G1 X126.782 Y125.686 E6.4304
G1 X126.303 Y126.261 E6.45529
G1 X125.765 Y126.781 E6.48018
G1 X125.176 Y127.241 E6.50503
G1 X124.297 Y127.763 E6.53904
G1 X123.82 Y128.001 E6.55677
G1 X123.134 Y128.298 E6.58163
G1 X122.241 Y128.564 E6.61262
G1 X122.188 Y128.576 E6.61443
G1 X121.251 Y128.722 E6.64597
G1 X119.557 Y128.87 E6.70253
G1 X119.089 Y128.896 E6.71812
G1 X117.306 Y128.932 E6.77743
G1 X116.794 Y128.923 E6.79446
G1 X115.492 Y128.854 E6.83783
G1 X114.666 Y128.812 E6.86534
G1 X114.094 Y128.759 E6.88444
G1 X113.555 Y128.687 E6.90253
G1 X112.82 Y128.549 E6.9274
G1 X112.088 Y128.327 E6.95284
G1 X111.827 Y128.232 E6.96208
G1 X111.615 Y128.151 E6.96963
G1 X111.231 Y127.997 E6.98339
G1 X110.553 Y127.682 E7.00826
G1 X109.912 Y127.296 E7.03314
G1 X109.316 Y126.844 E7.05802
G1 X108.771 Y126.331 E7.08292
G1 X108.285 Y125.763 E7.10778
G1 X107.862 Y125.146 E7.13266
G1 X107.507 Y124.488 E7.15753
G1 X107.224 Y123.795 E7.18243
G1 X107.017 Y123.076 E7.20731
G1 X106.888 Y122.34 E7.23216
G1 X106.837 Y121.499 E7.26019
G1 X106.838 Y113.499 E7.52627
G1 X106.878 Y112.752 E7.55115
G1 X106.998 Y112.014 E7.57602
G1 X107.195 Y111.292 E7.60091
G1 X107.469 Y110.596 E7.62579
G1 X107.815 Y109.933 E7.65066
G1 X108.23 Y109.31 E7.67556
G1 X108.709 Y108.736 E7.70042
G1 X109.247 Y108.216 E7.72531
G0 F6000 X109.104 Y108.901
G1 F1200 X109.878 Y108.22 E7.7596
G1 X110.074 Y108.073 E7.76775
G1 X110.678 Y107.67 E7.7919
G1 X111.323 Y107.335 E7.81607
G1 X111.828 Y107.133 E7.83416
G1 X111.969 Y107.083 E7.83914
G1 X112.666 Y106.878 E7.8633
G1 X113.332 Y106.757 E7.88582
G1 X114.628 Y106.59 E7.92928
G1 X115.14 Y106.544 E7.94638
G1 X115.598 Y106.521 E7.96163
G1 X115.723 Y106.516 E7.96579
G1 X117.103 Y106.473 E8.01171
G1 X117.431 Y106.471 E8.02262
G1 X119.267 Y106.505 E8.0837
G1 X119.651 Y106.523 E8.09648
G1 X119.768 Y106.532 E8.10038
G1 X119.996 Y106.554 E8.108
G1 X120.841 Y106.649 E8.13628
G1 X121.69 Y106.747 E8.16471
G1 X122.534 Y106.9 E8.19324
G1 X122.554 Y106.905 E8.19392
G1 X123.248 Y107.12 E8.21809
G1 X123.914 Y107.409 E8.24224
G1 X124.544 Y107.77 E8.26639
G1 X125.172 Y108.232 E8.29232
G1 X125.403 Y108.424 E8.30231
G1 X125.935 Y108.919 E8.32648
G1 X126.41 Y109.468 E8.35062
G1 X126.821 Y110.067 E8.37478
G1 X127.164 Y110.707 E8.39893
G1 X127.435 Y111.381 E8.4231
G1 X127.63 Y112.081 E8.44726
G1 X127.747 Y112.798 E8.47143
G1 X127.784 Y113.518 E8.49541
G1 X127.771 Y118.378 E8.65705
G1 X127.772 Y121.497 E8.76079
G1 X127.732 Y122.222 E8.78494
G1 X127.613 Y122.939 E8.80911
G1 X127.416 Y123.638 E8.83327
G1 X127.143 Y124.311 E8.85742
G1 X126.798 Y124.95 E8.88158
G1 X126.385 Y125.547 E8.90572
G1 X125.908 Y126.096 E8.92991
G1 X125.374 Y126.588 E8.95406
G1 X124.79 Y127.019 E8.9782
G1 X124.119 Y127.405 E9.00395
G1 X123.642 Y127.643 E9.02168
G1 X122.975 Y127.931 E9.04584
G1 X122.152 Y128.174 E9.07438
G1 X122.099 Y128.186 E9.07619
G1 X121.216 Y128.324 E9.10592
G1 X119.522 Y128.472 E9.16247
G1 X119.081 Y128.496 E9.17716
G1 X117.298 Y128.532 E9.23648
G1 X116.815 Y128.524 E9.25255
G1 X115.497 Y128.453 E9.29645
G1 X114.686 Y128.412 E9.32345
G1 X114.147 Y128.363 E9.34146
G1 X113.608 Y128.291 E9.35954
G1 X112.895 Y128.155 E9.38368
G1 X112.225 Y127.951 E9.40698
G1 X111.964 Y127.856 E9.41622
G1 X111.764 Y127.78 E9.42333
G1 X111.38 Y127.626 E9.43709
G1 X110.722 Y127.319 E9.46124
G1 X110.102 Y126.941 E9.4854
G1 X109.526 Y126.498 E9.50956
G1 X109.003 Y125.994 E9.53372
G1 X108.539 Y125.435 E9.55788
G1 X108.138 Y124.829 E9.58205
G1 X107.807 Y124.183 E9.6062
G1 X107.549 Y123.504 E9.63035
G1 X107.366 Y122.801 E9.65452
G1 X107.263 Y122.082 E9.67867
G1 X107.237 Y121.499 E9.69808
G1 X107.238 Y113.499 E9.96416
G1 X107.278 Y112.774 E9.98831
G1 X107.398 Y112.057 E10.01249
G1 X107.595 Y111.358 E10.03665
G1 X107.868 Y110.685 E10.0608
G1 X108.214 Y110.046 E10.08497
G1 X108.627 Y109.449 E10.10912
G1 X109.104 Y108.901 E10.13328
G0 F6000 X109.498 Y109.072
G1 F1200 X110.118 Y108.54 E10.16045
G1 X110.314 Y108.393 E10.1686
G1 X110.9 Y108.003 E10.19202
G1 X111.527 Y107.682 E10.21544
G1 X111.962 Y107.51 E10.231
G1 X112.103 Y107.46 E10.23598
G1 X112.779 Y107.262 E10.25941
G1 X113.383 Y107.154 E10.27981
G1 X114.679 Y106.987 E10.32327
G1 X115.16 Y106.944 E10.33934
G1 X115.736 Y106.916 E10.35852
G1 X117.116 Y106.873 E10.40444
G1 X117.424 Y106.871 E10.41468
G1 X119.26 Y106.905 E10.47576
G1 X119.621 Y106.922 E10.48778
G1 X119.738 Y106.931 E10.49168
G1 X119.952 Y106.951 E10.49883
G1 X120.795 Y107.046 E10.52705
G1 X121.644 Y107.144 E10.55547
G1 X122.437 Y107.288 E10.58228
G1 X122.457 Y107.293 E10.58296
G1 X123.129 Y107.502 E10.60637
G1 X123.773 Y107.786 E10.62978
G1 X124.381 Y108.142 E10.65321
G1 X124.916 Y108.54 E10.67539
G1 X125.147 Y108.732 E10.68538
G1 X125.662 Y109.212 E10.7088
G1 X126.119 Y109.747 E10.7322
G1 X126.513 Y110.331 E10.75563
G1 X126.838 Y110.955 E10.77903
G1 X127.09 Y111.613 E10.80247
G1 X127.266 Y112.294 E10.82586
G1 X127.363 Y112.992 E10.8493
G1 X127.384 Y113.517 E10.86678
G1 X127.371 Y118.377 E11.02842
G1 X127.372 Y121.497 E11.13219
G1 X127.332 Y122.2 E11.15561
G1 X127.213 Y122.894 E11.17903
G1 X127.016 Y123.57 E11.20245
G1 X126.744 Y124.219 E11.22586
G1 X126.399 Y124.833 E11.24928
G1 X125.988 Y125.404 E11.27268
G1 X125.514 Y125.925 E11.29611
G1 X124.984 Y126.388 E11.31951
G1 X124.406 Y126.789 E11.34291
G1 X123.94 Y127.047 E11.36063
G1 X123.463 Y127.285 E11.37836
G1 X122.816 Y127.563 E11.40178
G1 X122.064 Y127.784 E11.42785
G1 X122.011 Y127.796 E11.42966
G1 X121.182 Y127.925 E11.45756
G1 X119.488 Y128.073 E11.51412
G1 X119.073 Y128.096 E11.52794
G1 X117.29 Y128.132 E11.58726
G1 X116.836 Y128.124 E11.60236
G1 X115.532 Y128.055 E11.64579
G1 X114.706 Y128.013 E11.6733
G1 X114.2 Y127.966 E11.6902
G1 X113.661 Y127.894 E11.70829
G1 X112.97 Y127.762 E11.73169
G1 X112.361 Y127.575 E11.75288
G1 X112.1 Y127.48 E11.76211
G1 X111.913 Y127.408 E11.76878
G1 X111.529 Y127.254 E11.78254
G1 X110.892 Y126.956 E11.80593
G1 X110.292 Y126.587 E11.82936
G1 X109.738 Y126.152 E11.85279
G1 X109.237 Y125.657 E11.87621
G1 X108.796 Y125.109 E11.89961
G1 X108.419 Y124.514 E11.92303
G1 X108.112 Y123.881 E11.94643
G1 X107.879 Y123.217 E11.96984
G1 X107.723 Y122.53 E11.99327
G1 X107.637 Y121.499 E12.02768
G1 X107.638 Y113.499 E12.29376
G1 X107.678 Y112.796 E12.31718
G1 X107.798 Y112.103 E12.34057
G1 X107.995 Y111.427 E12.36399
G1 X108.268 Y110.778 E12.38741
G1 X108.612 Y110.164 E12.41082
G1 X109.024 Y109.593 E12.43424
G1 X109.498 Y109.072 E12.45766
G0 F6000 X109.891 Y109.25
G1 F1200 X110.358 Y108.86 E12.4779
G1 X110.554 Y108.713 E12.48605
G1 X111.122 Y108.337 E12.50871
G1 X111.73 Y108.03 E12.53136
G1 X112.096 Y107.887 E12.54443
G1 X112.237 Y107.837 E12.5494
G1 X112.891 Y107.647 E12.57206
G1 X113.434 Y107.551 E12.5904
G1 X114.73 Y107.384 E12.63386
G1 X115.18 Y107.343 E12.64889
G1 X115.638 Y107.32 E12.66414
G1 X117.128 Y107.273 E12.71372
G1 X117.416 Y107.271 E12.7233
G1 X119.252 Y107.305 E12.78438
G1 X119.59 Y107.321 E12.79563
G1 X119.707 Y107.33 E12.79953
G1 X119.907 Y107.349 E12.80622
G1 X120.749 Y107.443 E12.8344
G1 X121.598 Y107.541 E12.86282
G1 X122.34 Y107.676 E12.8879
G1 X122.36 Y107.681 E12.88859
G1 X123.009 Y107.885 E12.91122
G1 X123.631 Y108.163 E12.93388
G1 X124.215 Y108.512 E12.95651
G1 X124.66 Y108.848 E12.97505
G1 X124.891 Y109.04 E12.98504
G1 X125.389 Y109.505 E13.0077
G1 X125.828 Y110.025 E13.03034
G1 X126.203 Y110.593 E13.05298
G1 X126.509 Y111.201 E13.07561
G1 X126.742 Y111.841 E13.09827
G1 X126.898 Y112.504 E13.12092
G1 X126.984 Y113.516 E13.1547
G1 X126.971 Y118.376 E13.31635
G1 X126.972 Y121.497 E13.42015
G1 X126.932 Y122.177 E13.44281
G1 X126.813 Y122.847 E13.46544
G1 X126.616 Y123.499 E13.48809
G1 X126.344 Y124.123 E13.51074
G1 X126.001 Y124.711 E13.53338
G1 X125.591 Y125.255 E13.55603
G1 X125.121 Y125.747 E13.57866
G1 X124.596 Y126.181 E13.60132
G1 X123.761 Y126.689 E13.63383
G1 X123.284 Y126.927 E13.65156
G1 X122.658 Y127.195 E13.67421
G1 X121.976 Y127.394 E13.69784
G1 X121.923 Y127.406 E13.69964
G1 X121.147 Y127.527 E13.72576
G1 X119.453 Y127.675 E13.78232
G1 X119.065 Y127.696 E13.79525
G1 X117.282 Y127.732 E13.85456
G1 X116.857 Y127.725 E13.8687
G1 X115.552 Y127.656 E13.91216
G1 X114.726 Y127.614 E13.93967
G1 X114.253 Y127.57 E13.95547
G1 X113.714 Y127.498 E13.97356
G1 X113.046 Y127.368 E13.99619
G1 X112.498 Y127.199 E14.01527
G1 X112.237 Y127.104 E14.0245
G1 X112.062 Y127.037 E14.03074
G1 X111.678 Y126.883 E14.0445
G1 X111.062 Y126.593 E14.06714
G1 X110.484 Y126.233 E14.08979
G1 X109.953 Y125.807 E14.11243
G1 X109.475 Y125.322 E14.13508
G1 X109.057 Y124.785 E14.15772
G1 X108.705 Y124.202 E14.18037
G1 X108.424 Y123.582 E14.20301
G1 X108.217 Y122.933 E14.22566
G1 X108.088 Y122.265 E14.24829
G1 X108.037 Y121.499 E14.27383
G1 X108.038 Y113.499 E14.53991
G1 X108.078 Y112.82 E14.56253
G1 X108.197 Y112.149 E14.5852
