;FLAVOR:Marlin
;TIME:5441
;Filament used: 3.32091m
;Layer height: 0.2
;MINX:54.936
;MINY:86.27
;MINZ:0.2
;MAXX:180.064
;MAXY:138.737
;MAXZ:10
;Generated with Cura_SteamEngine 4.8.0-beta
M140 S60
M105
M190 S60
M104 S200
M105
M109 S200
M82 ;absolute extrusion mode
M201 X500.00 Y500.00 Z100.00 E5000.00 ;Setup machine max acceleration
M203 X500.00 Y500.00 Z10.00 E50.00 ;Setup machine max feedrate
M204 P500.00 R1000.00 T500.00 ;Setup Print/Retract/Travel acceleration
M205 X8.00 Y8.00 Z0.40 E5.00 ;Setup Jerk
M220 S100 ;Reset Feedrate
M221 S100 ;Reset Flowrate

G28 ;Home

G92 E0 ;Reset Extruder
G1 Z2.0 F3000 ;Move Z Axis up
G1 X10.1 Y20 Z0.28 F5000.0 ;Move to start position
G1 X10.1 Y200.0 Z0.28 F1500.0 E15 ;Draw the first line
G1 X10.4 Y200.0 Z0.28 F5000.0 ;Move to side a little
G1 X10.4 Y20 Z0.28 F1500.0 E30 ;Draw the second line
G92 E0 ;Reset Extruder
G1 Z2.0 F3000 ;Move Z Axis up

G92 E0
G92 E0
G1 F1500 E-6.5
;LAYER_COUNT:50
;LAYER:0
M107
G0 F6000 X59.443 Y102.578 Z0.2
;TYPE:SKIRT
G1 F1500 E0
G1 F1200 X60.451 Y102.068 E0.03757
G1 X60.772 Y101.934 E0.04914
G1 X61.808 Y101.585 E0.0855
G1 X61.831 Y101.579 E0.08629
G1 X62.846 Y101.385 E0.12066
G1 X63.211 Y101.34 E0.1329
G1 X64.166 Y101.281 E0.16472
G1 X74.649 Y101.282 E0.51339
G1 X75.295 Y101.247 E0.5349
G1 X75.72 Y101.18 E0.54921
G1 X76.137 Y101.067 E0.56358
G1 X76.553 Y100.907 E0.57841
G1 X76.925 Y100.717 E0.5923
G1 X77.304 Y100.47 E0.60735
G1 X77.577 Y100.248 E0.61905
G1 X77.896 Y99.921 E0.63424
G1 X78.113 Y99.707 E0.64438
G1 X78.565 Y99.21 E0.66672
G1 X78.862 Y98.902 E0.68096
G1 X79.48 Y98.294 E0.70979
G1 X79.873 Y97.932 E0.72756
G1 X81.177 Y96.814 E0.78469
G1 X81.606 Y96.472 E0.80294
G1 X82.99 Y95.445 E0.86026
G1 X83.404 Y95.158 E0.87701
G1 X84.84 Y94.23 E0.93388
G1 X85.162 Y94.033 E0.94644
G1 X86.216 Y93.422 E0.98696
G1 X86.468 Y93.282 E0.99655
G1 X87.55 Y92.707 E1.0373
G1 X87.778 Y92.591 E1.04581
G1 X88.88 Y92.051 E1.08662
G1 X89.114 Y91.941 E1.09522
G1 X90.222 Y91.443 E1.13563
G1 X90.526 Y91.314 E1.14661
G1 X92.799 Y90.406 E1.22802
G1 X93.182 Y90.264 E1.24161
G1 X95.479 Y89.483 E1.3223
G1 X95.835 Y89.372 E1.3347
G1 X98.183 Y88.697 E1.41596
G1 X98.502 Y88.612 E1.42694
G1 X100.859 Y88.041 E1.5076
G1 X101.169 Y87.973 E1.51816
G1 X103.56 Y87.496 E1.59925
G1 X103.85 Y87.444 E1.60905
G1 X106.249 Y87.059 E1.68986
G1 X106.515 Y87.021 E1.6988
G1 X108.701 Y86.747 E1.77207
G1 X108.946 Y86.72 E1.78027
G1 X111.142 Y86.515 E1.85363
G1 X111.38 Y86.496 E1.86157
G1 X113.588 Y86.358 E1.93515
G1 X113.827 Y86.347 E1.94311
G1 X116.029 Y86.277 E2.01639
G1 X116.266 Y86.273 E2.02427
G1 X118.466 Y86.27 E2.09744
G1 X118.696 Y86.273 E2.10509
G1 X120.901 Y86.335 E2.17846
G1 X121.141 Y86.346 E2.18645
G1 X123.347 Y86.476 E2.25995
G1 X123.583 Y86.493 E2.26782
G1 X125.774 Y86.689 E2.34098
G1 X126.026 Y86.716 E2.34941
G1 X128.216 Y86.984 E2.4228
G1 X128.463 Y87.018 E2.43109
G1 X130.639 Y87.355 E2.50433
G1 X130.9 Y87.4 E2.51313
G1 X133.075 Y87.813 E2.58677
G1 X133.337 Y87.867 E2.59567
G1 X135.49 Y88.353 E2.66908
G1 X135.799 Y88.43 E2.67967
G1 X137.929 Y89.003 E2.75303
G1 X138.228 Y89.089 E2.76338
G1 X140.345 Y89.75 E2.83714
G1 X140.679 Y89.863 E2.84887
G1 X142.761 Y90.618 E2.92253
G1 X143.114 Y90.756 E2.93514
G1 X145.147 Y91.607 E3.00844
G1 X145.469 Y91.751 E3.02017
G1 X146.723 Y92.344 E3.06631
G1 X146.971 Y92.466 E3.0755
G1 X148.213 Y93.108 E3.122
G1 X148.508 Y93.269 E3.13318
G1 X149.716 Y93.961 E3.17948
G1 X150.006 Y94.135 E3.19073
G1 X151.185 Y94.88 E3.23712
G1 X151.513 Y95.1 E3.25025
G1 X152.646 Y95.899 E3.29637
G1 X152.997 Y96.161 E3.31093
G1 X154.103 Y97.038 E3.35788
G1 X154.489 Y97.365 E3.37471
G1 X155.526 Y98.303 E3.42121
G1 X155.964 Y98.731 E3.44158
G1 X156.841 Y99.659 E3.48405
G1 X157.112 Y99.928 E3.49675
G1 X157.426 Y100.251 E3.51173
G1 X157.708 Y100.481 E3.52384
G1 X158.064 Y100.713 E3.53797
G1 X158.447 Y100.909 E3.55228
G1 X158.868 Y101.071 E3.56728
G1 X159.272 Y101.18 E3.5812
G1 X159.705 Y101.249 E3.59578
G1 X160.341 Y101.282 E3.61697
G1 X170.855 Y101.283 E3.96666
G1 X171.819 Y101.343 E3.99879
G1 X172.164 Y101.386 E4.01035
G1 X173.168 Y101.579 E4.04436
G1 X173.191 Y101.585 E4.04515
G1 X174.227 Y101.934 E4.08151
G1 X174.548 Y102.068 E4.09308
G1 X175.26 Y102.409 E4.11933
G1 X175.773 Y102.712 E4.13915
G1 X176.332 Y103.106 E4.1619
G1 X176.634 Y103.339 E4.17458
G1 X177.233 Y103.854 E4.20086
G1 X177.776 Y104.427 E4.22711
G1 X178.046 Y104.759 E4.24135
G1 X178.259 Y105.037 E4.25299
G1 X178.767 Y105.788 E4.28315
G1 X179.278 Y106.799 E4.32083
G1 X179.411 Y107.118 E4.33232
G1 X179.723 Y108.017 E4.36397
G1 X179.73 Y108.042 E4.36484
G1 X179.96 Y109.185 E4.40361
G1 X180.005 Y109.548 E4.41578
G1 X180.064 Y110.512 E4.4479
G1 X180.062 Y114.513 E4.58098
G1 X180.002 Y115.474 E4.613
G1 X179.959 Y115.819 E4.62457
G1 X179.744 Y116.906 E4.66142
G1 X179.419 Y117.862 E4.695
G1 X179.286 Y118.183 E4.70656
G1 X178.795 Y119.165 E4.74308
G1 X178.782 Y119.187 E4.74393
G1 X178.255 Y119.968 E4.77526
G1 X178.047 Y120.239 E4.78663
G1 X177.535 Y120.84 E4.81289
G1 X177.204 Y121.17 E4.82843
G1 X176.616 Y121.675 E4.85421
G1 X176.341 Y121.888 E4.86578
G1 X175.65 Y122.366 E4.89373
G1 X174.958 Y122.747 E4.92
G1 X174.549 Y122.932 E4.93493
G1 X174.228 Y123.066 E4.9465
G1 X173.192 Y123.415 E4.98286
G1 X173.169 Y123.421 E4.98365
G1 X172.154 Y123.615 E5.01802
G1 X171.789 Y123.66 E5.03025
G1 X170.834 Y123.719 E5.06208
G1 X160.341 Y123.718 E5.41108
G1 X159.706 Y123.751 E5.43222
G1 X159.273 Y123.82 E5.44681
G1 X158.869 Y123.929 E5.46072
G1 X158.448 Y124.091 E5.47573
G1 X158.071 Y124.284 E5.48981
G1 X157.701 Y124.525 E5.5045
G1 X157.424 Y124.751 E5.51639
G1 X157.095 Y125.088 E5.53206
G1 X156.871 Y125.309 E5.54252
G1 X156.395 Y125.83 E5.56599
G1 X156.086 Y126.15 E5.58079
G1 X155.44 Y126.781 E5.61082
G1 X155.165 Y127.037 E5.62332
G1 X154.476 Y127.648 E5.65395
G1 X154.238 Y127.851 E5.66435
G1 X153.542 Y128.42 E5.69425
G1 X153.222 Y128.668 E5.70772
G1 X152.051 Y129.528 E5.75604
G1 X151.721 Y129.758 E5.76942
G1 X150.52 Y130.548 E5.81723
G1 X150.131 Y130.787 E5.83242
G1 X148.37 Y131.803 E5.90004
G1 X147.972 Y132.017 E5.91507
G1 X146.14 Y132.937 E5.98325
G1 X145.766 Y133.113 E5.997
G1 X143.91 Y133.925 E6.06438
G1 X143.566 Y134.066 E6.07675
G1 X141.664 Y134.792 E6.14446
G1 X141.36 Y134.901 E6.1552
G1 X139.614 Y135.486 E6.21645
G1 X139.36 Y135.566 E6.2253
G1 X137.605 Y136.088 E6.2862
G1 X137.354 Y136.158 E6.29487
G1 X135.591 Y136.619 E6.35548
G1 X135.35 Y136.678 E6.36373
G1 X133.563 Y137.085 E6.42469
G1 X133.335 Y137.134 E6.43244
G1 X131.539 Y137.487 E6.49332
G1 X131.319 Y137.527 E6.50076
G1 X129.521 Y137.827 E6.56139
G1 X129.313 Y137.858 E6.56838
G1 X127.504 Y138.11 E6.62913
G1 X127.295 Y138.137 E6.63614
G1 X125.471 Y138.341 E6.69719
G1 X125.276 Y138.36 E6.7037
G1 X123.461 Y138.517 E6.76429
G1 X123.257 Y138.532 E6.7711
G1 X121.427 Y138.642 E6.83207
G1 X121.228 Y138.651 E6.8387
G1 X119.403 Y138.714 E6.89943
G1 X119.211 Y138.719 E6.90582
G1 X117.385 Y138.737 E6.96656
G1 X117.188 Y138.736 E6.97311
G1 X115.364 Y138.708 E7.03378
G1 X115.172 Y138.703 E7.04017
G1 X113.346 Y138.63 E7.10095
G1 X113.151 Y138.62 E7.10745
G1 X111.324 Y138.501 E7.16834
G1 X111.121 Y138.485 E7.17512
G1 X109.305 Y138.319 E7.23577
G1 X109.103 Y138.297 E7.24253
G1 X107.311 Y138.086 E7.30254
G1 X107.106 Y138.06 E7.30941
G1 X105.323 Y137.802 E7.36933
G1 X105.118 Y137.769 E7.37624
G1 X103.345 Y137.464 E7.43608
G1 X103.131 Y137.424 E7.44332
G1 X101.368 Y137.07 E7.50313
G1 X101.14 Y137.021 E7.51088
G1 X99.378 Y136.612 E7.57104
G1 X99.136 Y136.552 E7.57934
G1 X97.396 Y136.089 E7.63922
G1 X97.152 Y136.019 E7.64767
G1 X95.426 Y135.499 E7.70762
G1 X95.163 Y135.415 E7.71681
G1 X93.462 Y134.836 E7.77657
G1 X93.184 Y134.736 E7.78639
G1 X91.49 Y134.087 E7.84673
G1 X91.188 Y133.964 E7.85758
G1 X89.528 Y133.247 E7.91772
G1 X89.206 Y133.099 E7.92951
G1 X87.586 Y132.31 E7.98944
G1 X87.235 Y132.128 E8.00259
G1 X85.639 Y131.248 E8.06321
G1 X85.249 Y131.018 E8.07826
G1 X83.713 Y130.051 E8.13863
G1 X83.286 Y129.761 E8.1558
G1 X81.814 Y128.692 E8.21631
G1 X81.463 Y128.422 E8.23104
G1 X80.765 Y127.852 E8.26101
G1 X80.532 Y127.654 E8.27118
G1 X79.841 Y127.043 E8.30186
G1 X79.57 Y126.792 E8.31414
G1 X78.919 Y126.159 E8.34434
G1 X78.533 Y125.755 E8.36293
G1 X78.079 Y125.245 E8.38564
G1 X77.623 Y124.787 E8.40714
G1 X77.307 Y124.532 E8.42064
G1 X76.923 Y124.282 E8.43588
G1 X76.552 Y124.092 E8.44974
G1 X76.133 Y123.931 E8.46467
G1 X75.719 Y123.819 E8.47894
G1 X75.303 Y123.753 E8.49295
G1 X74.648 Y123.719 E8.51476
G1 X64.145 Y123.717 E8.86409
G1 X63.181 Y123.657 E8.89622
G1 X62.836 Y123.614 E8.90778
G1 X61.832 Y123.421 E8.94179
G1 X61.809 Y123.415 E8.94258
G1 X60.781 Y123.069 E8.97865
G1 X60.459 Y122.935 E8.99025
G1 X59.443 Y122.422 E9.02811
G1 X58.677 Y121.902 E9.0589
G1 X58.403 Y121.691 E9.0704
G1 X57.647 Y121.026 E9.10389
G1 X57.628 Y121.007 E9.10479
G1 X56.961 Y120.248 E9.13839
G1 X56.751 Y119.975 E9.14985
G1 X56.27 Y119.275 E9.1781
G1 X55.88 Y118.557 E9.20527
G1 X55.708 Y118.17 E9.21936
G1 X55.576 Y117.85 E9.23087
G1 X55.256 Y116.906 E9.26403
G1 X55.041 Y115.816 E9.30098
G1 X54.996 Y115.454 E9.31311
G1 X54.936 Y114.488 E9.3453
G1 X54.938 Y110.487 E9.47838
G1 X54.998 Y109.526 E9.5104
G1 X55.041 Y109.181 E9.52196
G1 X55.256 Y108.094 E9.55882
G1 X55.262 Y108.072 E9.55958
G1 X55.586 Y107.127 E9.5928
G1 X55.72 Y106.805 E9.6044
G1 X56.06 Y106.092 E9.63068
G1 X56.322 Y105.644 E9.64794
G1 X56.762 Y105.011 E9.67358
G1 X56.998 Y104.707 E9.68638
G1 X57.513 Y104.108 E9.71265
G1 X58.086 Y103.565 E9.73891
G1 X58.414 Y103.299 E9.75295
G1 X58.692 Y103.086 E9.7646
G1 X59.443 Y102.578 E9.79476
G0 F6000 X59.649 Y102.921
G1 F1200 X60.605 Y102.437 E9.8304
G1 X60.926 Y102.303 E9.84197
G1 X61.909 Y101.972 E9.87647
G1 X61.932 Y101.966 E9.87726
G1 X62.895 Y101.782 E9.90987
G1 X63.26 Y101.737 E9.9221
G1 X64.166 Y101.681 E9.95229
G1 X74.67 Y101.682 E10.30165
G1 X75.332 Y101.647 E10.3237
G1 X75.811 Y101.571 E10.33983
G1 X76.253 Y101.451 E10.35507
G1 X76.716 Y101.273 E10.37156
G1 X77.129 Y101.062 E10.38699
G1 X77.534 Y100.798 E10.40307
G1 X77.849 Y100.542 E10.41657
G1 X78.178 Y100.205 E10.43223
G1 X78.407 Y99.978 E10.44296
G1 X78.861 Y99.48 E10.46537
G1 X79.142 Y99.187 E10.47888
G1 X79.76 Y98.579 E10.50771
G1 X80.133 Y98.236 E10.52456
G1 X81.437 Y97.118 E10.58169
G1 X81.844 Y96.793 E10.59902
G1 X83.228 Y95.766 E10.65634
G1 X83.622 Y95.494 E10.67226
G1 X85.058 Y94.566 E10.72913
G1 X85.363 Y94.379 E10.74103
G1 X86.417 Y93.768 E10.78155
G1 X86.655 Y93.635 E10.79062
G1 X87.737 Y93.06 E10.83137
G1 X87.954 Y92.95 E10.83946
G1 X89.056 Y92.41 E10.88028
G1 X89.278 Y92.305 E10.88845
G1 X90.386 Y91.807 E10.92885
G1 X90.675 Y91.685 E10.93928
G1 X92.948 Y90.777 E11.02069
G1 X93.311 Y90.643 E11.03356
G1 X95.608 Y89.862 E11.11426
G1 X95.945 Y89.756 E11.12601
G1 X98.293 Y89.081 E11.20726
G1 X98.596 Y89.001 E11.21769
G1 X100.953 Y88.43 E11.29835
G1 X101.247 Y88.365 E11.30836
G1 X103.638 Y87.888 E11.38946
G1 X103.913 Y87.838 E11.39875
G1 X106.312 Y87.453 E11.47956
G1 X106.565 Y87.417 E11.48806
G1 X108.751 Y87.143 E11.56134
G1 X108.983 Y87.118 E11.5691
G1 X111.179 Y86.913 E11.64246
G1 X111.405 Y86.895 E11.65
G1 X113.613 Y86.757 E11.72358
G1 X113.84 Y86.747 E11.73114
G1 X116.042 Y86.677 E11.80441
G1 X116.267 Y86.673 E11.8119
G1 X118.467 Y86.67 E11.88507
G1 X118.685 Y86.673 E11.89232
G1 X120.89 Y86.735 E11.96569
G1 X121.117 Y86.745 E11.97325
G1 X123.323 Y86.875 E12.04674
G1 X123.547 Y86.891 E12.05421
G1 X125.738 Y87.087 E12.12738
G1 X125.978 Y87.113 E12.13541
G1 X128.168 Y87.381 E12.20879
G1 X128.402 Y87.413 E12.21665
G1 X130.578 Y87.75 E12.28988
G1 X130.825 Y87.793 E12.29822
G1 X133 Y88.206 E12.37185
G1 X133.249 Y88.258 E12.38032
G1 X135.402 Y88.744 E12.45373
G1 X135.695 Y88.816 E12.46376
G1 X137.825 Y89.389 E12.53712
G1 X138.109 Y89.471 E12.54696
G1 X140.226 Y90.132 E12.62072
G1 X140.543 Y90.239 E12.63185
G1 X142.625 Y90.994 E12.70551
G1 X142.959 Y91.125 E12.71744
G1 X144.992 Y91.976 E12.79074
G1 X145.298 Y92.112 E12.80188
G1 X146.552 Y92.705 E12.84802
G1 X146.787 Y92.821 E12.85673
G1 X148.029 Y93.463 E12.90324
G1 X148.309 Y93.616 E12.91385
G1 X149.517 Y94.308 E12.96015
G1 X149.792 Y94.473 E12.97082
G1 X150.971 Y95.218 E13.0172
G1 X151.283 Y95.427 E13.0297
G1 X152.416 Y96.226 E13.07581
G1 X152.749 Y96.475 E13.08964
G1 X153.855 Y97.352 E13.13658
G1 X154.221 Y97.662 E13.15254
G1 X155.258 Y98.6 E13.19904
G1 X155.673 Y99.006 E13.21835
G1 X156.551 Y99.936 E13.26089
G1 X156.83 Y100.212 E13.27395
G1 X157.153 Y100.545 E13.28938
G1 X157.468 Y100.802 E13.3029
G1 X157.864 Y101.06 E13.31862
G1 X158.292 Y101.279 E13.33461
G1 X158.735 Y101.449 E13.35039
G1 X159.191 Y101.572 E13.3661
G1 X159.659 Y101.646 E13.38186
G1 X160.339 Y101.682 E13.40451
G1 X170.855 Y101.683 E13.75427
G1 X171.769 Y101.74 E13.78473
G1 X172.114 Y101.783 E13.79629
G1 X173.067 Y101.966 E13.82857
G1 X173.09 Y101.972 E13.82936
G1 X174.073 Y102.303 E13.86386
G1 X174.394 Y102.437 E13.87543
G1 X175.087 Y102.77 E13.901
G1 X175.557 Y103.049 E13.91918
G1 X176.087 Y103.422 E13.94073
G1 X176.389 Y103.655 E13.95342
G1 X176.971 Y104.158 E13.979
G1 X177.728 Y105.002 E14.01671
G1 X177.941 Y105.28 E14.02836
G1 X178.424 Y105.994 E14.05703
G1 X178.909 Y106.953 E14.09278
G1 X179.042 Y107.272 E14.10427
G1 X179.338 Y108.125 E14.1343
G1 X179.345 Y108.15 E14.13517
G1 X179.563 Y109.235 E14.17197
G1 X179.608 Y109.598 E14.18414
G1 X179.664 Y110.512 E14.2146
G1 X179.662 Y114.513 E14.34767
G1 X179.605 Y115.424 E14.37803
G1 X179.562 Y115.769 E14.38959
G1 X179.358 Y116.801 E14.42458
G1 X179.049 Y117.709 E14.45648
G1 X178.916 Y118.03 E14.46804
G1 X178.451 Y118.962 E14.50268
G1 X178.438 Y118.984 E14.50353
G1 X177.937 Y119.725 E14.53328
G1 X177.729 Y119.996 E14.54464
G1 X177.23 Y120.581 E14.57022
G1 X176.929 Y120.88 E14.58433
G1 X176.371 Y121.358 E14.60877
G1 X176.096 Y121.571 E14.62034
G1 X175.439 Y122.026 E14.64692
G1 X174.765 Y122.396 E14.67249
G1 X174.395 Y122.563 E14.68599
G1 X174.074 Y122.697 E14.69756
G1 X173.091 Y123.028 E14.73206
G1 X173.068 Y123.034 E14.73285
G1 X172.105 Y123.218 E14.76546
G1 X171.74 Y123.263 E14.77769
G1 X170.834 Y123.319 E14.80788
G1 X160.339 Y123.318 E15.15695
G1 X159.66 Y123.354 E15.17956
G1 X159.192 Y123.428 E15.19532
G1 X158.736 Y123.551 E15.21103
G1 X158.292 Y123.722 E15.22686
G1 X157.872 Y123.937 E15.24255
G1 X157.467 Y124.201 E15.25863
G1 X157.153 Y124.456 E15.27208
G1 X156.814 Y124.803 E15.28822
G1 X156.596 Y125.018 E15.2984
G1 X156.1 Y125.561 E15.32286
G1 X155.807 Y125.864 E15.33688
G1 X155.161 Y126.495 E15.36692
G1 X154.9 Y126.738 E15.37878
G1 X154.211 Y127.349 E15.40941
G1 X153.985 Y127.541 E15.41927
G1 X153.289 Y128.11 E15.44917
G1 X152.985 Y128.345 E15.46195
G1 X151.814 Y129.205 E15.51027
G1 X151.501 Y129.423 E15.52296
G1 X150.3 Y130.213 E15.57077
G1 X149.931 Y130.441 E15.5852
G1 X148.17 Y131.457 E15.65282
G1 X147.793 Y131.66 E15.66706
G1 X145.961 Y132.58 E15.73524
G1 X145.606 Y132.747 E15.74829
G1 X143.75 Y133.559 E15.81567
G1 X143.423 Y133.692 E15.82741
G1 X141.521 Y134.418 E15.89513
G1 X141.233 Y134.522 E15.90531
G1 X139.487 Y135.107 E15.96656
G1 X139.246 Y135.183 E15.97496
G1 X137.491 Y135.705 E16.03586
G1 X137.253 Y135.771 E16.04407
G1 X135.49 Y136.232 E16.10468
G1 X135.261 Y136.288 E16.11252
G1 X133.474 Y136.695 E16.17348
G1 X133.258 Y136.741 E16.18083
G1 X131.462 Y137.094 E16.2417
G1 X131.253 Y137.132 E16.24877
G1 X129.455 Y137.432 E16.3094
G1 X129.258 Y137.462 E16.31603
G1 X127.449 Y137.714 E16.37677
G1 X127.251 Y137.739 E16.38341
G1 X125.427 Y137.943 E16.44446
G1 X125.242 Y137.961 E16.45064
G1 X123.427 Y138.118 E16.51123
G1 X123.233 Y138.133 E16.5177
G1 X121.403 Y138.243 E16.57868
G1 X121.214 Y138.252 E16.58497
G1 X119.389 Y138.315 E16.64571
G1 X119.207 Y138.319 E16.65176
G1 X117.381 Y138.337 E16.7125
G1 X117.194 Y138.336 E16.71872
G1 X115.37 Y138.308 E16.77939
G1 X115.188 Y138.303 E16.78545
G1 X113.362 Y138.23 E16.84623
G1 X113.177 Y138.22 E16.85239
G1 X111.35 Y138.101 E16.91329
G1 X111.157 Y138.086 E16.91973
G1 X109.341 Y137.92 E16.98038
G1 X109.15 Y137.9 E16.98677
G1 X107.358 Y137.689 E17.04678
G1 X107.163 Y137.664 E17.05332
G1 X105.38 Y137.406 E17.11324
G1 X105.185 Y137.375 E17.11981
G1 X103.412 Y137.07 E17.17964
G1 X103.21 Y137.032 E17.18648
