; generated by PrusaSlicer 2.2.0+ on 2020-10-31 at 22:58:56 UTC

; 

; external perimeters extrusion width = 0.45mm
; perimeters extrusion width = 0.45mm
; infill extrusion width = 0.45mm
; solid infill extrusion width = 0.45mm
; top infill extrusion width = 0.40mm
; support material extrusion width = 0.38mm
; first layer extrusion width = 0.42mm

M201 X500 Y500 Z100 E5000 ; sets maximum accelerations, mm/sec^2
M203 X500 Y500 Z10 E60 ; sets maximum feedrates, mm/sec
M204 P500 R1000 T500 ; sets acceleration (P, T) and retract acceleration (R), mm/sec^2
M205 X8.00 Y8.00 Z0.40 E5.00 ; sets the jerk limits, mm/sec
M205 S0 T0 ; sets the minimum extruding and travel feed rate, mm/sec
M107
G90 ; use absolute coordinates
M83 ; extruder relative mode
M104 S200 ; set extruder temp
M140 S50 ; set bed temp
M190 S50 ; wait for bed temp
M109 S200 ; wait for extruder temp
G28 ; home all
G1 Z2 F240
G1 X2 Y10 F3000
G1 Z0.28 F240
G92 E0.0
G1 Y190 E15.0 F1500.0 ; intro line
G1 X2.3 F5000
G1 Y10 E30 F1200.0 ; intro line
G92 E0.0
G21 ; set units to millimeters
G90 ; use absolute coordinates
M83 ; use relative distances for extrusion
; Filament gcode
;BEFORE_LAYER_CHANGE
;0.2


G1 E-5.00000 F3600.00000
G1 Z0.200 F9000.000
;AFTER_LAYER_CHANGE
;0.2
G1 X53.881 Y78.013
G1 E5.00000 F2400.00000
G1 F1200.000
G1 X54.075 Y77.558 E0.01550
G1 X54.362 Y77.151 E0.01562
G1 X56.246 Y75.278 E0.08331
G1 X56.732 Y74.974 E0.01799
G1 X57.278 Y74.795 E0.01799
G1 X99.031 Y68.271 E1.32503
G1 X135.952 Y68.257 E1.15762
G1 X178.257 Y75.310 E1.34476
G1 X178.824 Y75.506 E0.01882
G1 X179.324 Y75.838 E0.01882
G1 X180.664 Y77.173 E0.05929
G1 X181.033 Y77.711 E0.02048
G1 X181.219 Y78.222 E0.01704
G1 X181.284 Y78.758 E0.01692
G1 X181.454 Y149.831 E2.22844
G1 X181.274 Y156.449 E0.20759
G1 X181.091 Y157.166 E0.02319
G1 X180.699 Y157.789 E0.02308
G1 X179.226 Y159.242 E0.06488
G1 X178.757 Y159.525 E0.01716
G1 X178.237 Y159.694 E0.01716
G1 X135.988 Y166.742 E1.34299
G1 X99.079 Y166.733 E1.15724
G1 X57.354 Y160.219 E1.32411
G1 X56.727 Y160.024 E0.02060
G1 X56.177 Y159.664 E0.02060
G1 X54.147 Y157.563 E0.09160
G1 X53.842 Y156.848 E0.02437
G1 X53.717 Y155.800 E0.03309
G1 X53.716 Y79.234 E2.40067
G1 X53.873 Y78.072 E0.03676
G1 E-3.50000 F3600.00000
G1 F7200.000
G1 X54.075 Y77.558 E-0.26236
G1 X54.362 Y77.151 E-0.23658
G1 X55.744 Y75.777 E-0.92606
G1 E-0.07500 F3600.00000
G1 X53.905 Y134.804 F9000.000
G1 E5.00000 F2400.00000
G1 F1200.000
G1 X54.433 Y134.265 E0.02364
G1 X55.589 Y133.523 E0.04308
G1 X57.346 Y133.068 E0.05692
G1 X60.307 Y133.068 E0.09284
G1 X61.204 Y132.168 E0.03981
G1 X62.022 Y131.566 E0.03187
G1 X63.113 Y131.172 E0.03637
G1 X63.391 Y130.346 E0.02732
G1 X63.762 Y129.743 E0.02221
G1 X64.203 Y129.247 E0.02079
G1 X64.439 Y128.933 E0.01233
G1 X65.222 Y128.150 E0.03472
G1 X65.232 Y127.678 E0.01481
G1 X65.306 Y127.299 E0.01211
G1 X65.350 Y126.951 E0.01098
G1 X65.747 Y125.626 E0.04338
G1 X66.224 Y124.856 E0.02838
G1 X67.007 Y124.035 E0.03559
G1 X67.447 Y123.426 E0.02356
G1 X68.123 Y122.763 E0.02969
G1 X68.961 Y122.213 E0.03141
G1 X70.552 Y121.756 E0.05192
G1 X84.527 Y121.756 E0.43816
G1 X85.828 Y122.022 E0.04166
G1 X87.022 Y122.624 E0.04193
G1 X88.647 Y124.141 E0.06968
G1 X89.309 Y124.853 E0.03049
G1 X89.920 Y125.891 E0.03777
G1 X90.258 Y127.018 E0.03688
G1 X90.304 Y128.143 E0.03530
G1 X91.451 Y129.284 E0.05073
G1 X91.558 Y129.421 E0.00544
G1 X91.701 Y129.533 E0.00569
G1 X94.079 Y131.995 E0.10734
G1 X94.737 Y133.364 E0.04762
G1 X94.968 Y134.564 E0.03830
G1 X94.985 Y135.156 E0.01856
G1 X95.604 Y135.776 E0.02746
G1 X96.685 Y135.826 E0.03394
G1 X98.502 Y136.491 E0.06066
G1 X99.202 Y137.035 E0.02780
G1 X100.808 Y138.641 E0.07122
G1 X101.007 Y138.921 E0.01075
G1 X101.288 Y139.121 E0.01082
G1 X102.236 Y140.071 E0.04206
G1 X105.111 Y140.071 E0.09015
G1 X105.996 Y140.182 E0.02797
G1 X107.913 Y141.113 E0.06683
G1 X109.176 Y142.336 E0.05513
G1 X112.165 Y142.337 E0.09370
G1 X113.502 Y142.630 E0.04293
G1 X114.991 Y143.493 E0.05396
G1 X116.189 Y144.674 E0.05276
G1 X118.811 Y144.674 E0.08218
G1 X120.009 Y143.493 E0.05276
G1 X121.498 Y142.630 E0.05397
G1 X122.836 Y142.337 E0.04295
G1 X125.823 Y142.337 E0.09367
G1 X127.087 Y141.113 E0.05515
G1 X129.004 Y140.182 E0.06683
G1 X129.889 Y140.071 E0.02797
G1 X132.764 Y140.071 E0.09015
G1 X133.712 Y139.121 E0.04206
G1 X133.993 Y138.921 E0.01082
G1 X134.192 Y138.641 E0.01075
G1 X135.798 Y137.035 E0.07122
G1 X136.498 Y136.491 E0.02780
G1 X138.315 Y135.826 E0.06066
G1 X139.396 Y135.776 E0.03394
G1 X140.011 Y135.159 E0.02730
G1 X140.027 Y134.608 E0.01729
G1 X140.273 Y133.342 E0.04043
G1 X140.941 Y131.962 E0.04808
G1 X142.226 Y130.605 E0.05860
G1 X142.378 Y130.471 E0.00636
G1 X143.296 Y129.535 E0.04110
G1 X143.441 Y129.422 E0.00578
G1 X143.548 Y129.284 E0.00548
G1 X144.683 Y128.155 E0.05020
G1 X144.707 Y127.265 E0.02791
G1 X144.984 Y126.130 E0.03664
G1 X145.642 Y124.921 E0.04314
G1 X147.496 Y122.999 E0.08371
G1 X148.609 Y122.254 E0.04201
G1 X150.402 Y121.756 E0.05835
G1 X164.357 Y121.756 E0.43754
G1 X165.500 Y121.990 E0.03659
G1 X166.894 Y122.766 E0.05004
G1 X167.593 Y123.472 E0.03114
G1 X167.976 Y124.014 E0.02082
G1 X168.659 Y124.710 E0.03058
G1 X169.270 Y125.666 E0.03557
G1 X169.659 Y126.997 E0.04350
G1 X169.773 Y127.727 E0.02315
G1 X169.780 Y128.153 E0.01335
G1 X170.561 Y128.933 E0.03460
G1 X170.797 Y129.247 E0.01233
G1 X171.238 Y129.743 E0.02079
G1 X171.609 Y130.346 E0.02221
G1 X171.887 Y131.172 E0.02732
G1 X172.978 Y131.566 E0.03637
G1 X173.796 Y132.168 E0.03187
G1 X174.693 Y133.068 E0.03981
G1 X177.654 Y133.068 E0.09284
G1 X179.411 Y133.523 E0.05692
G1 X180.564 Y134.262 E0.04294
G1 X181.230 Y134.928 E0.02952
G1 X181.608 Y135.306 F9000.000
G1 F1200.000
G1 X182.546 Y136.244 E0.04161
G1 X183.168 Y137.096 E0.03307
G1 X183.809 Y139.141 E0.06720
G1 X183.809 Y149.594 E0.32776
G1 X183.794 Y149.782 E0.00589
G1 X183.810 Y151.092 E0.04108
G1 X183.809 Y156.485 E0.16909
G1 X183.554 Y157.789 E0.04169
G1 X182.648 Y159.418 E0.05843
G1 X180.995 Y161.071 E0.07329
G1 X179.797 Y161.829 E0.04444
G1 X178.431 Y162.221 E0.04456
G1 X164.067 Y162.249 E0.45040
G1 E-3.50000 F3600.00000
G1 F7200.000
G1 X167.067 Y162.243 E-1.42500
G1 E-0.07500 F3600.00000
G1 X161.748 Y162.254 F9000.000
G1 E5.00000 F2400.00000
G1 F1200.000
G1 X156.431 Y162.264 E0.16670
G1 X155.379 Y163.316 E0.04665
G1 X154.920 Y163.775 F9000.000
G1 F1200.000
G1 X154.758 Y163.937 E0.00718
G1 X153.026 Y164.893 E0.06205
G1 X151.838 Y165.112 E0.03787
G1 X146.903 Y165.112 E0.15474
G1 X146.496 Y165.180 F9000.000
G1 F1200.000
G1 X145.433 Y166.245 E0.04717
G1 X144.059 Y167.086 E0.05053
G1 X142.564 Y167.450 E0.04822
G1 X139.710 Y167.450 E0.08951
G1 X138.731 Y168.391 E0.04259
G1 X137.762 Y168.942 E0.03494
G1 X136.461 Y169.268 E0.04205
G1 X98.989 Y169.268 E1.17490
G1 X97.674 Y168.997 E0.04211
G1 X96.430 Y168.352 E0.04393
G1 X95.120 Y167.113 E0.05654
G1 X92.181 Y167.113 E0.09216
G1 X90.608 Y166.750 E0.05061
G1 X89.332 Y165.999 E0.04642
G1 X88.611 Y165.290 E0.03170
G1 E-3.50000 F3600.00000
G1 F7200.000
G1 X89.332 Y165.999 E-0.48021
G1 X90.608 Y166.750 E-0.70328
G1 X91.103 Y166.864 E-0.24150
G1 E-0.07500 F3600.00000
G1 X86.487 Y164.958 F9000.000
G1 E5.00000 F2400.00000
G1 F1200.000
G1 X83.035 Y164.958 E0.10823
G1 X81.962 Y164.784 E0.03409
G1 X80.476 Y164.020 E0.05239
G1 X79.874 Y163.544 F9000.000
G1 F1200.000
G1 X79.082 Y162.775 E0.03461
G1 X74.951 Y162.775 E0.12953
G1 E-3.50000 F3600.00000
G1 F7200.000
G1 X77.951 Y162.775 E-1.42500
G1 E-0.07500 F3600.00000
G1 X72.506 Y162.775 F9000.000
G1 E5.00000 F2400.00000
G1 F1200.000
G1 X57.433 Y162.775 E0.47260
G1 X56.031 Y162.470 E0.04500
G1 X54.715 Y161.737 E0.04725
G1 X52.052 Y159.038 E0.11886
G1 X51.478 Y157.928 E0.03920
G1 X51.212 Y156.676 E0.04011
G1 X51.212 Y156.309 E0.01150
G1 X51.191 Y156.098 E0.00664
G1 X51.191 Y139.231 E0.52886
G1 X51.496 Y137.829 E0.04500
G1 X52.228 Y136.515 E0.04714
G1 X53.528 Y135.189 E0.05825
G1 X53.905 Y135.339 F9000.000
G1 F1200.000
G1 X54.686 Y134.545 E0.03492
G1 X55.766 Y133.857 E0.04014
G1 X57.370 Y133.445 E0.05193
G1 X60.464 Y133.445 E0.09701
G1 X61.460 Y132.445 E0.04426
G1 X62.222 Y131.887 E0.02961
G1 X63.412 Y131.467 E0.03956
G1 X63.741 Y130.488 E0.03240
G1 X64.072 Y129.957 E0.01962
G1 X64.495 Y129.486 E0.01983
G1 X64.716 Y129.190 E0.01160
G1 X65.598 Y128.308 E0.03911
G1 X65.606 Y127.733 E0.01803
G1 X65.679 Y127.356 E0.01203
G1 X65.716 Y127.043 E0.00988
G1 X66.101 Y125.760 E0.04202
G1 X66.532 Y125.074 E0.02539
G1 X67.298 Y124.277 E0.03467
G1 X67.723 Y123.683 E0.02288
G1 X68.374 Y123.045 E0.02857
G1 X69.143 Y122.545 E0.02877
G1 X70.578 Y122.133 E0.04684
G1 X84.507 Y122.133 E0.43672
G1 X85.726 Y122.385 E0.03904
G1 X86.826 Y122.948 E0.03873
G1 X88.384 Y124.411 E0.06700
G1 X89.018 Y125.095 E0.02925
G1 X89.565 Y126.022 E0.03374
G1 X89.889 Y127.103 E0.03539
G1 X89.933 Y128.305 E0.03771
G1 X91.176 Y129.541 E0.05498
G1 X91.288 Y129.690 E0.00585
G1 X91.441 Y129.806 E0.00602
G1 X93.753 Y132.188 E0.10407
G1 X94.371 Y133.460 E0.04436
G1 X94.594 Y134.620 E0.03701
G1 X94.612 Y135.315 E0.02181
G1 X95.442 Y136.147 E0.03687
G1 X96.586 Y136.191 E0.03588
G1 X98.295 Y136.808 E0.05698
G1 X98.944 Y137.310 E0.02574
G1 X100.529 Y138.896 E0.07030
G1 X100.736 Y139.191 E0.01132
G1 X101.034 Y139.400 E0.01138
G1 X102.079 Y140.448 E0.04642
G1 X105.099 Y140.448 E0.09468
G1 X105.917 Y140.552 E0.02585
G1 X107.719 Y141.438 E0.06297
G1 X109.022 Y142.714 E0.05716
G1 X112.144 Y142.714 E0.09789
G1 X113.391 Y142.991 E0.04006
G1 X114.779 Y143.805 E0.05047
G1 X116.034 Y145.051 E0.05543
G1 X118.966 Y145.051 E0.09195
G1 X120.221 Y143.805 E0.05543
G1 X121.609 Y142.991 E0.05047
G1 X122.857 Y142.714 E0.04008
G1 X125.978 Y142.714 E0.09785
G1 X127.281 Y141.438 E0.05718
G1 X129.083 Y140.552 E0.06297
G1 X129.901 Y140.448 E0.02585
G1 X132.921 Y140.448 E0.09468
G1 X133.966 Y139.400 E0.04642
G1 X134.264 Y139.191 E0.01138
G1 X134.471 Y138.896 E0.01132
G1 X136.056 Y137.310 E0.07030
G1 X136.705 Y136.808 E0.02574
G1 X138.414 Y136.191 E0.05698
G1 X139.558 Y136.148 E0.03588
G1 X140.385 Y135.318 E0.03673
G1 X140.400 Y134.664 E0.02052
G1 X140.638 Y133.438 E0.03915
G1 X141.235 Y132.200 E0.04309
G1 X142.493 Y130.871 E0.05738
G1 X142.637 Y130.746 E0.00596
G1 X143.555 Y129.810 E0.04112
G1 X143.711 Y129.691 E0.00615
G1 X143.824 Y129.541 E0.00588
G1 X145.057 Y128.315 E0.05454
G1 X145.079 Y127.334 E0.03076
G1 X145.345 Y126.244 E0.03519
G1 X145.960 Y125.125 E0.04002
G1 X147.752 Y123.277 E0.08072
G1 X148.793 Y122.585 E0.03918
G1 X150.427 Y122.133 E0.05319
G1 X164.338 Y122.133 E0.43617
G1 X165.344 Y122.334 E0.03216
G1 X166.645 Y123.051 E0.04659
G1 X167.313 Y123.725 E0.02976
G1 X167.685 Y124.257 E0.02033
G1 X168.354 Y124.932 E0.02981
G1 X168.916 Y125.798 E0.03238
G1 X169.292 Y127.086 E0.04206
G1 X169.323 Y127.368 E0.00888
G1 X169.399 Y127.779 E0.01312
G1 X169.404 Y128.310 E0.01663
G1 X170.284 Y129.190 E0.03903
G1 X170.505 Y129.486 E0.01160
G1 X170.928 Y129.957 E0.01983
G1 X171.259 Y130.488 E0.01962
G1 X171.588 Y131.467 E0.03240
G1 X172.778 Y131.887 E0.03956
G1 X173.540 Y132.445 E0.02961
G1 X174.536 Y133.445 E0.04426
G1 X177.630 Y133.445 E0.09701
G1 X179.234 Y133.857 E0.05193
G1 X180.312 Y134.543 E0.04006
G1 X181.231 Y135.462 E0.04074
G1 X181.609 Y135.840 F9000.000
G1 F1200.000
G1 X182.269 Y136.500 E0.02926
G1 X182.845 Y137.292 E0.03072
G1 X183.432 Y139.169 E0.06167
G1 X183.432 Y149.586 E0.32661
G1 X183.417 Y149.768 E0.00571
G1 X183.433 Y151.093 E0.04155
G1 X183.432 Y156.467 E0.16851
G1 X183.209 Y157.634 E0.03725
G1 X182.362 Y159.170 E0.05500
G1 X180.744 Y160.789 E0.07177
G1 X179.620 Y161.495 E0.04159
G1 X178.355 Y161.851 E0.04123
G1 X166.335 Y161.870 E0.37687
G1 E-3.50000 F3600.00000
G1 F7200.000
G1 X169.335 Y161.865 E-1.42500
G1 E-0.07500 F3600.00000
G1 X164.020 Y161.874 F9000.000
G1 E5.00000 F2400.00000
G1 F1200.000
G1 X156.275 Y161.887 E0.24286
G1 X154.739 Y163.423 E0.06809
G1 X154.014 Y163.926 F9000.000
G1 F1200.000
G1 X152.926 Y164.528 E0.03898
G1 X151.820 Y164.735 E0.03528
G1 X149.163 Y164.735 E0.08332
G1 E-3.50000 F3600.00000
G1 F7200.000
G1 X151.820 Y164.735 E-1.26219
G1 X152.157 Y164.672 E-0.16281
G1 E-0.07500 F3600.00000
G1 X146.872 Y164.735 F9000.000
G1 E5.00000 F2400.00000
G1 F1200.000
G1 X146.407 Y164.735 E0.01458
G1 X146.315 Y164.828 E0.00411
G1 X145.860 Y165.287 F9000.000
G1 F1200.000
G1 X145.215 Y165.936 E0.02871
G1 X143.939 Y166.727 E0.04707
G1 X142.541 Y167.072 E0.04513
G1 X139.501 Y167.072 E0.09532
G1 X139.329 Y167.305 E0.00907
G1 X138.489 Y168.101 E0.03627
G1 X137.600 Y168.601 E0.03199
G1 X136.438 Y168.891 E0.03754
G1 X99.009 Y168.891 E1.17356
G1 X97.777 Y168.633 E0.03945
G1 X96.629 Y168.031 E0.04065
G1 X95.272 Y166.736 E0.05883
G1 X92.202 Y166.736 E0.09625
G1 X90.774 Y166.410 E0.04591
G1 X89.544 Y165.686 E0.04475
G1 X89.244 Y165.389 E0.01324
G1 X88.787 Y164.936 F9000.000
G1 F1200.000
G1 X88.430 Y164.581 E0.01579
G1 X86.516 Y164.581 E0.06000
G1 E-3.50000 F3600.00000
G1 F7200.000
G1 X88.430 Y164.581 E-0.90898
G1 X88.787 Y164.936 E-0.23915
G1 E-0.35187 F3600.00000
G1 X84.072 Y164.581 F9000.000
G1 E5.00000 F2400.00000
G1 F1200.000
G1 X83.051 Y164.581 E0.03201
G1 X82.054 Y164.417 E0.03170
G1 X81.640 Y164.201 E0.01462
G1 X80.591 Y163.656 F9000.000
G1 F1200.000
G1 X80.438 Y163.577 E0.00539
G1 X79.236 Y162.398 E0.05277
G1 X72.536 Y162.398 E0.21010
G1 E-3.50000 F3600.00000
G1 F7200.000
G1 X75.536 Y162.398 E-1.42500
G1 E-0.07500 F3600.00000
G1 X70.091 Y162.398 F9000.000
G1 E5.00000 F2400.00000
G1 F1200.000
G1 X57.454 Y162.398 E0.39622
G1 X56.141 Y162.108 E0.04218
G1 X54.923 Y161.421 E0.04383
G1 X52.374 Y158.839 E0.11376
G1 X51.825 Y157.778 E0.03747
G1 X51.586 Y156.621 E0.03703
G1 X51.589 Y156.292 E0.01031
G1 X51.568 Y156.088 E0.00643
G1 X51.568 Y139.252 E0.52789
G1 X51.858 Y137.938 E0.04218
G1 X52.544 Y136.723 E0.04375
G1 X53.528 Y135.722 E0.04401
G1 X53.905 Y135.872 F9000.000
G1 F1200.000
G1 X54.939 Y134.826 E0.04612
G1 X55.942 Y134.192 E0.03720
G1 X57.393 Y133.822 E0.04697
G1 X60.621 Y133.822 E0.10119
G1 X61.717 Y132.722 E0.04869
G1 X62.421 Y132.209 E0.02731
G1 X63.710 Y131.764 E0.04276
G1 X64.091 Y130.630 E0.03751
G1 X64.381 Y130.174 E0.01697
G1 X64.787 Y129.725 E0.01896
G1 X64.993 Y129.446 E0.01087
G1 X65.973 Y128.466 E0.04345
G1 X65.982 Y127.756 E0.02225
G1 X66.052 Y127.414 E0.01096
G1 X66.082 Y127.134 E0.00883
G1 X66.454 Y125.894 E0.04059
G1 X66.839 Y125.294 E0.02233
G1 X67.589 Y124.518 E0.03385
G1 X67.999 Y123.940 E0.02222
G1 X68.624 Y123.328 E0.02742
G1 X69.323 Y122.877 E0.02611
G1 X70.605 Y122.510 E0.04180
G1 X84.487 Y122.510 E0.43528
G1 X85.623 Y122.749 E0.03639
G1 X86.629 Y123.270 E0.03552
G1 X88.120 Y124.680 E0.06435
G1 X88.727 Y125.336 E0.02802
G1 X89.228 Y126.191 E0.03108
G1 X89.521 Y127.185 E0.03248
G1 X89.560 Y128.466 E0.04017
G1 X90.899 Y129.798 E0.05922
G1 X91.018 Y129.959 E0.00631
G1 X91.183 Y130.082 E0.00642
G1 X93.428 Y132.382 E0.10079
G1 X94.006 Y133.557 E0.04106
G1 X94.221 Y134.675 E0.03570
G1 X94.237 Y135.474 E0.02506
G1 X95.282 Y136.521 E0.04636
G1 X96.488 Y136.556 E0.03784
G1 X98.089 Y137.125 E0.05325
G1 X98.686 Y137.585 E0.02365
G1 X100.250 Y139.149 E0.06934
G1 X100.465 Y139.463 E0.01192
G1 X100.780 Y139.679 E0.01197
G1 X101.923 Y140.825 E0.05075
G1 X105.086 Y140.825 E0.09920
G1 X105.836 Y140.922 E0.02371
G1 X107.523 Y141.762 E0.05908
G1 X108.866 Y143.091 E0.05923
G1 X112.122 Y143.091 E0.10210
G1 X113.278 Y143.352 E0.03715
G1 X114.566 Y144.117 E0.04696
G1 X115.877 Y145.428 E0.05814
G1 X119.123 Y145.428 E0.10177
G1 X120.434 Y144.117 E0.05814
G1 X121.722 Y143.352 E0.04697
G1 X122.878 Y143.091 E0.03717
G1 X126.134 Y143.091 E0.10207
G1 X127.477 Y141.762 E0.05926
G1 X129.164 Y140.922 E0.05908
G1 X129.914 Y140.825 E0.02371
G1 X133.077 Y140.825 E0.09920
G1 X134.220 Y139.679 E0.05075
G1 X134.535 Y139.463 E0.01197
G1 X134.750 Y139.149 E0.01192
G1 X136.314 Y137.585 E0.06934
G1 X136.911 Y137.125 E0.02365
G1 X138.512 Y136.556 E0.05325
G1 X139.718 Y136.521 E0.03784
G1 X140.760 Y135.477 E0.04625
G1 X140.773 Y134.719 E0.02375
G1 X141.004 Y133.533 E0.03788
G1 X141.529 Y132.438 E0.03810
G1 X142.760 Y131.137 E0.05614
G1 X142.894 Y131.022 E0.00556
G1 X143.813 Y130.085 E0.04113
G1 X143.981 Y129.960 E0.00656
G1 X144.101 Y129.798 E0.00633
G1 X145.432 Y128.473 E0.05888
