; generated by PrusaSlicer 2.2.0+ on 2020-10-31 at 22:43:42 UTC

; 

; external perimeters extrusion width = 0.45mm
; perimeters extrusion width = 0.45mm
; infill extrusion width = 0.45mm
; solid infill extrusion width = 0.45mm
; top infill extrusion width = 0.40mm
; support material extrusion width = 0.38mm
; first layer extrusion width = 0.42mm

M201 X500 Y500 Z100 E5000 ; sets maximum accelerations, mm/sec^2
M203 X500 Y500 Z10 E60 ; sets maximum feedrates, mm/sec
M204 P500 R1000 T500 ; sets acceleration (P, T) and retract acceleration (R), mm/sec^2
M205 X8.00 Y8.00 Z0.40 E5.00 ; sets the jerk limits, mm/sec
M205 S0 T0 ; sets the minimum extruding and travel feed rate, mm/sec
M107
G90 ; use absolute coordinates
M83 ; extruder relative mode
M104 S200 ; set extruder temp
M140 S50 ; set bed temp
M190 S50 ; wait for bed temp
M109 S200 ; wait for extruder temp
G28 ; home all
G1 Z2 F240
G1 X2 Y10 F3000
G1 Z0.28 F240
G92 E0.0
G1 Y190 E15.0 F1500.0 ; intro line
G1 X2.3 F5000
G1 Y10 E30 F1200.0 ; intro line
G92 E0.0
G21 ; set units to millimeters
G90 ; use absolute coordinates
M83 ; use relative distances for extrusion
; Filament gcode
;BEFORE_LAYER_CHANGE
;0.2


G1 E-5.00000 F3600.00000
G1 Z0.200 F9000.000
;AFTER_LAYER_CHANGE
;0.2
G1 X53.848 Y89.678
G1 E5.00000 F2400.00000
G1 F1200.000
G1 X54.179 Y89.050 E0.02225
G1 X56.168 Y87.054 E0.08837
G1 X56.717 Y86.744 E0.01977
G1 X57.324 Y86.589 E0.01965
G1 X96.831 Y82.267 E1.24609
G1 X138.272 Y82.263 E1.29936
G1 X177.649 Y86.467 E1.24165
G1 X178.272 Y86.661 E0.02048
G1 X178.819 Y87.018 E0.02048
G1 X180.227 Y88.420 E0.06230
G1 X180.928 Y89.315 E0.03564
G1 X181.191 Y89.909 E0.02036
G1 X181.284 Y90.551 E0.02036
G1 X181.454 Y136.353 E1.43608
G1 X181.283 Y144.624 E0.25941
G1 X181.152 Y145.322 E0.02225
G1 X180.819 Y145.953 E0.02237
G1 X178.832 Y147.946 E0.08826
G1 X178.283 Y148.256 E0.01977
G1 X177.676 Y148.411 E0.01965
G1 X138.169 Y152.733 E1.24609
G1 X96.690 Y152.737 E1.30055
G1 X57.362 Y148.535 E1.24011
G1 X56.748 Y148.348 E0.02012
G1 X56.210 Y148.007 E0.02000
G1 X54.794 Y146.602 E0.06254
G1 X54.196 Y145.867 E0.02968
G1 X53.843 Y145.200 E0.02367
G1 X53.716 Y144.456 E0.02367
G1 X53.717 Y90.379 E1.69556
G1 X53.837 Y89.737 E0.02049
G1 E-3.50000 F3600.00000
G1 F7200.000
G1 X54.179 Y89.050 E-0.36439
G1 X55.755 Y87.468 E-1.06061
G1 E-0.07500 F3600.00000
G1 X78.822 Y84.048 F9000.000
G1 E5.00000 F2400.00000
G1 F1200.000
G1 X57.373 Y84.048 E0.67251
G1 X56.302 Y84.217 E0.03399
G1 X54.421 Y85.198 E0.06650
G1 X52.306 Y87.334 E0.09427
G1 X51.636 Y88.422 E0.04004
G1 X51.258 Y89.617 E0.03930
G1 X51.191 Y102.741 E0.41152
G1 X51.334 Y103.687 E0.02998
G1 X51.793 Y104.818 E0.03829
G1 X52.754 Y106.067 E0.04938
G1 X53.528 Y106.842 E0.03436
G1 X53.905 Y107.219 F9000.000
G1 F1200.000
G1 X54.504 Y107.817 E0.02652
G1 X54.734 Y107.985 E0.00895
G1 X54.912 Y108.225 E0.00937
G1 X57.016 Y110.294 E0.09254
G1 X58.205 Y110.990 E0.04318
G1 X59.633 Y111.344 E0.04613
G1 X63.229 Y111.357 E0.11275
G1 X64.021 Y112.646 E0.04742
G1 X66.084 Y114.723 E0.09179
G1 X66.280 Y114.870 E0.00768
G1 X66.423 Y115.062 E0.00752
G1 X68.265 Y116.904 E0.08165
G1 X69.144 Y117.452 E0.03249
G1 X68.288 Y117.909 E0.03042
G1 X67.576 Y118.630 E0.03179
G1 X67.198 Y119.166 E0.02057
G1 X66.591 Y119.770 E0.02684
G1 X66.415 Y120.006 E0.00924
G1 X66.188 Y120.173 E0.00883
G1 X64.404 Y121.961 E0.07920
G1 X64.164 Y122.288 E0.01272
G1 X63.682 Y122.851 E0.02324
G1 X63.299 Y123.541 E0.02475
G1 X63.175 Y123.912 E0.01226
G1 X59.404 Y123.921 E0.11823
G1 X57.804 Y124.336 E0.05184
G1 X56.586 Y125.101 E0.04510
G1 X54.738 Y126.948 E0.08192
G1 X54.598 Y127.135 E0.00732
G1 X54.411 Y127.275 E0.00732
G1 X53.905 Y127.782 E0.02246
G1 X53.528 Y128.159 F9000.000
G1 F1200.000
G1 X52.384 Y129.303 E0.05071
G1 X51.670 Y130.418 E0.04153
G1 X51.275 Y131.598 E0.03900
G1 X51.189 Y132.718 E0.03524
G1 X51.191 Y144.928 E0.38281
G1 X51.745 Y146.741 E0.05945
G1 X52.174 Y147.406 E0.02480
G1 X52.401 Y147.662 E0.01071
G1 X52.639 Y148.008 E0.01317
G1 X54.938 Y150.216 E0.09997
G1 X56.031 Y150.785 E0.03862
G1 X57.231 Y151.067 E0.03865
G1 X79.485 Y151.088 E0.69775
G1 E-3.50000 F3600.00000
G1 F7200.000
G1 X76.485 Y151.085 E-1.42500
G1 E-0.07500 F3600.00000
G1 X81.656 Y151.320 F9000.000
G1 E5.00000 F2400.00000
G1 F1200.000
G1 X82.753 Y152.384 E0.04794
G1 X84.671 Y153.316 E0.06683
G1 X85.556 Y153.427 E0.02797
G1 X92.958 Y153.427 E0.23210
G1 X93.949 Y154.385 E0.04323
G1 X94.918 Y154.936 E0.03493
G1 X96.219 Y155.262 E0.04205
G1 X138.331 Y155.262 E1.32041
G1 X139.646 Y154.991 E0.04211
G1 X140.890 Y154.346 E0.04393
G1 X142.201 Y153.105 E0.05659
G1 X149.919 Y153.098 E0.24198
G1 X150.991 Y152.895 E0.03422
G1 X152.611 Y152.030 E0.05757
G1 X153.407 Y151.256 E0.03481
G1 E-3.50000 F3600.00000
G1 F7200.000
G1 X152.611 Y152.030 E-0.52742
G1 X150.991 Y152.895 E-0.87216
G1 X150.939 Y152.905 E-0.02541
G1 E-0.07500 F3600.00000
G1 X156.232 Y150.947 F9000.000
G1 E5.00000 F2400.00000
G1 F1200.000
G1 X178.076 Y150.908 E0.68489
G1 X179.393 Y150.529 E0.04297
G1 X180.554 Y149.812 E0.04279
G1 X182.743 Y147.603 E0.09750
G1 X183.584 Y146.032 E0.05589
G1 X183.776 Y145.119 E0.02925
G1 X183.811 Y144.274 E0.02652
G1 X183.810 Y137.624 E0.20851
G1 X183.794 Y136.314 E0.04106
G1 X183.809 Y136.127 E0.00589
G1 X183.809 Y132.122 E0.12558
G1 X183.173 Y130.099 E0.06647
G1 X182.536 Y129.223 E0.03399
G1 X181.612 Y128.299 E0.04094
G1 X181.234 Y127.921 F9000.000
G1 F1200.000
G1 X180.589 Y127.275 E0.02862
G1 X180.402 Y127.135 E0.00732
G1 X180.262 Y126.948 E0.00732
G1 X178.417 Y125.104 E0.08177
G1 X177.264 Y124.365 E0.04294
G1 X175.507 Y123.910 E0.05692
G1 X171.824 Y123.910 E0.11547
G1 X171.701 Y123.541 E0.01219
G1 X171.318 Y122.851 E0.02475
G1 X170.836 Y122.288 E0.02324
G1 X170.596 Y121.961 E0.01272
G1 X168.812 Y120.173 E0.07920
G1 X168.584 Y120.006 E0.00883
G1 X168.409 Y119.770 E0.00924
G1 X167.802 Y119.166 E0.02684
G1 X167.424 Y118.630 E0.02057
G1 X166.711 Y117.909 E0.03180
G1 X166.000 Y117.524 E0.02537
G1 X166.688 Y117.104 E0.02529
G1 X167.412 Y116.385 E0.03198
G1 X167.800 Y115.836 E0.02109
G1 X168.409 Y115.230 E0.02692
G1 X168.584 Y114.994 E0.00924
G1 X168.812 Y114.827 E0.00883
G1 X170.596 Y113.039 E0.07920
G1 X170.837 Y112.710 E0.01278
G1 X171.323 Y112.142 E0.02344
G1 X171.707 Y111.446 E0.02492
G1 X171.824 Y111.090 E0.01176
G1 X175.507 Y111.090 E0.11549
G1 X177.264 Y110.635 E0.05692
G1 X178.417 Y109.896 E0.04294
G1 X180.262 Y108.052 E0.08178
G1 X180.402 Y107.865 E0.00732
G1 X180.589 Y107.725 E0.00732
G1 X181.157 Y107.156 E0.02521
G1 X181.533 Y106.780 F9000.000
G1 F1200.000
G1 X182.556 Y105.757 E0.04539
G1 X183.161 Y104.934 E0.03204
G1 X183.809 Y102.859 E0.06815
G1 X183.790 Y89.950 E0.40474
G1 X183.203 Y88.154 E0.05926
G1 X182.823 Y87.590 E0.02131
G1 X182.612 Y87.352 E0.00998
G1 X182.389 Y87.028 E0.01234
G1 X180.472 Y85.103 E0.08517
G1 X179.553 Y84.474 E0.03492
G1 X177.815 Y83.935 E0.05705
G1 X155.493 Y83.912 E0.69989
G1 E-3.50000 F3600.00000
G1 F7200.000
G1 X158.493 Y83.915 E-1.42500
G1 E-0.07500 F3600.00000
G1 X153.347 Y83.683 F9000.000
G1 E5.00000 F2400.00000
G1 F1200.000
G1 X152.247 Y82.616 E0.04807
G1 X150.329 Y81.684 E0.06683
G1 X149.444 Y81.573 E0.02797
G1 X142.042 Y81.573 E0.23210
G1 X141.051 Y80.615 E0.04323
G1 X140.082 Y80.064 E0.03493
G1 X138.781 Y79.738 E0.04205
G1 X96.669 Y79.738 E1.32041
G1 X95.353 Y80.009 E0.04211
G1 X94.109 Y80.654 E0.04393
G1 X92.799 Y81.895 E0.05659
G1 X85.081 Y81.902 E0.24198
G1 X84.009 Y82.105 E0.03422
G1 X82.389 Y82.970 E0.05757
G1 X81.593 Y83.744 E0.03482
G1 X81.761 Y84.105 F9000.000
G1 F1200.000
G1 X81.436 Y84.425 E0.01429
G1 X78.842 Y84.425 E0.08133
G1 E-3.50000 F3600.00000
G1 F7200.000
G1 X81.436 Y84.425 E-1.23204
G1 X81.726 Y84.140 E-0.19296
G1 E-0.07500 F3600.00000
G1 X82.196 Y83.678 F9000.000
G1 E5.00000 F2400.00000
G1 F1200.000
G1 X82.593 Y83.289 E0.01743
G1 X84.109 Y82.470 E0.05404
G1 X85.100 Y82.279 E0.03163
G1 X92.950 Y82.272 E0.24615
G1 X94.309 Y80.975 E0.05888
G1 X95.457 Y80.373 E0.04066
G1 X96.689 Y80.115 E0.03945
G1 X138.758 Y80.115 E1.31907
G1 X139.920 Y80.405 E0.03754
G1 X140.809 Y80.905 E0.03199
G1 X141.648 Y81.700 E0.03624
G1 X141.834 Y81.950 E0.00976
G1 X149.432 Y81.950 E0.23823
G1 X150.250 Y82.054 E0.02585
G1 X152.052 Y82.940 E0.06296
G1 X152.745 Y83.619 E0.03039
G1 X153.179 Y84.044 F9000.000
G1 F1200.000
G1 X153.427 Y84.287 E0.01088
G1 X155.467 Y84.288 E0.06397
G1 E-3.50000 F3600.00000
G1 F7200.000
G1 X153.427 Y84.287 E-0.96915
G1 X153.179 Y84.044 E-0.16479
G1 E-0.36606 F3600.00000
G1 X159.042 Y84.291 F9000.000
G1 E5.00000 F2400.00000
G1 F1200.000
G1 X177.731 Y84.304 E0.58596
G1 X179.413 Y84.825 E0.05523
G1 X180.243 Y85.402 E0.03167
G1 X182.109 Y87.280 E0.08301
G1 X182.313 Y87.584 E0.01149
G1 X182.518 Y87.812 E0.00961
G1 X182.876 Y88.343 E0.02007
G1 X183.413 Y89.981 E0.05404
G1 X183.432 Y102.831 E0.40291
G1 X182.839 Y104.736 E0.06258
G1 X182.279 Y105.501 E0.02970
G1 X181.531 Y106.249 E0.03319
G1 X181.155 Y106.625 F9000.000
G1 F1200.000
G1 X180.333 Y107.447 E0.03646
G1 X180.132 Y107.595 E0.00782
G1 X179.984 Y107.796 E0.00782
G1 X178.166 Y109.614 E0.08064
G1 X177.088 Y110.300 E0.04006
G1 X175.484 Y110.713 E0.05193
G1 X171.544 Y110.713 E0.12351
G1 X171.366 Y111.282 E0.01870
G1 X171.002 Y111.942 E0.02365
G1 X170.541 Y112.476 E0.02212
G1 X170.318 Y112.784 E0.01191
G1 X168.556 Y114.549 E0.07821
G1 X168.315 Y114.722 E0.00932
G1 X168.132 Y114.974 E0.00976
G1 X167.510 Y115.592 E0.02748
G1 X167.134 Y116.129 E0.02057
G1 X166.440 Y116.819 E0.03068
G1 X165.214 Y117.548 E0.04472
G1 X166.465 Y118.196 E0.04419
G1 X167.145 Y118.883 E0.03030
G1 X167.512 Y119.410 E0.02012
G1 X168.132 Y120.026 E0.02741
G1 X168.315 Y120.278 E0.00976
G1 X168.556 Y120.451 E0.00932
G1 X170.318 Y122.216 E0.07821
G1 X170.540 Y122.523 E0.01185
G1 X170.998 Y123.052 E0.02194
G1 X171.362 Y123.707 E0.02350
G1 X171.547 Y124.287 E0.01910
G1 X175.484 Y124.287 E0.12342
G1 X177.088 Y124.700 E0.05193
G1 X178.166 Y125.386 E0.04007
G1 X179.984 Y127.204 E0.08064
G1 X180.132 Y127.405 E0.00782
G1 X180.333 Y127.553 E0.00782
G1 X181.236 Y128.456 E0.04005
G1 X181.614 Y128.835 F9000.000
G1 F1200.000
G1 X182.260 Y129.480 E0.02861
G1 X182.824 Y130.244 E0.02980
G1 X183.432 Y132.151 E0.06276
G1 X183.432 Y136.119 E0.12440
G1 X183.417 Y136.301 E0.00571
G1 X183.433 Y137.625 E0.04153
G1 X183.434 Y144.271 E0.20837
G1 X183.403 Y145.060 E0.02478
G1 X183.238 Y145.879 E0.02618
G1 X182.423 Y147.401 E0.05412
G1 X180.303 Y149.530 E0.09421
G1 X179.218 Y150.194 E0.03990
G1 X178.049 Y150.531 E0.03815
G1 X159.736 Y150.563 E0.57420
G1 E-3.50000 F3600.00000
G1 F7200.000
G1 X162.736 Y150.558 E-1.42500
G1 E-0.07500 F3600.00000
G1 X156.211 Y150.570 F9000.000
G1 E5.00000 F2400.00000
G1 F1200.000
G1 X153.565 Y150.574 E0.08296
G1 X153.239 Y150.895 E0.01434
G1 X152.804 Y151.322 F9000.000
G1 F1200.000
G1 X152.407 Y151.711 E0.01743
G1 X150.891 Y152.530 E0.05404
G1 X149.900 Y152.721 E0.03163
G1 X142.050 Y152.728 E0.24615
G1 X140.691 Y154.025 E0.05888
G1 X139.543 Y154.627 E0.04066
G1 X138.311 Y154.885 E0.03945
G1 X96.242 Y154.885 E1.31907
G1 X95.080 Y154.595 E0.03754
G1 X94.191 Y154.095 E0.03199
G1 X93.352 Y153.300 E0.03624
G1 X93.166 Y153.050 E0.00976
G1 X85.568 Y153.050 E0.23823
G1 X84.750 Y152.946 E0.02585
G1 X82.948 Y152.060 E0.06297
G1 X82.258 Y151.384 E0.03026
G1 X81.824 Y150.959 F9000.000
G1 F1200.000
G1 X81.573 Y150.713 E0.01101
G1 X79.508 Y150.711 E0.06475
G1 E-3.50000 F3600.00000
G1 F7200.000
G1 X81.573 Y150.713 E-0.98086
G1 X81.824 Y150.959 E-0.16684
G1 E-0.35230 F3600.00000
G1 X75.934 Y150.709 F9000.000
G1 E5.00000 F2400.00000
G1 F1200.000
G1 X57.294 Y150.695 E0.58443
G1 X56.183 Y150.439 E0.03575
G1 X55.136 Y149.894 E0.03700
G1 X52.939 Y147.778 E0.09565
G1 X52.697 Y147.428 E0.01334
G1 X52.481 Y147.186 E0.01019
G1 X52.097 Y146.603 E0.02188
G1 X51.568 Y144.899 E0.05594
G1 X51.566 Y132.725 E0.38170
G1 X51.641 Y131.693 E0.03244
G1 X52.001 Y130.600 E0.03608
G1 X52.666 Y129.554 E0.03885
G1 X53.528 Y128.692 E0.03823
G1 X53.905 Y128.315 F9000.000
G1 F1200.000
G1 X54.667 Y127.553 E0.03380
G1 X54.868 Y127.405 E0.00782
G1 X55.016 Y127.204 E0.00782
G1 X56.837 Y125.383 E0.08075
G1 X57.978 Y124.671 E0.04218
G1 X59.428 Y124.298 E0.04695
G1 X63.452 Y124.289 E0.12617
G1 X63.638 Y123.707 E0.01915
G1 X64.002 Y123.052 E0.02350
G1 X64.460 Y122.522 E0.02194
G1 X64.682 Y122.216 E0.01185
G1 X66.443 Y120.451 E0.07821
G1 X66.685 Y120.278 E0.00932
G1 X66.868 Y120.026 E0.00976
G1 X67.488 Y119.410 E0.02741
G1 X67.855 Y118.883 E0.02012
G1 X68.535 Y118.196 E0.03030
G1 X69.918 Y117.482 E0.04881
G1 X68.515 Y116.621 E0.05160
G1 X66.701 Y114.806 E0.08045
G1 X66.550 Y114.600 E0.00801
G1 X66.340 Y114.446 E0.00815
G1 X64.303 Y112.395 E0.09064
G1 X63.654 Y111.348 E0.03861
G1 X63.530 Y110.981 E0.01216
G1 X59.657 Y110.967 E0.12145
G1 X58.371 Y110.650 E0.04154
G1 X57.263 Y110.009 E0.04012
G1 X55.188 Y107.968 E0.09126
G1 X55.004 Y107.714 E0.00984
G1 X54.759 Y107.538 E0.00945
G1 X53.905 Y106.685 E0.03783
G1 X53.528 Y106.308 F9000.000
G1 F1200.000
G1 X53.028 Y105.808 E0.02217
G1 X52.133 Y104.652 E0.04584
G1 X51.692 Y103.566 E0.03676
G1 X51.568 Y102.729 E0.02653
G1 X51.635 Y89.648 E0.41015
G1 X51.987 Y88.561 E0.03585
G1 X52.614 Y87.552 E0.03724
G1 X54.668 Y85.485 E0.09135
G1 X56.446 Y84.566 E0.06277
G1 X57.386 Y84.425 E0.02980
G1 X75.375 Y84.425 E0.56402
G1 X75.395 Y84.802 F9000.000
G1 F1200.000
G1 X81.592 Y84.802 E0.19428
G1 X82.360 Y84.040 E0.03394
G1 X82.791 Y83.613 F9000.000
G1 F1200.000
G1 X84.211 Y82.834 E0.05079
G1 X85.118 Y82.656 E0.02900
G1 X91.598 Y82.650 E0.20316
G1 X93.294 Y82.464 F9000.000
G1 F1200.000
G1 X94.509 Y81.295 E0.05288
G1 X95.562 Y80.736 E0.03737
G1 X96.709 Y80.492 E0.03676
G1 X138.734 Y80.492 E1.31769
G1 X139.802 Y80.764 E0.03452
G1 X140.602 Y81.220 E0.02889
G1 X141.374 Y81.960 E0.03352
G1 X141.640 Y82.327 E0.01422
G1 X149.420 Y82.327 E0.24393
G1 X150.170 Y82.424 E0.02371
G1 X151.857 Y83.264 E0.05908
G1 X152.151 Y83.555 E0.01299
G1 X152.580 Y83.980 F9000.000
G1 F1200.000
G1 X153.271 Y84.664 E0.03047
G1 X159.004 Y84.666 E0.17976
G1 E-3.50000 F3600.00000
G1 F7200.000
G1 X156.004 Y84.665 E-1.42500
G1 E-0.07500 F3600.00000
G1 X162.568 Y84.667 F9000.000
G1 E5.00000 F2400.00000
G1 F1200.000
G1 X177.646 Y84.673 E0.47277
G1 X179.272 Y85.176 E0.05338
G1 X180.010 Y85.700 E0.02837
G1 X181.827 Y87.531 E0.08089
G1 X182.014 Y87.816 E0.01067
G1 X182.213 Y88.035 E0.00929
G1 X182.549 Y88.533 E0.01882
G1 X183.036 Y90.011 E0.04881
G1 X183.055 Y102.803 E0.40107
G1 X182.515 Y104.540 E0.05703
G1 X182.002 Y105.245 E0.02734
G1 X181.529 Y105.718 E0.02099
G1 X181.153 Y106.094 F9000.000
G1 F1200.000
G1 X180.078 Y107.169 E0.04768
G1 X179.861 Y107.324 E0.00835
G1 X179.706 Y107.541 E0.00835
G1 X177.914 Y109.333 E0.07946
G1 X176.912 Y109.966 E0.03717
G1 X175.460 Y110.336 E0.04697
G1 X171.263 Y110.336 E0.13159
G1 X171.026 Y111.118 E0.02563
G1 X170.682 Y111.742 E0.02235
G1 X170.245 Y112.242 E0.02083
G1 X170.040 Y112.529 E0.01105
G1 X168.302 Y114.271 E0.07715
G1 X168.045 Y114.451 E0.00983
G1 X167.854 Y114.719 E0.01031
G1 X167.220 Y115.349 E0.02805
G1 X166.856 Y115.874 E0.02004
G1 X166.191 Y116.535 E0.02937
G1 X165.280 Y117.070 E0.03314
G1 X164.154 Y117.355 E0.03639
G1 X164.169 Y117.662 E0.00965
G1 X164.790 Y117.759 E0.01972
G1 X166.219 Y118.483 E0.05022
G1 X166.865 Y119.136 E0.02879
G1 X167.221 Y119.652 E0.01967
G1 X167.854 Y120.281 E0.02798
G1 X168.045 Y120.549 E0.01031
G1 X168.302 Y120.729 E0.00983
G1 X170.040 Y122.471 E0.07715
G1 X170.244 Y122.757 E0.01100
G1 X170.678 Y123.253 E0.02067
G1 X171.022 Y123.872 E0.02223
G1 X171.268 Y124.664 E0.02601
G1 X175.460 Y124.664 E0.13143
G1 X176.912 Y125.034 E0.04697
G1 X177.914 Y125.667 E0.03717
G1 X179.706 Y127.459 E0.07946
G1 X179.861 Y127.676 E0.00835
G1 X180.078 Y127.831 E0.00835
G1 X181.238 Y128.991 E0.05145
G1 X181.616 Y129.370 F9000.000
G1 F1200.000
G1 X181.984 Y129.737 E0.01630
G1 X182.475 Y130.391 E0.02565
G1 X183.055 Y132.181 E0.05899
G1 X183.055 Y136.110 E0.12319
G1 X183.040 Y136.286 E0.00553
G1 X183.056 Y137.626 E0.04202
G1 X183.057 Y144.267 E0.20823
G1 X183.030 Y145.005 E0.02314
G1 X182.892 Y145.727 E0.02305
G1 X182.104 Y147.198 E0.05233
G1 X180.086 Y149.221 E0.08959
G1 X179.086 Y149.840 E0.03687
G1 X178.021 Y150.154 E0.03483
