; generated by PrusaSlicer 2.2.0+ on 2020-11-03 at 18:20:39 UTC

; 

; external perimeters extrusion width = 0.45mm
; perimeters extrusion width = 0.45mm
; infill extrusion width = 0.45mm
; solid infill extrusion width = 0.45mm
; top infill extrusion width = 0.40mm
; support material extrusion width = 0.38mm
; first layer extrusion width = 0.42mm

M201 X500 Y500 Z100 E5000 ; sets maximum accelerations, mm/sec^2
M203 X500 Y500 Z10 E60 ; sets maximum feedrates, mm/sec
M204 P500 R1000 T500 ; sets acceleration (P, T) and retract acceleration (R), mm/sec^2
M205 X8.00 Y8.00 Z0.40 E5.00 ; sets the jerk limits, mm/sec
M205 S0 T0 ; sets the minimum extruding and travel feed rate, mm/sec
M107
G90 ; use absolute coordinates
M83 ; extruder relative mode
M104 S200 ; set extruder temp
M140 S50 ; set bed temp
M190 S50 ; wait for bed temp
M109 S200 ; wait for extruder temp
G28 ; home all
G1 Z2 F240
G1 X2 Y10 F3000
G1 Z0.28 F240
G92 E0.0
G1 Y190 E15.0 F1500.0 ; intro line
G1 X2.3 F5000
G1 Y10 E30 F1200.0 ; intro line
G92 E0.0
G21 ; set units to millimeters
G90 ; use absolute coordinates
M83 ; use relative distances for extrusion
; Filament gcode
;BEFORE_LAYER_CHANGE
;0.2


G1 E-5.00000 F3600.00000
G1 Z0.200 F9000.000
;AFTER_LAYER_CHANGE
;0.2
G1 X125.170 Y105.247
G1 E5.00000 F2400.00000
G1 F1200.000
G1 X126.044 Y105.809 E0.03258
G1 X129.256 Y109.276 E0.14818
G1 X129.898 Y110.132 E0.03357
G1 X130.197 Y110.809 E0.02320
G1 X130.305 Y111.549 E0.02345
G1 X130.305 Y123.608 E0.37809
G1 X130.198 Y124.311 E0.02231
G1 X129.913 Y124.967 E0.02243
G1 X129.524 Y125.473 E0.02001
G1 X125.758 Y129.234 E0.16689
G1 X125.174 Y129.641 E0.02231
G1 X124.509 Y129.883 E0.02218
G1 X123.920 Y129.950 E0.01860
G1 X110.797 Y129.950 E0.41144
G1 X110.094 Y129.843 E0.02231
G1 X109.438 Y129.558 E0.02243
G1 X108.872 Y129.107 E0.02269
G1 X105.760 Y125.743 E0.14369
G1 X105.069 Y124.811 E0.03638
G1 X104.760 Y124.024 E0.02651
G1 X104.695 Y123.439 E0.01848
G1 X104.695 Y111.384 E0.37796
G1 X104.804 Y110.681 E0.02231
G1 X105.087 Y110.033 E0.02218
G1 X105.474 Y109.530 E0.01988
G1 X109.227 Y105.780 E0.16638
G1 X109.775 Y105.386 E0.02116
G1 X110.399 Y105.139 E0.02103
G1 X111.076 Y105.050 E0.02141
G1 X124.149 Y105.050 E0.40990
G1 X125.111 Y105.236 E0.03070
G1 X125.037 Y105.600 F9000.000
G1 F1200.000
G1 X125.798 Y106.096 E0.02849
G1 X128.962 Y109.512 E0.14600
G1 X129.572 Y110.323 E0.03182
G1 X129.840 Y110.931 E0.02083
G1 X129.928 Y111.559 E0.01989
G1 X129.928 Y123.596 E0.37739
G1 X129.833 Y124.215 E0.01965
G1 X129.580 Y124.789 E0.01965
G1 X129.251 Y125.212 E0.01680
G1 X125.512 Y128.948 E0.16575
G1 X125.005 Y129.304 E0.01941
G1 X124.420 Y129.517 E0.01953
G1 X123.913 Y129.573 E0.01597
G1 X110.809 Y129.573 E0.41087
G1 X110.190 Y129.478 E0.01965
G1 X109.616 Y129.225 E0.01965
G1 X109.137 Y128.839 E0.01929
G1 X106.050 Y125.502 E0.14254
G1 X105.402 Y124.635 E0.03396
G1 X105.128 Y123.939 E0.02343
G1 X105.072 Y123.437 E0.01585
G1 X105.072 Y111.400 E0.37740
G1 X105.167 Y110.785 E0.01953
G1 X105.420 Y110.211 E0.01965
G1 X105.749 Y109.788 E0.01680
G1 X109.480 Y106.059 E0.16539
G1 X109.958 Y105.716 E0.01846
G1 X110.506 Y105.501 E0.01846
G1 X111.083 Y105.427 E0.01823
G1 X124.149 Y105.427 E0.40968
G1 X124.978 Y105.589 E0.02649
G1 E-3.50000 F3600.00000
G1 F7200.000
G1 X125.798 Y106.096 E-0.45811
G1 X127.181 Y107.589 E-0.96689
G1 E-0.07500 F3600.00000
G1 X128.948 Y105.963 F9000.000
G1 E5.00000 F2400.00000
G1 F1200.000
G1 X129.141 Y106.107 E0.00753
G1 X131.051 Y108.033 E0.08505
G1 X131.369 Y108.518 E0.01819
G1 X131.862 Y109.194 E0.02622
G1 X132.280 Y110.198 E0.03410
G1 X132.453 Y111.235 E0.03295
G1 X132.453 Y123.826 E0.39478
G1 X132.254 Y124.944 E0.03563
G1 X131.809 Y126.000 E0.03590
G1 X130.538 Y127.499 E0.06164
G1 X130.333 Y127.684 E0.00867
G1 X129.304 Y128.731 E0.04602
G1 X129.065 Y128.906 E0.00928
G1 X128.899 Y129.135 E0.00888
G1 X127.085 Y130.949 E0.08041
G1 X125.019 Y131.987 E0.07249
G1 X124.134 Y132.098 E0.02797
G1 X110.308 Y132.098 E0.43351
G1 X108.394 Y131.455 E0.06330
G1 X107.804 Y131.000 E0.02340
G1 X107.225 Y130.421 E0.02563
G1 X106.799 Y129.831 E0.02284
G1 X106.206 Y129.241 E0.02624
G1 X106.052 Y129.037 E0.00802
G1 X105.860 Y128.894 E0.00750
G1 X104.022 Y127.056 E0.08150
G1 X103.128 Y125.786 E0.04870
G1 X102.641 Y124.507 E0.04291
G1 X102.547 Y123.757 E0.02367
G1 X102.547 Y111.174 E0.39454
G1 X102.746 Y110.056 E0.03563
G1 X103.191 Y109.000 E0.03590
G1 X104.462 Y107.501 E0.06164
G1 X104.667 Y107.316 E0.00867
G1 X105.696 Y106.269 E0.04602
G1 X105.935 Y106.094 E0.00929
G1 X106.101 Y105.865 E0.00888
G1 X107.915 Y104.051 E0.08041
G1 X109.981 Y103.013 E0.07250
G1 X110.866 Y102.902 E0.02799
G1 X124.639 Y102.905 E0.43184
G1 X125.635 Y103.107 E0.03185
G1 X126.619 Y103.561 E0.03398
G1 X127.755 Y104.561 E0.04744
G1 X128.189 Y105.158 E0.02315
G1 X128.794 Y105.759 E0.02676
G1 X128.912 Y105.916 E0.00614
G1 X128.680 Y106.235 F9000.000
G1 F1200.000
G1 X128.885 Y106.384 E0.00796
G1 X130.746 Y108.256 E0.08277
G1 X131.060 Y108.735 E0.01794
G1 X131.522 Y109.361 E0.02441
G1 X131.923 Y110.323 E0.03268
G1 X132.076 Y111.250 E0.02946
G1 X132.076 Y123.809 E0.39377
G1 X131.887 Y124.856 E0.03337
G1 X131.474 Y125.824 E0.03301
G1 X130.260 Y127.243 E0.05855
G1 X130.073 Y127.411 E0.00788
G1 X129.047 Y128.455 E0.04588
G1 X128.794 Y128.636 E0.00977
G1 X128.620 Y128.881 E0.00941
G1 X126.840 Y130.661 E0.07894
G1 X124.940 Y131.617 E0.06670
G1 X124.122 Y131.721 E0.02584
G1 X110.339 Y131.721 E0.43217
G1 X108.599 Y131.137 E0.05754
G1 X108.061 Y130.724 E0.02127
G1 X107.503 Y130.166 E0.02475
G1 X107.088 Y129.586 E0.02238
G1 X106.482 Y128.984 E0.02677
G1 X106.320 Y128.765 E0.00853
G1 X106.115 Y128.616 E0.00795
G1 X104.302 Y126.803 E0.08038
G1 X103.447 Y125.584 E0.04670
G1 X103.012 Y124.437 E0.03847
G1 X102.924 Y123.745 E0.02186
G1 X102.924 Y111.191 E0.39362
G1 X103.113 Y110.144 E0.03337
G1 X103.526 Y109.175 E0.03301
G1 X104.740 Y107.757 E0.05855
G1 X104.927 Y107.589 E0.00788
G1 X105.953 Y106.545 E0.04588
G1 X106.206 Y106.364 E0.00977
G1 X106.380 Y106.119 E0.00941
G1 X108.160 Y104.339 E0.07893
G1 X110.060 Y103.383 E0.06670
G1 X110.878 Y103.279 E0.02585
G1 X124.619 Y103.282 E0.43085
G1 X125.536 Y103.472 E0.02935
G1 X126.434 Y103.891 E0.03106
G1 X127.488 Y104.828 E0.04422
G1 X127.900 Y105.403 E0.02218
G1 X128.518 Y106.016 E0.02730
G1 X128.644 Y106.186 E0.00664
G1 X128.411 Y106.506 F9000.000
G1 F1200.000
G1 X128.630 Y106.662 E0.00843
G1 X130.441 Y108.479 E0.08044
G1 X130.751 Y108.952 E0.01773
G1 X131.184 Y109.528 E0.02259
G1 X131.567 Y110.447 E0.03122
G1 X131.699 Y111.265 E0.02597
G1 X131.699 Y123.792 E0.39278
G1 X131.532 Y124.728 E0.02981
G1 X131.139 Y125.649 E0.03141
G1 X129.984 Y126.986 E0.05540
G1 X129.814 Y127.137 E0.00712
G1 X128.791 Y128.177 E0.04574
G1 X128.522 Y128.365 E0.01029
G1 X128.341 Y128.627 E0.00999
G1 X126.595 Y130.373 E0.07743
G1 X124.859 Y131.247 E0.06092
G1 X124.110 Y131.344 E0.02369
G1 X110.369 Y131.344 E0.43083
G1 X108.803 Y130.819 E0.05179
G1 X108.319 Y130.448 E0.01912
G1 X107.781 Y129.911 E0.02384
G1 X107.377 Y129.341 E0.02191
G1 X106.759 Y128.728 E0.02730
G1 X106.589 Y128.494 E0.00907
G1 X106.370 Y128.338 E0.00843
G1 X104.583 Y126.550 E0.07925
G1 X104.249 Y126.048 E0.01891
G1 X103.790 Y125.424 E0.02429
G1 X103.383 Y124.365 E0.03556
G1 X103.301 Y123.733 E0.02000
G1 X103.301 Y111.208 E0.39271
G1 X103.468 Y110.272 E0.02981
G1 X103.861 Y109.351 E0.03141
G1 X105.016 Y108.014 E0.05540
G1 X105.186 Y107.863 E0.00712
G1 X106.209 Y106.823 E0.04574
G1 X106.478 Y106.635 E0.01029
G1 X106.659 Y106.373 E0.00999
G1 X108.405 Y104.627 E0.07743
G1 X110.141 Y103.753 E0.06092
G1 X110.890 Y103.656 E0.02371
G1 X124.599 Y103.659 E0.42983
G1 X125.436 Y103.836 E0.02680
G1 X126.247 Y104.220 E0.02813
G1 X127.220 Y105.093 E0.04100
G1 X127.611 Y105.647 E0.02125
G1 X128.241 Y106.272 E0.02784
G1 X128.376 Y106.458 E0.00719
G1 X128.142 Y106.779 F9000.000
G1 F1200.000
G1 X128.376 Y106.942 E0.00894
G1 X130.137 Y108.702 E0.07806
G1 X130.443 Y109.169 E0.01749
G1 X130.867 Y109.735 E0.02219
G1 X131.209 Y110.569 E0.02827
G1 X131.322 Y111.279 E0.02254
G1 X131.322 Y123.775 E0.39179
G1 X131.165 Y124.638 E0.02753
G1 X130.805 Y125.472 E0.02848
G1 X129.709 Y126.728 E0.05225
G1 X129.556 Y126.861 E0.00637
G1 X128.536 Y127.899 E0.04562
G1 X128.250 Y128.093 E0.01085
G1 X128.061 Y128.374 E0.01060
G1 X126.349 Y130.085 E0.07589
G1 X124.779 Y130.878 E0.05516
G1 X124.098 Y130.967 E0.02154
G1 X110.400 Y130.967 E0.42948
G1 X109.007 Y130.500 E0.04607
G1 X108.576 Y130.173 E0.01695
G1 X108.060 Y129.656 E0.02291
G1 X107.666 Y129.097 E0.02142
G1 X107.037 Y128.472 E0.02782
G1 X106.858 Y128.221 E0.00967
G1 X106.624 Y128.058 E0.00894
G1 X104.863 Y126.298 E0.07806
G1 X104.557 Y125.831 E0.01749
G1 X104.131 Y125.262 E0.02230
G1 X103.753 Y124.293 E0.03261
G1 X103.678 Y123.720 E0.01811
G1 X103.678 Y111.225 E0.39177
G1 X103.835 Y110.362 E0.02753
G1 X104.195 Y109.528 E0.02847
G1 X105.291 Y108.272 E0.05225
G1 X105.444 Y108.139 E0.00637
G1 X106.464 Y107.101 E0.04562
G1 X106.750 Y106.907 E0.01085
G1 X106.939 Y106.626 E0.01060
G1 X108.651 Y104.915 E0.07589
G1 X110.221 Y104.122 E0.05516
G1 X110.903 Y104.033 E0.02155
G1 X124.579 Y104.036 E0.42880
G1 X125.333 Y104.200 E0.02421
G1 X126.058 Y104.547 E0.02520
G1 X126.950 Y105.357 E0.03777
G1 X127.320 Y105.890 E0.02034
G1 X127.963 Y106.528 E0.02840
G1 X128.107 Y106.730 E0.00779
G1 X127.872 Y107.053 F9000.000
G1 F1200.000
G1 X128.123 Y107.222 E0.00948
G1 X129.855 Y108.954 E0.07681
G1 X130.134 Y109.386 E0.01611
G1 X130.528 Y109.902 E0.02035
G1 X130.852 Y110.691 E0.02676
G1 X130.945 Y111.293 E0.01910
G1 X130.945 Y123.757 E0.39079
G1 X130.798 Y124.547 E0.02521
G1 X130.472 Y125.293 E0.02553
G1 X129.436 Y126.467 E0.04908
G1 X129.299 Y126.584 E0.00565
G1 X128.282 Y127.620 E0.04551
G1 X127.977 Y127.821 E0.01146
G1 X127.780 Y128.121 E0.01127
G1 X126.104 Y129.797 E0.07431
G1 X124.697 Y130.508 E0.04942
G1 X124.085 Y130.590 E0.01936
G1 X110.431 Y130.590 E0.42812
G1 X109.209 Y130.181 E0.04038
G1 X108.834 Y129.897 E0.01477
G1 X108.336 Y129.399 E0.02206
G1 X108.039 Y128.988 E0.01590
G1 X107.982 Y128.879 E0.00387
G1 X107.316 Y128.217 E0.02944
G1 X107.127 Y127.947 E0.01032
G1 X106.877 Y127.778 E0.00948
G1 X105.145 Y126.046 E0.07681
G1 X104.866 Y125.614 E0.01611
G1 X104.472 Y125.098 E0.02038
G1 X104.124 Y124.219 E0.02963
G1 X104.055 Y123.707 E0.01618
G1 X104.055 Y111.243 E0.39082
G1 X104.202 Y110.452 E0.02521
G1 X104.528 Y109.707 E0.02552
G1 X105.564 Y108.533 E0.04908
G1 X105.701 Y108.416 E0.00565
G1 X106.718 Y107.380 E0.04551
G1 X107.023 Y107.179 E0.01146
G1 X107.220 Y106.879 E0.01127
G1 X108.896 Y105.203 E0.07431
G1 X110.303 Y104.492 E0.04942
G1 X110.916 Y104.410 E0.01937
G1 X124.557 Y104.414 E0.42773
G1 X125.229 Y104.563 E0.02157
G1 X125.867 Y104.874 E0.02226
G1 X126.678 Y105.619 E0.03453
G1 X127.029 Y106.132 E0.01948
G1 X127.684 Y106.783 E0.02897
G1 X127.838 Y107.004 E0.00843
G1 X126.525 Y106.051 F9000.000
G1 F1200.000
G1 X126.407 Y105.882 E0.00646
G1 X125.674 Y105.198 E0.03141
G1 X125.122 Y104.925 E0.01932
G1 X124.536 Y104.791 E0.01887
G1 X110.928 Y104.787 E0.42664
G1 X110.385 Y104.861 E0.01718
G1 X109.142 Y105.490 E0.04371
G1 X107.502 Y107.130 E0.07269
G1 X107.314 Y107.425 E0.01099
G1 X107.269 Y107.469 F9000.000
G1 F1200.000
G1 X106.971 Y107.661 E0.01110
G1 X105.956 Y108.694 E0.04544
G1 X105.835 Y108.795 E0.00494
G1 X104.860 Y109.888 E0.04590
G1 X104.568 Y110.545 E0.02256
G1 X104.432 Y111.261 E0.02285
G1 X104.432 Y123.694 E0.38983
G1 X104.494 Y124.144 E0.01422
G1 X104.811 Y124.931 E0.02661
G1 X105.175 Y125.396 E0.01853
G1 X105.427 Y125.795 E0.01477
G1 X107.079 Y127.447 E0.07326
G1 E-3.50000 F3600.00000
G1 F7200.000
G1 X105.427 Y125.795 E-1.10982
G1 X105.175 Y125.396 E-0.22379
G1 X105.056 Y125.245 E-0.09139
G1 E-0.07500 F3600.00000
G1 X108.497 Y128.980 F9000.000
G1 E5.00000 F2400.00000
G1 F1200.000
G1 X108.614 Y129.144 E0.00631
G1 X109.091 Y129.620 E0.02113
G1 X109.411 Y129.861 E0.01257
G1 X110.461 Y130.213 E0.03472
G1 X124.072 Y130.213 E0.42675
G1 X124.614 Y130.139 E0.01717
G1 X125.858 Y129.510 E0.04371
G1 X127.498 Y127.870 E0.07269
G1 X127.688 Y127.573 E0.01105
G1 X127.729 Y127.532 F9000.000
G1 F1200.000
G1 X128.029 Y127.339 E0.01117
G1 X129.044 Y126.306 E0.04544
G1 X129.165 Y126.205 E0.00494
G1 X130.140 Y125.112 E0.04590
G1 X130.432 Y124.455 E0.02256
G1 X130.568 Y123.739 E0.02285
G1 X130.568 Y111.307 E0.38980
G1 X130.494 Y110.813 E0.01566
G1 X130.189 Y110.070 E0.02519
G1 X129.825 Y109.604 E0.01854
G1 X129.573 Y109.205 E0.01477
G1 X127.870 Y107.503 E0.07551
G1 X127.367 Y108.067 F9000.000
G1 F1200.000
G1 X127.063 Y107.881 E0.01116
G1 X126.844 Y107.542 E0.01265
G1 X126.076 Y106.779 E0.03396
G1 X125.945 Y106.532 E0.00876
G1 E-3.50000 F3600.00000
G1 F7200.000
G1 X126.076 Y106.779 E-0.13278
G1 X126.844 Y107.542 E-0.51445
G1 X127.063 Y107.881 E-0.19157
G1 X127.367 Y108.067 E-0.16914
G1 E-0.49207 F3600.00000
G1 X107.910 Y107.895 F9000.000
G1 E5.00000 F2400.00000
G1 F1200.000
G1 X107.846 Y108.002 E0.00391
G1 X107.739 Y108.066 E0.00392
G1 E-3.50000 F3600.00000
G1 F7200.000
G1 X107.846 Y108.002 E-0.05938
G1 X107.910 Y107.895 E-0.05923
G1 E-1.38139 F3600.00000
G1 X107.615 Y126.917 F9000.000
G1 E5.00000 F2400.00000
G1 F1200.000
G1 X107.937 Y127.119 E0.01191
G1 X108.156 Y127.458 E0.01265
G1 X108.925 Y128.221 E0.03397
G1 X108.996 Y128.383 E0.00555
G1 X109.071 Y128.491 E0.00413
G1 E-3.50000 F3600.00000
G1 F7200.000
G1 X108.996 Y128.383 E-0.06253
G1 X108.925 Y128.221 E-0.08404
G1 X108.156 Y127.458 E-0.51458
G1 X107.937 Y127.119 E-0.19158
G1 X107.615 Y126.917 E-0.18042
G1 E-0.46685 F3600.00000
G1 X127.090 Y127.104 F9000.000
G1 E5.00000 F2400.00000
G1 F1200.000
G1 X127.154 Y126.998 E0.00388
G1 X127.260 Y126.935 E0.00389
G1 X126.877 Y126.722 F9000.000
G1 F1200.000
G1 X126.646 Y127.122 E0.01451
G1 X126.204 Y127.564 E0.01957
G1 X126.102 Y127.637 E0.00395
G1 X126.035 Y127.733 E0.00368
G1 X125.122 Y128.646 E0.04049
G1 X124.361 Y129.033 E0.02675
G1 X124.030 Y129.082 E0.01047
G1 X110.554 Y129.082 E0.42255
G1 X110.008 Y128.897 E0.01806
G1 X109.859 Y128.788 E0.00579
G1 X109.451 Y128.381 E0.01807
G1 X109.321 Y128.189 E0.00728
G1 X109.246 Y128.009 E0.00613
G1 X108.438 Y127.206 E0.03570
G1 X108.208 Y126.839 E0.01358
G1 X107.878 Y126.646 E0.01199
G1 X107.349 Y126.117 E0.02343
G1 X107.282 Y126.021 E0.00368
G1 X107.180 Y125.948 E0.00395
G1 X106.278 Y125.046 E0.03997
G1 X106.101 Y124.740 E0.01110
G1 X105.819 Y124.411 E0.01359
G1 X105.602 Y123.905 E0.01726
G1 X105.563 Y123.651 E0.00805
G1 X105.563 Y111.316 E0.38677
G1 X105.652 Y110.869 E0.01427
G1 X105.851 Y110.440 E0.01485
G1 X106.630 Y109.601 E0.03590
G1 X106.743 Y109.518 E0.00437
G1 X106.811 Y109.421 E0.00371
G1 X107.722 Y108.510 E0.04041
G1 X108.123 Y108.278 E0.01451
G1 X108.354 Y107.878 E0.01451
G1 X108.796 Y107.436 E0.01957
G1 X108.898 Y107.363 E0.00395
G1 X108.965 Y107.267 E0.00368
G1 X109.878 Y106.354 E0.04049
G1 X110.639 Y105.967 E0.02675
G1 X110.970 Y105.918 E0.01048
G1 X124.469 Y105.922 E0.42325
G1 X124.712 Y105.979 E0.00782
G1 X125.085 Y106.168 E0.01312
G1 X125.574 Y106.650 E0.02153
G1 X125.682 Y106.815 E0.00618
G1 X125.754 Y106.991 E0.00597
G1 X126.562 Y107.794 E0.03572
G1 X126.792 Y108.161 E0.01358
G1 X127.122 Y108.354 E0.01199
G1 X127.651 Y108.883 E0.02344
G1 X127.718 Y108.979 E0.00368
G1 X127.820 Y109.052 E0.00395
G1 X128.722 Y109.954 E0.03997
G1 X128.899 Y110.260 E0.01110
G1 X129.181 Y110.589 E0.01359
G1 X129.398 Y111.095 E0.01726
G1 X129.437 Y111.349 E0.00805
G1 X129.437 Y123.684 E0.38677
G1 X129.348 Y124.131 E0.01427
G1 X129.148 Y124.560 E0.01485
G1 X128.370 Y125.399 E0.03590
G1 X128.257 Y125.482 E0.00437
G1 X128.189 Y125.579 E0.00371
G1 X127.278 Y126.490 E0.04041
G1 X126.929 Y126.692 E0.01263
G1 X126.599 Y126.444 F9000.000
G1 F1200.000
G1 X126.359 Y126.875 E0.01548
G1 X125.953 Y127.282 E0.01802
G1 X125.824 Y127.368 E0.00486
G1 X125.750 Y127.485 E0.00434
G1 X124.876 Y128.359 E0.03876
G1 X124.273 Y128.665 E0.02120
G1 X124.015 Y128.705 E0.00818
G1 X110.586 Y128.705 E0.42108
G1 X110.203 Y128.573 E0.01270
G1 X110.113 Y128.510 E0.00345
G1 X109.732 Y128.129 E0.01688
G1 X109.648 Y128.002 E0.00478
G1 X109.570 Y127.800 E0.00679
G1 X108.721 Y126.956 E0.03755
G1 X108.575 Y126.716 E0.00881
