; generated by PrusaSlicer 2.2.0+ on 2020-11-03 at 17:27:22 UTC

; 

; external perimeters extrusion width = 0.45mm
; perimeters extrusion width = 0.45mm
; infill extrusion width = 0.45mm
; solid infill extrusion width = 0.45mm
; top infill extrusion width = 0.40mm
; support material extrusion width = 0.38mm
; first layer extrusion width = 0.42mm

M201 X500 Y500 Z100 E5000 ; sets maximum accelerations, mm/sec^2
M203 X500 Y500 Z10 E60 ; sets maximum feedrates, mm/sec
M204 P500 R1000 T500 ; sets acceleration (P, T) and retract acceleration (R), mm/sec^2
M205 X8.00 Y8.00 Z0.40 E5.00 ; sets the jerk limits, mm/sec
M205 S0 T0 ; sets the minimum extruding and travel feed rate, mm/sec
M107
G90 ; use absolute coordinates
M83 ; extruder relative mode
M104 S200 ; set extruder temp
M140 S50 ; set bed temp
M190 S50 ; wait for bed temp
M109 S200 ; wait for extruder temp
G28 ; home all
G1 Z2 F240
G1 X2 Y10 F3000
G1 Z0.28 F240
G92 E0.0
G1 Y190 E15.0 F1500.0 ; intro line
G1 X2.3 F5000
G1 Y10 E30 F1200.0 ; intro line
G92 E0.0
G21 ; set units to millimeters
G90 ; use absolute coordinates
M83 ; use relative distances for extrusion
; Filament gcode
;BEFORE_LAYER_CHANGE
;0.2


G1 E-5.00000 F3600.00000
G1 Z0.200 F9000.000
;AFTER_LAYER_CHANGE
;0.2
G1 X104.870 Y108.129
G1 E5.00000 F2400.00000
G1 F1200.000
G1 X105.313 Y107.357 E0.02790
G1 X107.113 Y105.582 E0.07928
G1 X107.744 Y105.236 E0.02256
G1 X108.444 Y105.066 E0.02256
G1 X126.503 Y105.050 E0.56626
G1 X127.057 Y105.107 E0.01745
G1 X127.588 Y105.274 E0.01745
G1 X128.075 Y105.544 E0.01745
G1 X128.500 Y105.910 E0.01758
G1 X129.730 Y107.518 E0.06347
G1 X130.141 Y108.481 E0.03284
G1 X130.278 Y109.033 E0.01784
G1 X130.304 Y125.990 E0.53168
G1 X130.132 Y126.868 E0.02803
G1 X129.687 Y127.643 E0.02803
G1 X127.860 Y129.438 E0.08030
G1 X127.198 Y129.786 E0.02345
G1 X126.463 Y129.943 E0.02358
G1 X108.415 Y129.949 E0.56588
G1 X107.537 Y129.777 E0.02803
G1 X106.762 Y129.332 E0.02803
G1 X106.357 Y128.926 E0.01796
G1 X105.278 Y127.496 E0.05617
G1 X104.835 Y126.449 E0.03565
G1 X104.701 Y125.763 E0.02192
G1 X104.696 Y109.005 E0.52543
G1 X104.858 Y108.187 E0.02615
G1 X105.224 Y108.260 F9000.000
G1 F1200.000
G1 X105.616 Y107.581 E0.02458
G1 X107.322 Y105.896 E0.07517
G1 X107.880 Y105.588 E0.02000
G1 X108.497 Y105.439 E0.01989
G1 X126.503 Y105.427 E0.56458
G1 X126.987 Y105.477 E0.01526
G1 X127.454 Y105.627 E0.01538
G1 X127.878 Y105.867 E0.01526
G1 X128.246 Y106.191 E0.01538
G1 X129.402 Y107.704 E0.05970
G1 X129.788 Y108.615 E0.03103
G1 X129.908 Y109.110 E0.01597
G1 X129.927 Y125.973 E0.52872
G1 X129.777 Y126.739 E0.02449
G1 X129.384 Y127.419 E0.02461
G1 X127.660 Y129.117 E0.07588
G1 X127.077 Y129.428 E0.02071
G1 X126.431 Y129.567 E0.02071
G1 X108.436 Y129.573 E0.56423
G1 X107.666 Y129.422 E0.02461
G1 X106.986 Y129.029 E0.02461
G1 X105.606 Y127.309 E0.06914
G1 X105.194 Y126.335 E0.03317
G1 X105.076 Y125.731 E0.01929
G1 X105.073 Y109.023 E0.52386
G1 X105.212 Y108.319 E0.02252
G1 E-3.50000 F3600.00000
G1 F7200.000
G1 X105.616 Y107.581 E-0.39938
G1 X107.152 Y106.064 E-1.02562
G1 E-0.07500 F3600.00000
G1 X102.877 Y107.321 F9000.000
G1 E5.00000 F2400.00000
G1 F1200.000
G1 X103.627 Y106.015 E0.04722
G1 X105.936 Y103.777 E0.10080
G1 X107.026 Y103.209 E0.03854
G1 X108.229 Y102.925 E0.03876
G1 X127.145 Y102.923 E0.59310
G1 X128.362 Y103.249 E0.03952
G1 X129.353 Y103.830 E0.03600
G1 X130.162 Y104.618 E0.03542
G1 X130.552 Y105.169 E0.02119
G1 X131.336 Y105.993 E0.03565
G1 X131.910 Y106.981 E0.03582
G1 X132.417 Y108.696 E0.05608
G1 X132.453 Y126.212 E0.54920
G1 X132.123 Y127.679 E0.04713
G1 X131.373 Y128.985 E0.04723
G1 X129.056 Y131.228 E0.10111
G1 X127.859 Y131.832 E0.04205
G1 X126.557 Y132.098 E0.04166
G1 X107.991 Y132.098 E0.58213
G1 X106.729 Y131.789 E0.04073
G1 X105.667 Y131.179 E0.03840
G1 X104.838 Y130.383 E0.03604
G1 X104.401 Y129.759 E0.02388
G1 X103.326 Y128.520 E0.05145
G1 X102.955 Y127.665 E0.02919
G1 X102.547 Y126.039 E0.05260
G1 X102.547 Y108.787 E0.54092
G1 X102.864 Y107.380 E0.04522
G1 X103.232 Y107.464 F9000.000
G1 F1200.000
G1 X103.940 Y106.227 E0.04468
G1 X106.134 Y104.099 E0.09585
G1 X107.178 Y103.555 E0.03692
G1 X108.292 Y103.297 E0.03585
G1 X127.073 Y103.294 E0.58885
G1 X128.196 Y103.588 E0.03640
G1 X129.107 Y104.117 E0.03301
G1 X129.886 Y104.875 E0.03411
G1 X130.260 Y105.410 E0.02045
G1 X131.022 Y106.202 E0.03447
G1 X131.572 Y107.150 E0.03437
G1 X132.048 Y108.776 E0.05311
G1 X132.076 Y126.191 E0.54604
G1 X131.762 Y127.566 E0.04422
G1 X131.060 Y128.773 E0.04377
G1 X128.859 Y130.905 E0.09610
G1 X127.757 Y131.468 E0.03881
G1 X126.537 Y131.721 E0.03904
G1 X108.014 Y131.721 E0.58078
G1 X106.847 Y131.430 E0.03771
G1 X105.878 Y130.865 E0.03518
G1 X105.114 Y130.125 E0.03334
G1 X104.698 Y129.527 E0.02286
G1 X103.659 Y128.341 E0.04942
G1 X103.317 Y127.557 E0.02684
G1 X102.924 Y126.015 E0.04990
G1 X102.924 Y108.808 E0.53949
G1 X103.218 Y107.523 E0.04136
G1 X103.585 Y107.608 F9000.000
G1 F1200.000
G1 X103.599 Y107.548 E0.00192
G1 X104.251 Y106.441 E0.04030
G1 X106.334 Y104.420 E0.09100
G1 X107.288 Y103.917 E0.03380
G1 X108.356 Y103.669 E0.03440
G1 X127.049 Y103.671 E0.58608
G1 X128.029 Y103.927 E0.03176
G1 X128.897 Y104.431 E0.03146
G1 X129.609 Y105.131 E0.03131
G1 X129.968 Y105.650 E0.01979
G1 X130.708 Y106.412 E0.03330
G1 X131.234 Y107.319 E0.03290
G1 X131.678 Y108.855 E0.05012
G1 X131.699 Y126.169 E0.54288
G1 X131.401 Y127.452 E0.04127
G1 X130.748 Y128.559 E0.04030
G1 X128.661 Y130.583 E0.09119
G1 X127.653 Y131.105 E0.03557
G1 X126.518 Y131.344 E0.03639
G1 X108.038 Y131.344 E0.57941
G1 X106.967 Y131.072 E0.03464
G1 X106.090 Y130.553 E0.03196
G1 X105.392 Y129.869 E0.03065
G1 X104.996 Y129.294 E0.02190
G1 X103.992 Y128.162 E0.04742
G1 X103.678 Y127.447 E0.02448
G1 X103.301 Y125.990 E0.04718
G1 X103.301 Y108.830 E0.53804
G1 X103.571 Y107.666 E0.03747
G1 X103.959 Y107.664 F9000.000
G1 F1200.000
G1 X104.562 Y106.656 E0.03683
G1 X106.534 Y104.741 E0.08620
G1 X107.441 Y104.262 E0.03215
G1 X108.418 Y104.042 E0.03141
G1 X126.979 Y104.042 E0.58196
G1 X127.865 Y104.268 E0.02866
G1 X128.650 Y104.717 E0.02836
G1 X129.331 Y105.386 E0.02994
G1 X129.675 Y105.890 E0.01913
G1 X130.394 Y106.622 E0.03215
G1 X130.896 Y107.488 E0.03140
G1 X131.308 Y108.933 E0.04711
G1 X131.322 Y126.147 E0.53975
G1 X131.041 Y127.336 E0.03829
G1 X130.438 Y128.344 E0.03683
G1 X128.463 Y130.261 E0.08632
G1 X127.503 Y130.758 E0.03388
G1 X126.498 Y130.967 E0.03217
G1 X108.063 Y130.967 E0.57804
G1 X107.090 Y130.714 E0.03152
G1 X106.305 Y130.242 E0.02872
G1 X105.670 Y129.615 E0.02798
G1 X105.293 Y129.060 E0.02102
G1 X104.324 Y127.981 E0.04547
G1 X104.038 Y127.336 E0.02213
G1 X103.678 Y125.966 E0.04443
G1 X103.678 Y108.853 E0.53657
G1 X103.945 Y107.723 E0.03640
G1 X104.311 Y107.811 F9000.000
G1 F1200.000
G1 X104.871 Y106.873 E0.03425
G1 X106.736 Y105.060 E0.08155
G1 X107.549 Y104.624 E0.02894
G1 X108.481 Y104.414 E0.02993
G1 X126.956 Y104.419 E0.57926
G1 X127.700 Y104.608 E0.02407
G1 X128.440 Y105.032 E0.02676
G1 X129.051 Y105.640 E0.02702
G1 X129.383 Y106.131 E0.01858
G1 X130.080 Y106.833 E0.03102
G1 X130.558 Y107.657 E0.02987
G1 X130.938 Y109.010 E0.04407
G1 X130.945 Y126.125 E0.53663
G1 X130.682 Y127.218 E0.03525
G1 X130.129 Y128.127 E0.03337
G1 X128.263 Y129.941 E0.08159
G1 X127.398 Y130.395 E0.03061
G1 X126.478 Y130.590 E0.02949
G1 X108.088 Y130.590 E0.57662
G1 X107.214 Y130.357 E0.02834
G1 X106.522 Y129.933 E0.02547
G1 X105.948 Y129.359 E0.02545
G1 X105.672 Y128.966 E0.01507
G1 X105.614 Y128.852 E0.00399
G1 X104.656 Y127.799 E0.04464
G1 X104.398 Y127.223 E0.01978
G1 X104.055 Y125.941 E0.04164
G1 X104.055 Y108.875 E0.53507
G1 X104.297 Y107.869 E0.03245
G1 E-3.50000 F3600.00000
G1 F7200.000
G1 X104.871 Y106.873 E-0.54615
G1 X106.198 Y105.583 E-0.87885
G1 E-0.07500 F3600.00000
G1 X126.889 Y104.791 F9000.000
G1 E5.00000 F2400.00000
G1 F1200.000
G1 X127.536 Y104.949 E0.02089
G1 X128.230 Y105.346 E0.02507
G1 X128.772 Y105.894 E0.02415
G1 X129.052 Y106.321 E0.01603
G1 X129.091 Y106.373 F9000.000
G1 F1200.000
G1 X129.767 Y107.044 E0.02986
G1 X130.220 Y107.825 E0.02830
G1 X130.568 Y109.085 E0.04101
G1 X130.568 Y126.103 E0.53359
G1 X130.343 Y127.049 E0.03050
G1 X129.847 Y127.875 E0.03019
G1 X128.060 Y129.621 E0.07835
G1 X127.292 Y130.032 E0.02733
G1 X126.458 Y130.213 E0.02676
G1 X108.114 Y130.213 E0.57516
G1 X107.342 Y130.001 E0.02509
G1 X106.741 Y129.626 E0.02222
G1 X106.228 Y129.106 E0.02289
G1 X105.976 Y128.734 E0.01411
G1 X105.788 Y128.485 F9000.000
G1 F1200.000
G1 X104.987 Y127.615 E0.03709
G1 X104.758 Y127.109 E0.01743
G1 X104.432 Y125.915 E0.03880
G1 X104.432 Y108.897 E0.53359
G1 X104.657 Y107.951 E0.03050
G1 X105.153 Y107.125 E0.03019
G1 X106.940 Y105.378 E0.07837
G1 X107.660 Y104.985 E0.02572
G1 X108.503 Y104.791 E0.02710
G1 X126.889 Y104.791 E0.57649
G1 E-3.50000 F3600.00000
G1 F7200.000
G1 X123.889 Y104.791 E-1.42500
G1 E-0.07500 F3600.00000
G1 X128.546 Y106.895 F9000.000
G1 E5.00000 F2400.00000
G1 F1200.000
G1 X128.430 Y106.779 E0.00515
G1 X128.393 Y106.694 E0.00292
G1 X128.108 Y106.991 F9000.000
G1 F1200.000
G1 X128.915 Y107.793 E0.03566
G1 X129.158 Y108.221 E0.01545
G1 X129.217 Y108.494 E0.00876
G1 X129.269 Y108.596 E0.00356
G1 X129.437 Y109.166 E0.01864
G1 X129.437 Y126.038 E0.52900
G1 X129.304 Y126.601 E0.01816
G1 X128.998 Y127.124 E0.01898
G1 X128.558 Y127.564 E0.01951
G1 X128.456 Y127.637 E0.00395
G1 X128.389 Y127.733 E0.00367
G1 X127.440 Y128.673 E0.04188
G1 X126.957 Y128.949 E0.01743
G1 X126.393 Y129.082 E0.01819
G1 X108.198 Y129.082 E0.57047
G1 X107.743 Y128.941 E0.01495
G1 X107.502 Y128.786 E0.00896
G1 X107.072 Y128.351 E0.01918
G1 X106.964 Y128.185 E0.00622
G1 X106.891 Y128.007 E0.00603
G1 X105.974 Y127.055 E0.04145
G1 X105.835 Y126.759 E0.01025
G1 X105.780 Y126.501 E0.00827
G1 X105.731 Y126.405 E0.00340
G1 X105.563 Y125.834 E0.01864
G1 X105.563 Y108.962 E0.52900
G1 X105.696 Y108.399 E0.01816
G1 X106.002 Y107.876 E0.01898
G1 X106.441 Y107.436 E0.01950
G1 X106.544 Y107.363 E0.00395
G1 X106.611 Y107.267 E0.00367
G1 X107.560 Y106.327 E0.04188
G1 X108.043 Y106.051 E0.01743
G1 X108.607 Y105.918 E0.01819
G1 X126.823 Y105.922 E0.57114
G1 X127.064 Y105.979 E0.00777
G1 X127.486 Y106.202 E0.01497
G1 X127.928 Y106.649 E0.01969
G1 X128.036 Y106.815 E0.00622
G1 X128.086 Y106.936 E0.00409
G1 X127.784 Y107.200 F9000.000
G1 F1200.000
G1 X128.632 Y108.043 E0.03747
G1 X128.796 Y108.330 E0.01037
G1 X128.861 Y108.632 E0.00971
G1 X128.916 Y108.730 E0.00352
G1 X129.060 Y109.195 E0.01527
G1 X129.060 Y126.017 E0.52742
G1 X128.963 Y126.440 E0.01361
G1 X128.713 Y126.876 E0.01575
G1 X128.307 Y127.282 E0.01800
G1 X128.178 Y127.368 E0.00486
G1 X128.104 Y127.485 E0.00434
G1 X127.231 Y128.358 E0.03874
G1 X126.795 Y128.608 E0.01575
G1 X126.372 Y128.705 E0.01361
G1 X108.230 Y128.705 E0.56882
G1 X107.886 Y128.592 E0.01136
G1 X107.757 Y128.508 E0.00482
G1 X107.356 Y128.102 E0.01786
G1 X107.295 Y128.004 E0.00365
G1 X107.216 Y127.800 E0.00686
G1 X106.298 Y126.861 E0.04116
G1 X106.199 Y126.657 E0.00713
G1 X106.136 Y126.364 E0.00938
G1 X106.084 Y126.270 E0.00337
G1 X105.940 Y125.805 E0.01527
G1 X105.940 Y108.983 E0.52742
G1 X106.037 Y108.560 E0.01361
G1 X106.287 Y108.124 E0.01575
G1 X106.693 Y107.718 E0.01800
G1 X106.822 Y107.632 E0.00486
G1 X106.896 Y107.515 E0.00434
G1 X107.769 Y106.642 E0.03874
G1 X108.205 Y106.392 E0.01575
G1 X108.628 Y106.295 E0.01361
G1 X126.801 Y106.299 E0.56980
G1 X126.916 Y106.326 E0.00369
G1 X127.241 Y106.490 E0.01142
G1 X127.644 Y106.898 E0.01797
G1 X127.705 Y106.996 E0.00365
G1 X127.762 Y107.144 E0.00498
G1 X128.434 Y108.439 F9000.000
G1 F1200.000
G1 X128.508 Y108.782 E0.01099
G1 X128.567 Y108.876 E0.00349
G1 X128.683 Y109.227 E0.01158
G1 X128.683 Y125.997 E0.52580
G1 X128.619 Y126.282 E0.00918
G1 X128.427 Y126.629 E0.01241
G1 X128.059 Y126.997 E0.01632
G1 X127.892 Y127.098 E0.00613
G1 X127.814 Y127.241 E0.00511
G1 X126.984 Y128.072 E0.03684
G1 X126.637 Y128.264 E0.01241
G1 X126.352 Y128.328 E0.00918
G1 X108.265 Y128.328 E0.56709
G1 X108.011 Y128.228 E0.00856
G1 X107.657 Y127.875 E0.01566
G1 X107.539 Y127.589 E0.00969
G1 X106.623 Y126.668 E0.04074
G1 X106.550 Y126.516 E0.00528
G1 X106.493 Y126.220 E0.00944
G1 X106.433 Y126.124 E0.00357
G1 X106.317 Y125.773 E0.01158
G1 X106.317 Y109.003 E0.52580
G1 X106.381 Y108.718 E0.00918
G1 X106.573 Y108.371 E0.01241
G1 X106.941 Y108.003 E0.01632
G1 X107.108 Y107.902 E0.00613
G1 X107.186 Y107.759 E0.00511
G1 X108.016 Y106.928 E0.03684
G1 X108.363 Y106.736 E0.01241
G1 X108.648 Y106.672 E0.00918
G1 X126.749 Y106.672 E0.56754
G1 X126.999 Y106.782 E0.00856
G1 X127.343 Y107.125 E0.01522
G1 X127.461 Y107.411 E0.00971
G1 X128.349 Y108.293 E0.03924
G1 X128.404 Y108.387 E0.00341
G1 X127.065 Y107.612 F9000.000
G1 F1200.000
G1 X127.278 Y107.756 E0.00807
G1 X128.060 Y108.537 E0.03466
G1 X128.086 Y108.586 E0.00173
G1 X128.154 Y108.945 E0.01145
G1 X128.226 Y109.040 E0.00374
G1 X128.306 Y109.262 E0.00740
G1 X128.306 Y110.129 E0.02716
G1 X128.284 Y110.228 E0.00318
G1 X128.306 Y110.327 E0.00318
G1 X128.306 Y111.206 E0.02756
G1 X128.284 Y111.305 E0.00318
G1 X128.306 Y111.404 E0.00318
G1 X128.306 Y112.283 E0.02756
G1 X128.284 Y112.382 E0.00318
G1 X128.306 Y112.482 E0.00318
G1 X128.306 Y113.361 E0.02756
G1 X128.284 Y113.460 E0.00318
G1 X128.306 Y113.559 E0.00318
G1 X128.306 Y114.438 E0.02756
G1 X128.284 Y114.537 E0.00318
G1 X128.306 Y114.636 E0.00318
G1 X128.306 Y115.515 E0.02756
G1 X128.284 Y115.615 E0.00318
G1 X128.306 Y115.714 E0.00318
G1 X128.306 Y116.593 E0.02756
G1 X128.284 Y116.692 E0.00318
G1 X128.306 Y116.791 E0.00318
G1 X128.306 Y117.670 E0.02756
G1 X128.284 Y117.769 E0.00318
G1 X128.306 Y117.869 E0.00318
G1 X128.306 Y118.748 E0.02756
G1 X128.284 Y118.847 E0.00318
G1 X128.306 Y118.946 E0.00318
G1 X128.306 Y119.825 E0.02756
G1 X128.284 Y119.924 E0.00318
G1 X128.306 Y120.023 E0.00318
G1 X128.306 Y120.902 E0.02756
G1 X128.284 Y121.001 E0.00318
G1 X128.306 Y121.101 E0.00318
G1 X128.306 Y121.980 E0.02756
G1 X128.284 Y122.079 E0.00318
G1 X128.306 Y122.178 E0.00318
G1 X128.306 Y123.057 E0.02756
G1 X128.284 Y123.156 E0.00318
G1 X128.306 Y123.255 E0.00318
G1 X128.306 Y124.134 E0.02756
G1 X128.284 Y124.234 E0.00318
G1 X128.306 Y124.333 E0.00318
G1 X128.306 Y125.212 E0.02756
G1 X128.284 Y125.311 E0.00318
G1 X128.306 Y125.410 E0.00318
G1 X128.306 Y125.978 E0.01780
G1 X128.273 Y126.131 E0.00493
G1 X128.139 Y126.383 E0.00893
G1 X127.814 Y126.708 E0.01441
G1 X127.589 Y126.833 E0.00808
G1 X127.515 Y127.008 E0.00595
G1 X126.738 Y127.784 E0.03445
G1 X126.486 Y127.918 E0.00893
G1 X126.333 Y127.951 E0.00493
G1 X108.307 Y127.951 E0.56519
G1 X108.238 Y127.922 E0.00235
G1 X107.964 Y127.648 E0.01215
G1 X107.935 Y127.579 E0.00235
G1 X107.935 Y127.388 E0.00597
G1 X107.722 Y127.244 E0.00807
G1 X106.940 Y126.463 E0.03466
G1 X106.914 Y126.414 E0.00173
G1 X106.846 Y126.055 E0.01145
G1 X106.774 Y125.960 E0.00374
G1 X106.694 Y125.738 E0.00740
G1 X106.694 Y124.871 E0.02716
G1 X106.716 Y124.772 E0.00318
G1 X106.694 Y124.673 E0.00318
G1 X106.694 Y123.794 E0.02756
G1 X106.716 Y123.695 E0.00318
G1 X106.694 Y123.596 E0.00318
G1 X106.694 Y122.717 E0.02756
G1 X106.716 Y122.618 E0.00318
G1 X106.694 Y122.518 E0.00318
G1 X106.694 Y121.639 E0.02756
G1 X106.716 Y121.540 E0.00318
G1 X106.694 Y121.441 E0.00318
G1 X106.694 Y120.562 E0.02756
G1 X106.716 Y120.463 E0.00318
G1 X106.694 Y120.364 E0.00318
G1 X106.694 Y119.485 E0.02756
G1 X106.716 Y119.385 E0.00318
G1 X106.694 Y119.286 E0.00318
G1 X106.694 Y118.407 E0.02756
G1 X106.716 Y118.308 E0.00318
G1 X106.694 Y118.209 E0.00318
G1 X106.694 Y117.330 E0.02756
G1 X106.716 Y117.231 E0.00318
G1 X106.694 Y117.131 E0.00318
G1 X106.694 Y116.252 E0.02756
G1 X106.716 Y116.153 E0.00318
G1 X106.694 Y116.054 E0.00318
G1 X106.694 Y115.175 E0.02756
G1 X106.716 Y115.076 E0.00318
G1 X106.694 Y114.977 E0.00318
G1 X106.694 Y114.098 E0.02756
G1 X106.716 Y113.999 E0.00318
G1 X106.694 Y113.899 E0.00318
G1 X106.694 Y113.020 E0.02756
G1 X106.716 Y112.921 E0.00318
G1 X106.694 Y112.822 E0.00318
G1 X106.694 Y111.943 E0.02756
G1 X106.716 Y111.844 E0.00318
G1 X106.694 Y111.745 E0.00318
G1 X106.694 Y110.866 E0.02756
G1 X106.716 Y110.766 E0.00318
G1 X106.694 Y110.667 E0.00318
G1 X106.694 Y109.788 E0.02756
