;FLAVOR:Marlin
;TIME:16529
;Filament used: 15.3711m
;Layer height: 0.2
;MINX:27.9
;MINY:27.899
;MINZ:0.2
;MAXX:207.1
;MAXY:207.101
;MAXZ:16
;Generated with Cura_SteamEngine 4.7.1
M140 S50
M105
M190 S50
M104 S200
M105
M109 S200
M82 ;absolute extrusion mode
; Ender 3 Custom Start G-code
G92 E0 ; Reset Extruder
G28 ; Home all axes
G1 Z2.0 F3000 ; Move Z Axis up little to prevent scratching of Heat Bed
G1 X0.1 Y20 Z0.3 F5000.0 ; Move to start position
G1 X0.1 Y200.0 Z0.3 F1500.0 E15 ; Draw the first line
G1 X0.4 Y200.0 Z0.3 F5000.0 ; Move to side a little
G1 X0.4 Y20 Z0.3 F1500.0 E30 ; Draw the second line
G92 E0 ; Reset Extruder
G1 Z2.0 F3000 ; Move Z Axis up little to prevent scratching of Heat Bed
G1 X5 Y20 Z0.3 F5000.0 ; Move over to prevent blob squish
G92 E0
G92 E0
G1 F2700 E-5
;LAYER_COUNT:80
;LAYER:0
M107
G0 F6000 X89.941 Y125.833 Z0.2
;TYPE:SKIRT
G1 F2700 E0
G1 F1200 X137.8 Y77.968 E2.25128
G1 X175.271 Y40.494 E4.01387
G1 X175.456 Y40.303 E4.02272
G1 X175.508 Y40.215 E4.02612
G1 X175.625 Y39.952 E4.03569
G1 X176.019 Y39.267 E4.06197
G1 X176.247 Y38.95 E4.07496
G1 X176.447 Y38.605 E4.08822
G1 X176.91 Y37.965 E4.1145
G1 X177.471 Y37.342 E4.14238
G1 X178.761 Y36.052 E4.20306
G1 X179.347 Y35.522 E4.22934
G1 X179.983 Y35.055 E4.25558
G1 X180.375 Y34.824 E4.27072
G1 X180.624 Y34.641 E4.28099
G1 X181.304 Y34.24 E4.30725
G1 X181.584 Y34.113 E4.31748
G1 X181.732 Y34.025 E4.3232
G1 X185.59 Y30.177 E4.50444
G1 X186.177 Y29.648 E4.53072
G1 X186.814 Y29.181 E4.55699
G1 X187.495 Y28.782 E4.58324
G1 X188.213 Y28.453 E4.60951
G1 X188.96 Y28.198 E4.63576
G1 X189.73 Y28.02 E4.66205
G1 X190.513 Y27.921 E4.6883
G1 X191.099 Y27.899 E4.7078
G1 X191.262 Y27.899 E4.71322
G1 X192.051 Y27.939 E4.7395
G1 X192.831 Y28.058 E4.76574
G1 X193.596 Y28.256 E4.79202
G1 X194.336 Y28.53 E4.81827
G1 X195.045 Y28.878 E4.84454
G1 X195.716 Y29.296 E4.87083
G1 X196.34 Y29.779 E4.89708
G1 X196.753 Y30.16 E4.91577
G1 X196.984 Y30.389 E4.92659
G1 X199.374 Y32.779 E5.039
G1 X199.647 Y33.081 E5.05254
G1 X199.67 Y33.099 E5.05352
G1 X200.035 Y33.442 E5.07017
G1 X201.557 Y34.964 E5.14177
G1 X201.9 Y35.343 E5.15877
G1 X202.223 Y35.628 E5.17309
G1 X203.139 Y36.544 E5.21618
G1 X203.636 Y37.038 E5.23949
G1 X204.17 Y37.577 E5.26472
G1 X204.807 Y38.212 E5.29464
G1 X205.337 Y38.797 E5.32089
G1 X205.806 Y39.433 E5.34718
G1 X206.207 Y40.113 E5.37343
G1 X206.538 Y40.83 E5.3997
G1 X206.795 Y41.576 E5.42594
G1 X206.975 Y42.345 E5.45221
G1 X207.076 Y43.128 E5.47847
G1 X207.1 Y43.736 E5.49871
G1 X207.1 Y43.899 E5.50413
G1 X207.06 Y44.688 E5.5304
G1 X206.941 Y45.468 E5.55665
G1 X206.743 Y46.233 E5.58293
G1 X206.469 Y46.973 E5.60917
G1 X206.121 Y47.682 E5.63544
G1 X205.703 Y48.353 E5.66174
G1 X205.22 Y48.977 E5.68798
G1 X204.826 Y49.404 E5.70731
G1 X200.96 Y53.285 E5.8895
G1 X200.908 Y53.373 E5.8929
G1 X200.791 Y53.634 E5.90242
G1 X200.397 Y54.318 E5.92867
G1 X200.173 Y54.629 E5.94142
G1 X199.968 Y54.981 E5.95497
G1 X199.504 Y55.621 E5.98126
G1 X198.946 Y56.241 E6.009
G1 X197.66 Y57.527 E6.06949
G1 X197.074 Y58.057 E6.09577
G1 X196.438 Y58.524 E6.12202
G1 X196.037 Y58.76 E6.13749
G1 X195.765 Y58.958 E6.14868
G1 X195.082 Y59.354 E6.17494
G1 X194.88 Y59.446 E6.18232
G1 X194.687 Y59.561 E6.18979
G1 X194.673 Y59.567 E6.1903
G1 X192.933 Y61.301 E6.272
G1 X189.959 Y64.272 E6.41182
G1 X145.064 Y109.166 E8.52352
G1 X97.199 Y157.032 E10.77497
G1 X61.278 Y192.953 E12.46458
G1 X59.547 Y194.692 E12.54619
G1 X59.476 Y194.818 E12.551
G1 X59.352 Y195.09 E12.56094
G1 X58.953 Y195.771 E12.5872
G1 X58.763 Y196.032 E12.59793
G1 X58.575 Y196.36 E12.61051
G1 X58.115 Y197.002 E12.63678
G1 X57.514 Y197.675 E12.66679
G1 X56.225 Y198.959 E12.7273
G1 X55.638 Y199.487 E12.75356
G1 X55 Y199.954 E12.77986
G1 X54.651 Y200.159 E12.79332
G1 X54.388 Y200.352 E12.80417
G1 X53.708 Y200.754 E12.83044
G1 X53.427 Y200.882 E12.84071
G1 X53.251 Y200.986 E12.84751
G1 X49.405 Y204.823 E13.0282
G1 X48.819 Y205.351 E13.05444
G1 X48.182 Y205.818 E13.08071
G1 X47.501 Y206.218 E13.10698
G1 X46.783 Y206.547 E13.13325
G1 X46.035 Y206.802 E13.15953
G1 X45.266 Y206.98 E13.18578
G1 X44.483 Y207.079 E13.21203
G1 X43.896 Y207.101 E13.23157
G1 X43.74 Y207.101 E13.23676
G1 X42.951 Y207.061 E13.26304
G1 X42.171 Y206.942 E13.28928
G1 X41.406 Y206.744 E13.31556
G1 X40.666 Y206.47 E13.34181
G1 X39.957 Y206.122 E13.36808
G1 X39.286 Y205.704 E13.39437
G1 X38.662 Y205.221 E13.42061
G1 X38.233 Y204.825 E13.44003
G1 X36.975 Y203.57 E13.49913
G1 X35.626 Y202.221 E13.56259
G1 X35.353 Y201.919 E13.57613
G1 X35.33 Y201.901 E13.5771
G1 X34.965 Y201.558 E13.59376
G1 X33.443 Y200.036 E13.66535
G1 X33.102 Y199.659 E13.68226
G1 X32.775 Y199.371 E13.69675
G1 X30.172 Y196.763 E13.8193
G1 X29.644 Y196.176 E13.84556
G1 X29.178 Y195.539 E13.87181
G1 X28.779 Y194.857 E13.89809
G1 X28.451 Y194.139 E13.92435
G1 X28.197 Y193.391 E13.95062
G1 X28.02 Y192.622 E13.97687
G1 X27.921 Y191.838 E14.00315
G1 X27.9 Y191.26 E14.02239
G1 X27.9 Y191.102 E14.02764
G1 X27.94 Y190.313 E14.05392
G1 X28.059 Y189.533 E14.08016
G1 X28.257 Y188.768 E14.10645
G1 X28.531 Y188.028 E14.13269
G1 X28.879 Y187.319 E14.15896
G1 X29.297 Y186.648 E14.18525
G1 X29.78 Y186.024 E14.2115
G1 X30.175 Y185.596 E14.23087
G1 X34.036 Y181.721 E14.41281
G1 X34.1 Y181.611 E14.41704
G1 X34.234 Y181.318 E14.42776
G1 X34.633 Y180.636 E14.45404
G1 X34.804 Y180.402 E14.46368
G1 X35.014 Y180.04 E14.4776
G1 X35.477 Y179.4 E14.50387
G1 X36.042 Y178.771 E14.53199
G1 X37.341 Y177.472 E14.59309
G1 X37.927 Y176.942 E14.61937
G1 X38.563 Y176.475 E14.64562
G1 X38.973 Y176.233 E14.66145
G1 X39.176 Y176.083 E14.66985
G1 X39.854 Y175.68 E14.69608
G1 X40.14 Y175.548 E14.70656
G1 X40.297 Y175.454 E14.71264
G1 X40.32 Y175.444 E14.71348
G1 X45.042 Y170.726 E14.93549
G1 X89.941 Y125.833 E17.04726
G0 F6000 X90.224 Y126.116
G1 F1200 X138.084 Y78.25 E19.29859
G1 X175.57 Y40.761 E21.06189
G1 X175.774 Y40.55 E21.07165
G1 X175.868 Y40.389 E21.07785
G1 X175.991 Y40.116 E21.08781
G1 X176.377 Y39.451 E21.11338
G1 X176.577 Y39.176 E21.12469
G1 X176.804 Y38.789 E21.13961
G1 X177.26 Y38.17 E21.16519
G1 X177.753 Y37.624 E21.18965
G1 X179.043 Y36.334 E21.25033
G1 X179.615 Y35.82 E21.27591
G1 X180.237 Y35.367 E21.3015
G1 X180.594 Y35.16 E21.31523
G1 X180.878 Y34.953 E21.32692
G1 X181.543 Y34.567 E21.35249
G1 X181.8 Y34.452 E21.36185
G1 X181.972 Y34.351 E21.36849
G1 X185.873 Y30.46 E21.55174
G1 X186.445 Y29.946 E21.57732
G1 X187.067 Y29.494 E21.60289
G1 X187.733 Y29.109 E21.62848
G1 X188.435 Y28.795 E21.65406
G1 X189.166 Y28.556 E21.67964
G1 X189.918 Y28.394 E21.70522
G1 X190.683 Y28.311 E21.73082
G1 X191.099 Y28.299 E21.74466
G1 X191.262 Y28.299 E21.75008
G1 X192.03 Y28.339 E21.77566
G1 X192.79 Y28.458 E21.80124
G1 X193.533 Y28.656 E21.82682
G1 X194.252 Y28.93 E21.85241
G1 X194.938 Y29.277 E21.87798
G1 X195.585 Y29.693 E21.90356
G1 X196.185 Y30.174 E21.92914
G1 X196.472 Y30.444 E21.94225
G1 X196.726 Y30.695 E21.95412
G1 X199.092 Y33.061 E22.06541
G1 X199.466 Y33.477 E22.08402
G1 X199.753 Y33.724 E22.09661
G1 X201.275 Y35.246 E22.1682
G1 X201.54 Y35.541 E22.18139
G1 X201.567 Y35.562 E22.18253
G1 X201.94 Y35.91 E22.1995
G1 X202.857 Y36.828 E22.24265
G1 X203.352 Y37.319 E22.26584
G1 X203.919 Y37.891 E22.29263
G1 X204.524 Y38.495 E22.32106
G1 X205.04 Y39.066 E22.34666
G1 X205.494 Y39.687 E22.37225
G1 X205.881 Y40.352 E22.39784
G1 X206.196 Y41.053 E22.4234
G1 X206.438 Y41.783 E22.44898
G1 X206.602 Y42.535 E22.47458
G1 X206.687 Y43.299 E22.50015
G1 X206.7 Y43.736 E22.51469
G1 X206.7 Y43.899 E22.52011
G1 X206.66 Y44.667 E22.54569
G1 X206.541 Y45.427 E22.57127
G1 X206.343 Y46.17 E22.59685
G1 X206.069 Y46.889 E22.62244
G1 X205.722 Y47.575 E22.64801
G1 X205.306 Y48.222 E22.67359
G1 X204.825 Y48.822 E22.69917
G1 X204.542 Y49.122 E22.71289
G1 X200.644 Y53.035 E22.89659
G1 X200.55 Y53.194 E22.90273
G1 X200.426 Y53.47 E22.9128
G1 X200.039 Y54.135 E22.93839
G1 X199.837 Y54.412 E22.94979
G1 X199.611 Y54.797 E22.96464
G1 X199.155 Y55.416 E22.99021
G1 X198.664 Y55.959 E23.01456
G1 X197.378 Y57.245 E23.07505
G1 X196.806 Y57.759 E23.10062
G1 X196.184 Y58.212 E23.12622
G1 X195.819 Y58.424 E23.14026
G1 X195.513 Y58.644 E23.15279
G1 X194.845 Y59.026 E23.17839
G1 X194.663 Y59.108 E23.18503
G1 X194.447 Y59.235 E23.19336
G1 X194.433 Y59.241 E23.19387
G1 X192.65 Y61.018 E23.27759
G1 X144.782 Y108.884 E25.52911
G1 X96.917 Y156.75 E27.78055
G1 X60.996 Y192.671 E29.47017
G1 X59.228 Y194.446 E29.55349
G1 X59.116 Y194.643 E29.56103
G1 X58.988 Y194.923 E29.57127
G1 X58.597 Y195.585 E29.59684
G1 X58.423 Y195.819 E29.60654
G1 X58.216 Y196.178 E29.62033
G1 X57.765 Y196.8 E29.64588
G1 X57.231 Y197.392 E29.6724
G1 X55.942 Y198.676 E29.73291
G1 X55.37 Y199.19 E29.75849
G1 X54.747 Y199.641 E29.78407
G1 X54.432 Y199.823 E29.79617
G1 X54.134 Y200.041 E29.80845
G1 X53.469 Y200.428 E29.83404
G1 X53.207 Y200.546 E29.8436
G1 X53.011 Y200.659 E29.85112
G1 X49.123 Y204.539 E30.03381
G1 X48.551 Y205.054 E30.05941
G1 X47.928 Y205.506 E30.08501
G1 X47.263 Y205.891 E30.11057
G1 X46.56 Y206.205 E30.13618
G1 X45.829 Y206.444 E30.16176
G1 X45.078 Y206.606 E30.18731
G1 X44.313 Y206.689 E30.2129
G1 X43.896 Y206.701 E30.22678
G1 X43.74 Y206.701 E30.23197
G1 X42.972 Y206.661 E30.25755
G1 X42.212 Y206.542 E30.28313
G1 X41.469 Y206.344 E30.30871
G1 X40.75 Y206.07 E30.3343
G1 X40.064 Y205.723 E30.35987
G1 X39.417 Y205.307 E30.38545
G1 X38.817 Y204.826 E30.41103
G1 X38.516 Y204.542 E30.42479
G1 X37.257 Y203.288 E30.48389
G1 X35.908 Y201.939 E30.54735
G1 X35.534 Y201.523 E30.56595
G1 X35.247 Y201.276 E30.57855
G1 X33.725 Y199.754 E30.65014
G1 X33.46 Y199.459 E30.66333
G1 X33.433 Y199.438 E30.66446
G1 X33.058 Y199.088 E30.68152
G1 X30.456 Y196.481 E30.80403
G1 X29.942 Y195.908 E30.82963
G1 X29.491 Y195.286 E30.85519
G1 X29.106 Y194.619 E30.8808
G1 X28.793 Y193.917 E30.90637
G1 X28.555 Y193.186 E30.93194
G1 X28.394 Y192.433 E30.95755
G1 X28.311 Y191.669 E30.98311
G1 X28.3 Y191.26 E30.99672
G1 X28.3 Y191.102 E31.00197
G1 X28.34 Y190.334 E31.02755
G1 X28.459 Y189.574 E31.05314
G1 X28.657 Y188.831 E31.07871
G1 X28.931 Y188.112 E31.1043
G1 X29.278 Y187.426 E31.12987
G1 X29.694 Y186.779 E31.15546
G1 X30.175 Y186.179 E31.18103
G1 X30.458 Y185.879 E31.19475
G1 X34.351 Y181.972 E31.37819
G1 X34.46 Y181.784 E31.38542
G1 X34.598 Y181.484 E31.3964
G1 X34.989 Y180.822 E31.42198
G1 X35.141 Y180.618 E31.43044
G1 X35.371 Y180.224 E31.44561
G1 X35.827 Y179.604 E31.47121
G1 X36.324 Y179.053 E31.49589
G1 X37.623 Y177.754 E31.55699
G1 X38.195 Y177.24 E31.58257
G1 X38.817 Y176.787 E31.60816
G1 X39.188 Y176.572 E31.62242
G1 X39.43 Y176.394 E31.63241
G1 X40.094 Y176.006 E31.65799
G1 X40.356 Y175.886 E31.66758
G1 X40.538 Y175.779 E31.6746
G1 X40.558 Y175.77 E31.67533
G1 X45.325 Y171.009 E31.89941
G1 X90.224 Y126.116 E34.01118
G0 F6000 X90.507 Y126.399
G1 F1200 X138.367 Y78.533 E36.26251
G1 X175.813 Y41.084 E38.02393
G1 X176.111 Y40.777 E38.03816
G1 X176.141 Y40.712 E38.04054
G1 X176.225 Y40.57 E38.04603
G1 X176.356 Y40.28 E38.05661
G1 X176.734 Y39.635 E38.08148
G1 X176.914 Y39.392 E38.09153
G1 X177.161 Y38.975 E38.10765
G1 X177.609 Y38.376 E38.13253
G1 X178.036 Y37.907 E38.15363
G1 X179.326 Y36.617 E38.21431
G1 X179.883 Y36.117 E38.2392
G1 X180.489 Y35.68 E38.26405
G1 X180.81 Y35.497 E38.27634
G1 X181.13 Y35.266 E38.28947
G1 X181.78 Y34.895 E38.31436
G1 X182.008 Y34.794 E38.32265
G1 X182.21 Y34.679 E38.33039
G1 X186.155 Y30.743 E38.51573
G1 X186.712 Y30.244 E38.54061
G1 X187.32 Y29.807 E38.56551
G1 X187.97 Y29.437 E38.59039
G1 X188.656 Y29.139 E38.61526
G1 X189.37 Y28.916 E38.64014
G1 X190.104 Y28.77 E38.66503
G1 X191.099 Y28.699 E38.69821
G1 X191.262 Y28.699 E38.70363
G1 X192.009 Y28.739 E38.72851
G1 X192.747 Y28.858 E38.75338
G1 X193.469 Y29.056 E38.77828
G1 X194.165 Y29.329 E38.80314
G1 X194.828 Y29.676 E38.82803
G1 X195.451 Y30.091 E38.85293
G1 X196.19 Y30.728 E38.88538
G1 X196.443 Y30.978 E38.89721
G1 X198.809 Y33.344 E39.0085
G1 X199.162 Y33.737 E39.02607
G1 X199.47 Y34.007 E39.03969
G1 X200.992 Y35.529 E39.11128
G1 X201.306 Y35.879 E39.12692
G1 X201.657 Y36.193 E39.14259
G1 X202.575 Y37.112 E39.18579
G1 X203.067 Y37.601 E39.20886
G1 X203.605 Y38.143 E39.23426
G1 X204.242 Y38.778 E39.26418
G1 X204.743 Y39.334 E39.28907
G1 X205.181 Y39.94 E39.31394
G1 X205.553 Y40.589 E39.33882
G1 X205.853 Y41.275 E39.36372
G1 X206.078 Y41.988 E39.38859
G1 X206.226 Y42.721 E39.41346
G1 X206.3 Y43.736 E39.44731
G1 X206.3 Y43.899 E39.45273
G1 X206.26 Y44.646 E39.47761
G1 X206.141 Y45.384 E39.50247
G1 X205.943 Y46.106 E39.52738
G1 X205.67 Y46.802 E39.55224
G1 X205.323 Y47.465 E39.57713
G1 X204.908 Y48.088 E39.60203
G1 X204.259 Y48.84 E39.63507
G1 X200.31 Y52.803 E39.82114
G1 X200.285 Y52.859 E39.82318
G1 X200.19 Y53.021 E39.82943
G1 X200.061 Y53.305 E39.83981
G1 X199.682 Y53.95 E39.86469
G1 X199.5 Y54.195 E39.87484
G1 X199.254 Y54.611 E39.89091
G1 X198.806 Y55.21 E39.91579
G1 X198.381 Y55.676 E39.93677
G1 X197.095 Y56.962 E39.99726
G1 X196.538 Y57.462 E40.02215
G1 X195.932 Y57.899 E40.047
G1 X195.604 Y58.086 E40.05956
G1 X195.262 Y58.33 E40.07353
G1 X194.61 Y58.697 E40.09842
G1 X194.458 Y58.764 E40.10394
G1 X194.208 Y58.909 E40.11356
G1 X194.195 Y58.915 E40.11403
G1 X192.368 Y60.735 E40.1998
G1 X192.367 Y60.734 E40.19985
G1 X144.499 Y108.601 E42.45139
G1 X96.634 Y156.467 E44.70284
G1 X60.713 Y192.388 E46.39245
G1 X58.909 Y194.199 E46.47747
G1 X58.763 Y194.454 E46.48724
G1 X58.624 Y194.756 E46.4983
G1 X58.241 Y195.398 E46.52317
G1 X58.084 Y195.606 E46.53183
G1 X57.858 Y195.994 E46.54677
G1 X57.415 Y196.596 E46.57163
G1 X56.949 Y197.108 E46.59465
G1 X55.66 Y198.392 E46.65517
G1 X55.103 Y198.891 E46.68004
G1 X54.495 Y199.328 E46.70494
G1 X54.207 Y199.492 E46.71597
G1 X53.881 Y199.728 E46.72935
G1 X53.231 Y200.1 E46.75426
G1 X53.001 Y200.202 E46.76263
G1 X52.772 Y200.333 E46.77141
G1 X48.84 Y204.256 E46.95614
G1 X48.283 Y204.756 E46.98104
G1 X47.676 Y205.193 E47.00591
G1 X47.026 Y205.562 E47.03077
G1 X46.34 Y205.861 E47.05566
G1 X45.626 Y206.084 E47.08054
G1 X44.892 Y206.23 E47.10543
G1 X43.896 Y206.301 E47.13865
G1 X43.74 Y206.301 E47.14383
G1 X42.993 Y206.261 E47.16872
G1 X42.255 Y206.142 E47.19358
G1 X41.533 Y205.944 E47.21848
G1 X40.837 Y205.671 E47.24334
G1 X40.174 Y205.324 E47.26823
G1 X39.551 Y204.909 E47.29313
G1 X38.798 Y204.259 E47.32622
G1 X37.548 Y203.013 E47.38492
G1 X36.191 Y201.656 E47.44875
G1 X35.838 Y201.263 E47.46632
G1 X35.53 Y200.993 E47.47994
G1 X34.008 Y199.471 E47.55153
G1 X33.695 Y199.122 E47.56712
G1 X33.341 Y198.806 E47.58291
G1 X30.739 Y196.199 E47.70541
G1 X30.241 Y195.641 E47.73029
G1 X29.804 Y195.034 E47.75517
G1 X29.435 Y194.383 E47.78005
G1 X29.138 Y193.696 E47.80495
G1 X28.915 Y192.982 E47.82983
G1 X28.77 Y192.248 E47.85471
G1 X28.7 Y191.26 E47.88766
G1 X28.7 Y191.102 E47.89291
G1 X28.74 Y190.355 E47.91779
G1 X28.859 Y189.617 E47.94265
G1 X29.057 Y188.895 E47.96756
G1 X29.33 Y188.199 E47.99242
G1 X29.677 Y187.536 E48.01731
G1 X30.092 Y186.913 E48.04221
G1 X30.742 Y186.161 E48.07527
G1 X34.681 Y182.209 E48.26085
G1 X34.703 Y182.159 E48.26267
G1 X34.82 Y181.959 E48.27038
G1 X34.962 Y181.652 E48.28163
G1 X35.345 Y181.01 E48.30649
G1 X35.478 Y180.833 E48.31385
G1 X35.728 Y180.409 E48.33023
G1 X36.175 Y179.81 E48.35508
G1 X36.607 Y179.336 E48.37641
G1 X37.906 Y178.037 E48.43752
G1 X38.463 Y177.537 E48.46241
G1 X39.069 Y177.1 E48.48726
G1 X39.409 Y176.906 E48.50028
G1 X39.684 Y176.706 E48.51159
G1 X40.333 Y176.333 E48.53649
G1 X40.566 Y176.228 E48.54499
G1 X40.777 Y176.106 E48.55309
G1 X40.797 Y176.097 E48.55382
G1 X45.608 Y171.292 E48.77998
G1 X90.507 Y126.399 E50.89175
G0 F6000 X90.789 Y126.682
G1 F1200 X138.649 Y78.816 E53.14308
G1 X176.132 Y41.33 E54.90623
G1 X176.445 Y41.009 E54.92114
G1 X176.505 Y40.878 E54.92594
G1 X176.586 Y40.742 E54.9312
G1 X176.721 Y40.445 E54.94205
G1 X177.091 Y39.82 E54.96621
G1 X177.247 Y39.613 E54.97483
G1 X177.517 Y39.162 E54.99231
G1 X177.957 Y38.583 E55.0165
G1 X178.319 Y38.19 E55.03427
G1 X179.609 Y36.9 E55.09495
G1 X180.15 Y36.416 E55.11909
G1 X180.741 Y35.993 E55.14327
G1 X181.026 Y35.834 E55.15412
G1 X181.382 Y35.579 E55.16868
G1 X182.016 Y35.225 E55.19284
G1 X182.21 Y35.14 E55.19988
G1 X182.446 Y35.008 E55.20887
G1 X186.438 Y31.026 E55.39641
