;FLAVOR:Marlin
;TIME:16716
;Filament used: 15.7008m
;Layer height: 0.2
;MINX:27.9
;MINY:27.899
;MINZ:0.2
;MAXX:207.1
;MAXY:207.101
;MAXZ:16
;Generated with Cura_SteamEngine 4.7.1
M140 S50
M105
M190 S50
M104 S200
M105
M109 S200
M82 ;absolute extrusion mode
; Ender 3 Custom Start G-code
G92 E0 ; Reset Extruder
G28 ; Home all axes
G1 Z2.0 F3000 ; Move Z Axis up little to prevent scratching of Heat Bed
G1 X0.1 Y20 Z0.3 F5000.0 ; Move to start position
G1 X0.1 Y200.0 Z0.3 F1500.0 E15 ; Draw the first line
G1 X0.4 Y200.0 Z0.3 F5000.0 ; Move to side a little
G1 X0.4 Y20 Z0.3 F1500.0 E30 ; Draw the second line
G92 E0 ; Reset Extruder
G1 Z2.0 F3000 ; Move Z Axis up little to prevent scratching of Heat Bed
G1 X5 Y20 Z0.3 F5000.0 ; Move over to prevent blob squish
G92 E0
G92 E0
G1 F2700 E-5
;LAYER_COUNT:80
;LAYER:0
M107
G0 F6000 X89.936 Y125.835 Z0.2
;TYPE:SKIRT
G1 F2700 E0
G1 F1200 X137.801 Y77.969 E2.25145
G1 X173.722 Y42.048 E3.94106
G1 X175.44 Y40.321 E4.02208
G1 X175.549 Y40.131 E4.02937
G1 X175.65 Y39.91 E4.03745
G1 X176.047 Y39.227 E4.06372
G1 X176.512 Y38.588 E4.09001
G1 X177.065 Y37.974 E4.11749
G1 X179.395 Y35.644 E4.22709
G1 X179.981 Y35.114 E4.25337
G1 X180.617 Y34.647 E4.27961
G1 X181.297 Y34.246 E4.30587
G1 X181.54 Y34.135 E4.31475
G1 X181.739 Y34.017 E4.32245
G1 X185.589 Y30.177 E4.50331
G1 X186.176 Y29.648 E4.52959
G1 X186.813 Y29.181 E4.55586
G1 X187.494 Y28.782 E4.58211
G1 X188.212 Y28.453 E4.60838
G1 X188.959 Y28.198 E4.63463
G1 X189.729 Y28.02 E4.66092
G1 X190.512 Y27.921 E4.68717
G1 X191.098 Y27.899 E4.70667
G1 X191.262 Y27.899 E4.71213
G1 X192.051 Y27.939 E4.7384
G1 X192.831 Y28.058 E4.76465
G1 X193.596 Y28.256 E4.79093
G1 X194.336 Y28.53 E4.81717
G1 X195.045 Y28.878 E4.84344
G1 X195.716 Y29.296 E4.86974
G1 X196.34 Y29.779 E4.89598
G1 X196.753 Y30.16 E4.91467
G1 X196.984 Y30.389 E4.92549
G1 X199.374 Y32.779 E5.03791
G1 X199.647 Y33.081 E5.05145
G1 X199.67 Y33.099 E5.05242
G1 X200.035 Y33.442 E5.06908
G1 X201.557 Y34.964 E5.14067
G1 X201.9 Y35.343 E5.15767
G1 X202.221 Y35.626 E5.1719
G1 X204.816 Y38.222 E5.29399
G1 X205.346 Y38.808 E5.32027
G1 X205.813 Y39.444 E5.34651
G1 X206.214 Y40.125 E5.3728
G1 X206.543 Y40.842 E5.39903
G1 X206.799 Y41.59 E5.42533
G1 X206.977 Y42.359 E5.45158
G1 X207.077 Y43.142 E5.47784
G1 X207.1 Y43.736 E5.49761
G1 X207.1 Y43.896 E5.50293
G1 X207.06 Y44.685 E5.5292
G1 X206.941 Y45.465 E5.55545
G1 X206.743 Y46.23 E5.58173
G1 X206.469 Y46.97 E5.60798
G1 X206.121 Y47.679 E5.63424
G1 X205.703 Y48.35 E5.66054
G1 X205.22 Y48.974 E5.68678
G1 X204.825 Y49.402 E5.70616
G1 X200.983 Y53.258 E5.8872
G1 X200.896 Y53.405 E5.89288
G1 X200.805 Y53.609 E5.90031
G1 X200.412 Y54.294 E5.92658
G1 X199.953 Y54.936 E5.95283
G1 X199.366 Y55.594 E5.98216
G1 X197.024 Y57.938 E6.09236
G1 X196.438 Y58.468 E6.11864
G1 X195.802 Y58.935 E6.14489
G1 X195.122 Y59.336 E6.17114
G1 X194.892 Y59.44 E6.17954
G1 X194.674 Y59.57 E6.18798
G1 X194.663 Y59.575 E6.18838
G1 X192.941 Y61.292 E6.26926
G1 X189.959 Y64.271 E6.40946
G1 X145.064 Y109.165 E8.52116
G1 X97.199 Y157.031 E10.7726
G1 X61.278 Y192.952 E12.46222
G1 X59.569 Y194.669 E12.54279
G1 X59.429 Y194.918 E12.55229
G1 X59.344 Y195.105 E12.55912
G1 X58.945 Y195.787 E12.5854
G1 X58.479 Y196.424 E12.61165
G1 X57.936 Y197.027 E12.63864
G1 X55.599 Y199.363 E12.74854
G1 X55.013 Y199.892 E12.7748
G1 X54.377 Y200.359 E12.80105
G1 X53.696 Y200.76 E12.82733
G1 X53.441 Y200.876 E12.83665
G1 X53.262 Y200.982 E12.84357
G1 X49.411 Y204.823 E13.02447
G1 X48.824 Y205.352 E13.05075
G1 X48.187 Y205.819 E13.07702
G1 X47.506 Y206.218 E13.10328
G1 X46.788 Y206.547 E13.12954
G1 X46.041 Y206.802 E13.1558
G1 X45.271 Y206.98 E13.18208
G1 X44.488 Y207.079 E13.20833
G1 X43.902 Y207.101 E13.22784
G1 X43.737 Y207.101 E13.23333
G1 X42.948 Y207.061 E13.2596
G1 X42.168 Y206.942 E13.28584
G1 X41.403 Y206.744 E13.31213
G1 X40.663 Y206.47 E13.33837
G1 X39.954 Y206.122 E13.36464
G1 X39.283 Y205.704 E13.39093
G1 X38.659 Y205.221 E13.41718
G1 X38.223 Y204.817 E13.43695
G1 X35.627 Y202.222 E13.55903
G1 X35.352 Y201.918 E13.57267
G1 X35.33 Y201.901 E13.57359
G1 X34.965 Y201.558 E13.59025
G1 X33.443 Y200.036 E13.66184
G1 X33.104 Y199.661 E13.67866
G1 X32.781 Y199.377 E13.69296
G1 X30.859 Y197.456 E13.78334
G1 X30.747 Y197.341 E13.78868
G1 X30.185 Y196.779 E13.81512
G1 X29.655 Y196.193 E13.8414
G1 X29.188 Y195.557 E13.86764
G1 X28.787 Y194.877 E13.8939
G1 X28.457 Y194.159 E13.92018
G1 X28.202 Y193.412 E13.94643
G1 X28.023 Y192.643 E13.97269
G1 X27.923 Y191.859 E13.99898
G1 X27.9 Y191.264 E14.01878
G1 X27.9 Y191.1 E14.02424
G1 X27.94 Y190.311 E14.05052
G1 X28.059 Y189.531 E14.07676
G1 X28.257 Y188.766 E14.10304
G1 X28.531 Y188.026 E14.12929
G1 X28.879 Y187.317 E14.15555
G1 X29.297 Y186.646 E14.18185
G1 X29.78 Y186.022 E14.20809
G1 X30.174 Y185.595 E14.22742
G1 X34.032 Y181.723 E14.40922
G1 X34.119 Y181.569 E14.4151
G1 X34.221 Y181.343 E14.42335
G1 X34.617 Y180.66 E14.4496
G1 X35.08 Y180.02 E14.47588
G1 X35.646 Y179.389 E14.50407
G1 X37.976 Y177.061 E14.61362
G1 X38.562 Y176.532 E14.63988
G1 X39.199 Y176.065 E14.66615
G1 X39.879 Y175.664 E14.6924
G1 X40.111 Y175.558 E14.70089
G1 X40.288 Y175.452 E14.70775
G1 X40.328 Y175.434 E14.70921
G1 X42.059 Y173.708 E14.79051
G1 X45.041 Y170.729 E14.93071
G1 X89.936 Y125.835 E17.04241
G0 F6000 X90.218 Y126.117
G1 F1200 X138.083 Y78.251 E19.29385
G1 X174.004 Y42.33 E20.98347
G1 X175.757 Y40.568 E21.06613
G1 X175.905 Y40.316 E21.07585
G1 X176.014 Y40.075 E21.08465
G1 X176.404 Y39.412 E21.11023
G1 X176.861 Y38.793 E21.13583
G1 X177.347 Y38.256 E21.15991
G1 X179.677 Y35.926 E21.26951
G1 X180.249 Y35.412 E21.29509
G1 X180.871 Y34.959 E21.32068
G1 X181.536 Y34.573 E21.34625
G1 X181.753 Y34.475 E21.35417
G1 X181.979 Y34.343 E21.36288
G1 X185.872 Y30.46 E21.54576
G1 X186.444 Y29.946 E21.57134
G1 X187.066 Y29.494 E21.59691
G1 X187.732 Y29.109 E21.6225
G1 X188.434 Y28.795 E21.64807
G1 X189.165 Y28.556 E21.67365
G1 X189.917 Y28.394 E21.69924
G1 X190.682 Y28.311 E21.72483
G1 X191.098 Y28.299 E21.73867
G1 X191.262 Y28.299 E21.74413
G1 X192.03 Y28.339 E21.76971
G1 X192.79 Y28.458 E21.79529
G1 X193.533 Y28.656 E21.82087
G1 X194.252 Y28.93 E21.84646
G1 X194.938 Y29.277 E21.87203
G1 X195.585 Y29.693 E21.89761
G1 X196.185 Y30.174 E21.92319
G1 X196.472 Y30.444 E21.9363
G1 X196.726 Y30.695 E21.94817
G1 X199.092 Y33.061 E22.05946
G1 X199.466 Y33.477 E22.07807
G1 X199.753 Y33.724 E22.09066
G1 X201.275 Y35.246 E22.16225
G1 X201.54 Y35.541 E22.17544
G1 X201.567 Y35.562 E22.17658
G1 X201.939 Y35.908 E22.19348
G1 X204.534 Y38.504 E22.31556
G1 X205.048 Y39.076 E22.34114
G1 X205.501 Y39.698 E22.36673
G1 X205.887 Y40.363 E22.3923
G1 X206.201 Y41.065 E22.41788
G1 X206.441 Y41.796 E22.44347
G1 X206.604 Y42.548 E22.46907
G1 X206.688 Y43.312 E22.49463
G1 X206.7 Y43.736 E22.50874
G1 X206.7 Y43.896 E22.51406
G1 X206.66 Y44.664 E22.53964
G1 X206.541 Y45.424 E22.56522
G1 X206.343 Y46.167 E22.5908
G1 X206.069 Y46.886 E22.61639
G1 X205.722 Y47.572 E22.64196
G1 X205.306 Y48.219 E22.66754
G1 X204.825 Y48.819 E22.69312
G1 X204.542 Y49.119 E22.70684
G1 X200.66 Y53.015 E22.88976
G1 X200.643 Y53.051 E22.89109
G1 X200.532 Y53.237 E22.89829
G1 X200.439 Y53.446 E22.9059
G1 X200.054 Y54.112 E22.93149
G1 X199.602 Y54.734 E22.95706
G1 X199.083 Y55.311 E22.98287
G1 X196.741 Y57.655 E23.09308
G1 X196.17 Y58.17 E23.11865
G1 X195.548 Y58.624 E23.14427
G1 X194.883 Y59.01 E23.16984
G1 X194.669 Y59.105 E23.17763
G1 X194.426 Y59.247 E23.18699
G1 X192.65 Y61.017 E23.27039
G1 X144.782 Y108.883 E25.5219
G1 X96.917 Y156.749 E27.77335
G1 X60.996 Y192.67 E29.46296
G1 X59.25 Y194.424 E29.54528
G1 X59.073 Y194.735 E29.55718
G1 X58.98 Y194.939 E29.56464
G1 X58.588 Y195.601 E29.59023
G1 X58.131 Y196.219 E29.61579
G1 X57.653 Y196.744 E29.6394
G1 X55.316 Y199.08 E29.74931
G1 X54.745 Y199.594 E29.77486
G1 X54.123 Y200.047 E29.80045
G1 X53.458 Y200.433 E29.82603
G1 X53.225 Y200.538 E29.83453
G1 X53.022 Y200.656 E29.84234
G1 X49.128 Y204.54 E30.02526
G1 X48.556 Y205.054 E30.05084
G1 X47.934 Y205.506 E30.07641
G1 X47.268 Y205.891 E30.102
G1 X46.566 Y206.205 E30.12758
G1 X45.835 Y206.444 E30.15316
G1 X45.083 Y206.606 E30.17874
G1 X44.318 Y206.689 E30.20434
G1 X43.902 Y206.701 E30.21818
G1 X43.737 Y206.701 E30.22367
G1 X42.969 Y206.661 E30.24924
G1 X42.209 Y206.542 E30.27483
G1 X41.466 Y206.344 E30.3004
G1 X40.747 Y206.07 E30.326
G1 X40.061 Y205.723 E30.35157
G1 X39.414 Y205.307 E30.37715
G1 X38.814 Y204.826 E30.40273
G1 X38.505 Y204.535 E30.41684
G1 X35.909 Y201.94 E30.53893
G1 X35.532 Y201.521 E30.55767
G1 X35.247 Y201.276 E30.57017
G1 X33.725 Y199.754 E30.64176
G1 X33.46 Y199.459 E30.65495
G1 X33.433 Y199.438 E30.65609
G1 X33.064 Y199.094 E30.67287
G1 X31.145 Y197.175 E30.76313
G1 X31.078 Y197.106 E30.76633
G1 X31.077 Y197.107 E30.76638
G1 X30.467 Y196.497 E30.79507
G1 X29.953 Y195.925 E30.82065
G1 X29.5 Y195.303 E30.84624
G1 X29.114 Y194.638 E30.87182
G1 X28.799 Y193.936 E30.89741
G1 X28.559 Y193.205 E30.923
G1 X28.396 Y192.454 E30.94856
G1 X28.312 Y191.689 E30.97416
G1 X28.3 Y191.264 E30.9883
G1 X28.3 Y191.1 E30.99375
G1 X28.34 Y190.332 E31.01933
G1 X28.459 Y189.572 E31.04492
G1 X28.657 Y188.829 E31.07049
G1 X28.931 Y188.11 E31.09608
G1 X29.278 Y187.424 E31.12165
G1 X29.694 Y186.777 E31.14724
G1 X30.175 Y186.177 E31.17281
G1 X30.458 Y185.877 E31.18653
G1 X34.351 Y181.969 E31.37
G1 X34.477 Y181.749 E31.37843
G1 X34.586 Y181.508 E31.38723
G1 X34.974 Y180.844 E31.41281
G1 X35.429 Y180.224 E31.43838
G1 X35.929 Y179.672 E31.46316
G1 X38.259 Y177.344 E31.5727
G1 X38.83 Y176.83 E31.59826
G1 X39.452 Y176.377 E31.62385
G1 X40.118 Y175.992 E31.64944
G1 X40.32 Y175.901 E31.65681
G1 X40.53 Y175.776 E31.66493
G1 X40.568 Y175.759 E31.66632
G1 X42.35 Y173.983 E31.75
G1 X90.218 Y126.117 E34.00151
G0 F6000 X90.501 Y126.4
G1 F1200 X138.366 Y78.534 E36.25296
G1 X174.287 Y42.613 E37.94257
G1 X176.09 Y40.801 E38.02759
G1 X176.117 Y40.742 E38.02975
G1 X176.265 Y40.491 E38.03944
G1 X176.379 Y40.242 E38.04855
G1 X176.761 Y39.598 E38.07346
G1 X177.209 Y39 E38.09831
G1 X177.63 Y38.539 E38.11907
G1 X179.96 Y36.209 E38.22867
G1 X180.517 Y35.709 E38.25356
G1 X181.123 Y35.272 E38.27841
G1 X181.773 Y34.901 E38.30331
G1 X181.959 Y34.818 E38.31008
G1 X182.217 Y34.671 E38.31996
G1 X186.154 Y30.743 E38.50493
G1 X186.711 Y30.244 E38.5298
G1 X187.319 Y29.807 E38.55471
G1 X187.969 Y29.437 E38.57958
G1 X188.655 Y29.139 E38.60446
G1 X189.369 Y28.916 E38.62934
G1 X190.103 Y28.77 E38.65423
G1 X191.098 Y28.699 E38.68741
G1 X191.262 Y28.699 E38.69286
G1 X192.009 Y28.739 E38.71774
G1 X192.747 Y28.858 E38.74261
G1 X193.469 Y29.056 E38.76751
G1 X194.165 Y29.329 E38.79237
G1 X194.828 Y29.676 E38.81726
G1 X195.451 Y30.091 E38.84216
G1 X196.19 Y30.728 E38.87461
G1 X196.443 Y30.978 E38.88644
G1 X198.809 Y33.344 E38.99773
G1 X199.162 Y33.737 E39.0153
G1 X199.47 Y34.007 E39.02892
G1 X200.992 Y35.529 E39.10051
G1 X201.304 Y35.877 E39.11606
G1 X201.656 Y36.191 E39.13175
G1 X204.251 Y38.787 E39.25383
G1 X204.751 Y39.344 E39.27873
G1 X205.188 Y39.95 E39.30357
G1 X205.558 Y40.6 E39.32845
G1 X205.857 Y41.286 E39.35334
G1 X206.081 Y42 E39.37823
G1 X206.228 Y42.734 E39.40313
G1 X206.3 Y43.736 E39.43654
G1 X206.3 Y43.896 E39.44186
G1 X206.26 Y44.643 E39.46674
G1 X206.141 Y45.381 E39.49161
G1 X205.943 Y46.103 E39.51651
G1 X205.67 Y46.799 E39.54137
G1 X205.323 Y47.462 E39.56626
G1 X204.908 Y48.085 E39.59116
G1 X204.258 Y48.837 E39.62422
G1 X200.324 Y52.784 E39.80957
G1 X200.279 Y52.882 E39.81315
G1 X200.174 Y53.057 E39.81994
G1 X200.073 Y53.282 E39.82815
G1 X199.696 Y53.928 E39.85302
G1 X199.252 Y54.53 E39.8779
G1 X198.8 Y55.029 E39.9003
G1 X196.458 Y57.373 E40.0105
G1 X195.902 Y57.873 E40.03537
G1 X195.295 Y58.311 E40.06027
G1 X194.645 Y58.682 E40.08516
G1 X194.462 Y58.763 E40.09182
G1 X194.189 Y58.92 E40.10229
G1 X192.368 Y60.734 E40.18778
G1 X192.367 Y60.733 E40.18783
G1 X144.499 Y108.6 E42.43937
G1 X96.634 Y156.466 E44.69082
G1 X60.713 Y192.387 E46.38043
G1 X58.932 Y194.175 E46.46437
G1 X58.716 Y194.554 E46.47888
G1 X58.616 Y194.772 E46.48685
G1 X58.232 Y195.414 E46.51174
G1 X57.783 Y196.012 E46.53661
G1 X57.371 Y196.461 E46.55688
G1 X55.034 Y198.797 E46.66678
G1 X54.477 Y199.297 E46.69167
G1 X53.87 Y199.734 E46.71655
G1 X53.22 Y200.105 E46.74144
G1 X53.02 Y200.194 E46.74872
G1 X52.784 Y200.328 E46.75775
G1 X48.846 Y204.257 E46.94277
G1 X48.289 Y204.756 E46.96764
G1 X47.681 Y205.193 E46.99255
G1 X47.031 Y205.563 E47.01742
G1 X46.345 Y205.861 E47.0423
G1 X45.631 Y206.084 E47.06718
G1 X44.897 Y206.23 E47.09207
G1 X43.902 Y206.301 E47.12525
G1 X43.737 Y206.301 E47.13073
G1 X42.99 Y206.261 E47.15561
G1 X42.252 Y206.142 E47.18048
G1 X41.53 Y205.944 E47.20538
G1 X40.834 Y205.671 E47.23024
G1 X40.171 Y205.324 E47.25513
G1 X39.548 Y204.909 E47.28003
G1 X38.788 Y204.252 E47.31344
G1 X36.192 Y201.657 E47.43553
G1 X35.839 Y201.263 E47.45312
G1 X35.53 Y200.993 E47.46677
G1 X34.008 Y199.471 E47.53836
G1 X33.695 Y199.122 E47.55395
G1 X33.347 Y198.811 E47.56948
G1 X30.75 Y196.214 E47.69163
G1 X30.25 Y195.657 E47.71653
G1 X29.813 Y195.051 E47.74138
G1 X29.442 Y194.401 E47.76627
G1 X29.143 Y193.715 E47.79116
G1 X28.919 Y193.001 E47.81605
G1 X28.772 Y192.268 E47.84091
G1 X28.7 Y191.264 E47.87439
G1 X28.7 Y191.1 E47.87985
G1 X28.74 Y190.353 E47.90473
G1 X28.859 Y189.615 E47.92959
G1 X29.057 Y188.893 E47.95449
G1 X29.33 Y188.197 E47.97936
G1 X29.677 Y187.534 E48.00425
G1 X30.092 Y186.911 E48.02914
G1 X30.741 Y186.159 E48.06218
G1 X34.667 Y182.218 E48.2472
G1 X34.835 Y181.927 E48.25838
G1 X34.951 Y181.673 E48.26767
G1 X35.331 Y181.029 E48.29254
G1 X35.778 Y180.429 E48.31742
G1 X36.211 Y179.955 E48.33877
G1 X38.541 Y177.627 E48.44832
G1 X39.098 Y177.127 E48.47322
G1 X39.705 Y176.69 E48.4981
G1 X40.355 Y176.32 E48.52297
G1 X40.531 Y176.241 E48.52939
G1 X40.77 Y176.102 E48.53858
G1 X40.805 Y176.086 E48.53986
G1 X42.632 Y174.266 E48.62564
G1 X42.633 Y174.267 E48.62568
G1 X90.501 Y126.4 E50.87722
G0 F6000 X90.784 Y126.683
G1 F1200 X138.649 Y78.817 E53.12867
G1 X174.57 Y42.896 E54.81828
G1 X176.427 Y41.029 E54.90587
G1 X176.482 Y40.908 E54.91029
G1 X176.621 Y40.675 E54.91931
G1 X176.743 Y40.409 E54.92904
G1 X177.117 Y39.786 E54.95321
G1 X177.557 Y39.208 E54.97737
G1 X177.913 Y38.822 E54.99484
G1 X180.243 Y36.492 E55.10443
G1 X180.784 Y36.008 E55.12858
G1 X181.375 Y35.585 E55.15275
G1 X182.009 Y35.231 E55.1769
G1 X182.156 Y35.166 E55.18225
G1 X182.453 Y35 E55.19356
G1 X186.437 Y31.026 E55.38072
G1 X186.979 Y30.542 E55.40489
G1 X187.57 Y30.121 E55.42903
G1 X188.204 Y29.767 E55.45318
G1 X188.874 Y29.485 E55.47736
G1 X189.57 Y29.278 E55.50151
G1 X190.285 Y29.149 E55.52567
G1 X191.098 Y29.099 E55.55276
G1 X191.262 Y29.099 E55.55822
G1 X191.987 Y29.139 E55.58237
G1 X192.704 Y29.258 E55.60654
G1 X193.403 Y29.456 E55.63071
G1 X194.076 Y29.729 E55.65486
G1 X194.715 Y30.074 E55.67902
G1 X195.312 Y30.488 E55.70318
G1 X195.909 Y31.012 E55.7296
G1 X196.14 Y31.241 E55.74042
G1 X198.526 Y33.627 E55.85265
G1 X198.852 Y33.991 E55.8689
G1 X199.187 Y34.29 E55.88383
G1 X200.709 Y35.812 E55.95542
G1 X201.066 Y36.211 E55.97323
G1 X201.373 Y36.474 E55.98668
G1 X203.968 Y39.07 E56.10876
G1 X204.452 Y39.611 E56.13291
G1 X204.874 Y40.202 E56.15706
G1 X205.229 Y40.836 E56.18123
G1 X205.512 Y41.505 E56.20539
G1 X205.719 Y42.201 E56.22954
G1 X205.849 Y42.916 E56.25371
G1 X205.9 Y43.736 E56.28103
G1 X205.9 Y43.896 E56.28636
G1 X205.86 Y44.621 E56.31051
G1 X205.741 Y45.338 E56.33468
G1 X205.543 Y46.037 E56.35884
G1 X205.27 Y46.71 E56.383
G1 X204.925 Y47.349 E56.40715
G1 X204.511 Y47.946 E56.43132
G1 X203.975 Y48.555 E56.4583
G1 X199.99 Y52.553 E56.64605
G1 X199.916 Y52.713 E56.65191
G1 X199.817 Y52.877 E56.65828
G1 X199.708 Y53.118 E56.66708
G1 X199.338 Y53.744 E56.69127
G1 X198.903 Y54.325 E56.71541
G1 X198.517 Y54.746 E56.7344
G1 X196.175 Y57.09 E56.84461
G1 X195.634 Y57.575 E56.86878
G1 X195.043 Y57.997 E56.89293
G1 X194.409 Y58.352 E56.9171
G1 X194.259 Y58.417 E56.92253
G1 X193.951 Y58.591 E56.9343
G1 X192.085 Y60.45 E57.02191
G1 X144.216 Y108.317 E59.27347
G1 X96.351 Y156.183 E61.52492
G1 X60.43 Y192.104 E63.21453
G1 X58.597 Y193.946 E63.30096
G1 X58.571 Y194.005 E63.30311
G1 X58.362 Y194.367 E63.31701
