; generated by PrusaSlicer 2.2.0+ on 2020-10-29 at 18:51:56 UTC

; 

; external perimeters extrusion width = 0.45mm
; perimeters extrusion width = 0.45mm
; infill extrusion width = 0.45mm
; solid infill extrusion width = 0.45mm
; top infill extrusion width = 0.40mm
; support material extrusion width = 0.38mm
; first layer extrusion width = 0.42mm

M201 X500 Y500 Z100 E5000 ; sets maximum accelerations, mm/sec^2
M203 X500 Y500 Z10 E60 ; sets maximum feedrates, mm/sec
M204 P500 R1000 T500 ; sets acceleration (P, T) and retract acceleration (R), mm/sec^2
M205 X8.00 Y8.00 Z0.40 E5.00 ; sets the jerk limits, mm/sec
M205 S0 T0 ; sets the minimum extruding and travel feed rate, mm/sec
M107
G90 ; use absolute coordinates
M83 ; extruder relative mode
M104 S200 ; set extruder temp
M140 S50 ; set bed temp
M190 S50 ; wait for bed temp
M109 S200 ; wait for extruder temp
G28 ; home all
G1 Z2 F240
G1 X2 Y10 F3000
G1 Z0.28 F240
G92 E0.0
G1 Y190 E15.0 F1500.0 ; intro line
G1 X2.3 F5000
G1 Y10 E30 F1200.0 ; intro line
G92 E0.0
G21 ; set units to millimeters
G90 ; use absolute coordinates
M83 ; use relative distances for extrusion
; Filament gcode
;BEFORE_LAYER_CHANGE
;0.2


G1 E-5.00000 F3600.00000
G1 Z0.200 F9000.000
;AFTER_LAYER_CHANGE
;0.2
G1 X2.680 Y127.218
G1 E5.00000 F2400.00000
G1 F1200.000
G1 X1.912 Y126.679 E0.02942
G1 X0.330 Y124.695 E0.07957
G1 X0.082 Y124.169 E0.01823
G1 X-0.031 Y123.598 E0.01823
G1 X-0.037 Y111.481 E0.37993
G1 X0.025 Y110.953 E0.01668
G1 X0.207 Y110.445 E0.01692
G1 X0.498 Y109.990 E0.01692
G1 X2.271 Y108.204 E0.07891
G1 X2.937 Y107.774 E0.02484
G1 X3.703 Y107.588 E0.02473
G1 X218.886 Y107.581 E6.74691
G1 X231.756 Y107.614 E0.40354
G1 X232.403 Y107.820 E0.02130
G1 X232.963 Y108.198 E0.02119
G1 X234.593 Y110.192 E0.08074
G1 X234.912 Y110.813 E0.02190
G1 X235.036 Y111.500 E0.02190
G1 X235.023 Y123.766 E0.38457
G1 X234.883 Y124.349 E0.01882
G1 X234.599 Y124.882 E0.01894
G1 X233.684 Y126.078 E0.04721
G1 X232.747 Y126.976 E0.04067
G1 X232.093 Y127.305 E0.02296
G1 X231.370 Y127.419 E0.02296
G1 X3.600 Y127.418 E7.14155
G1 X2.738 Y127.231 E0.02766
G1 E-3.50000 F3600.00000
G1 F7200.000
G1 X1.912 Y126.679 E-0.47215
G1 X0.661 Y125.110 E-0.95285
G1 E-0.07500 F3600.00000
G1 X3.635 Y125.042 F9000.000
G1 E5.00000 F2400.00000
G1 F1200.000
G1 X16.114 Y125.042 E0.39129
G1 X16.653 Y124.503 E0.02389
G1 X3.336 Y124.503 E0.41754
G1 X2.797 Y123.964 E0.02389
G1 X232.203 Y123.964 E7.19285
G1 X232.660 Y123.507 E0.02026
G1 X232.660 Y123.426 E0.00256
G1 X2.340 Y123.426 E7.22151
G1 X2.340 Y122.887 E0.01689
G1 X232.660 Y122.887 E7.22151
G1 X232.660 Y122.348 E0.01689
G1 X2.340 Y122.348 E7.22151
G1 X2.340 Y121.809 E0.01689
G1 X232.660 Y121.809 E7.22151
G1 X232.660 Y121.271 E0.01689
G1 X2.340 Y121.271 E7.22151
G1 X2.340 Y120.732 E0.01689
G1 X232.660 Y120.732 E7.22151
G1 X232.660 Y120.193 E0.01689
G1 X2.340 Y120.193 E7.22151
G1 X2.340 Y119.655 E0.01689
G1 X232.660 Y119.655 E7.22151
G1 X232.660 Y119.116 E0.01689
G1 X2.340 Y119.116 E7.22151
G1 X2.340 Y118.577 E0.01689
G1 X232.660 Y118.577 E7.22151
G1 X232.660 Y118.039 E0.01689
G1 X2.340 Y118.039 E7.22151
G1 X2.340 Y117.500 E0.01689
G1 X232.660 Y117.500 E7.22151
G1 X232.660 Y116.961 E0.01689
G1 X2.340 Y116.961 E7.22151
G1 X2.340 Y116.423 E0.01689
G1 X232.660 Y116.423 E7.22151
G1 X232.660 Y115.884 E0.01689
G1 X2.340 Y115.884 E7.22151
G1 X2.340 Y115.345 E0.01689
G1 X232.660 Y115.345 E7.22151
G1 X232.660 Y114.807 E0.01689
G1 X2.340 Y114.807 E7.22151
G1 X2.340 Y114.268 E0.01689
G1 X232.660 Y114.268 E7.22151
G1 X232.660 Y113.729 E0.01689
G1 X2.340 Y113.729 E7.22151
G1 X2.340 Y113.191 E0.01689
G1 X232.660 Y113.191 E7.22151
G1 X232.660 Y112.652 E0.01689
G1 X2.340 Y112.652 E7.22151
G1 X2.340 Y112.113 E0.01689
G1 X232.660 Y112.113 E7.22151
G1 X232.660 Y111.574 E0.01689
G1 X2.340 Y111.574 E7.22151
G1 X2.340 Y111.493 E0.00256
G1 X2.797 Y111.036 E0.02026
G1 X232.203 Y111.036 E7.19285
G1 X231.664 Y110.497 E0.02389
G1 X218.347 Y110.497 E0.41755
G1 X218.886 Y109.958 E0.02389
G1 X231.365 Y109.958 E0.39129
G1 E-3.50000 F3600.00000
G1 F7200.000
G1 X228.365 Y109.958 E-1.42500
G1 E-0.07500 F3600.00000
G1 X217.882 Y110.497 F9000.000
G1 E5.00000 F2400.00000
G1 F1200.000
G1 X17.358 Y110.497 E6.28727
G1 X17.897 Y109.958 E0.02389
G1 X217.343 Y109.958 E6.25349
G1 E-3.50000 F3600.00000
G1 F7200.000
G1 X214.343 Y109.958 E-1.42500
G1 E-0.07500 F3600.00000
G1 X217.343 Y125.042 F9000.000
G1 E5.00000 F2400.00000
G1 F1200.000
G1 X17.897 Y125.042 E6.25349
G1 X17.358 Y124.503 E0.02389
G1 X217.882 Y124.503 E6.28727
G1 E-3.50000 F3600.00000
G1 F7200.000
G1 X214.882 Y124.503 E-1.42500
G1 E-0.07500 F3600.00000
G1 X231.365 Y125.042 F9000.000
G1 E5.00000 F2400.00000
G1 F1200.000
G1 X218.886 Y125.042 E0.39129
G1 X218.347 Y124.503 E0.02389
G1 X231.904 Y124.503 E0.42507
G1 E-3.50000 F3600.00000
G1 F7200.000
G1 X228.904 Y124.503 E-1.42500
G1 E-0.07500 F3600.00000
G1 X16.893 Y110.497 F9000.000
G1 E5.00000 F2400.00000
G1 F1200.000
G1 X3.336 Y110.497 E0.42507
G1 X3.875 Y109.958 E0.02389
G1 X16.354 Y109.958 E0.39129
M106 S255
;BEFORE_LAYER_CHANGE
;0.5


G1 E-3.50000 F3600.00000
G1 F7200.000
G1 X13.354 Y109.958 E-1.42500
G1 E-0.07500 F3600.00000
G1 Z0.500 F9000.000
;AFTER_LAYER_CHANGE
;0.5
G1 X2.680 Y127.218
G1 E5.00000 F2400.00000
G1 X1.912 Y126.679 E0.04162
G1 X0.330 Y124.695 E0.11256
G1 X0.082 Y124.169 E0.02578
G1 X-0.031 Y123.598 E0.02578
G1 X-0.037 Y111.481 E0.53745
G1 X0.025 Y110.953 E0.02360
G1 X0.207 Y110.445 E0.02394
G1 X0.498 Y109.990 E0.02394
G1 X2.271 Y108.204 E0.11162
G1 X2.937 Y107.774 E0.03515
G1 X3.703 Y107.588 E0.03498
G1 X218.886 Y107.581 E9.54440
G1 X231.756 Y107.614 E0.57086
G1 X232.403 Y107.820 E0.03014
G1 X232.963 Y108.198 E0.02997
G1 X234.593 Y110.192 E0.11421
G1 X234.912 Y110.813 E0.03097
G1 X235.036 Y111.500 E0.03097
G1 X235.023 Y123.766 E0.54403
G1 X234.883 Y124.349 E0.02662
G1 X234.599 Y124.882 E0.02679
G1 X233.684 Y126.078 E0.06678
G1 X232.747 Y126.976 E0.05754
G1 X232.093 Y127.305 E0.03248
G1 X231.370 Y127.419 E0.03248
G1 X3.600 Y127.418 E10.10267
G1 X2.738 Y127.231 E0.03913
G1 E-3.50000 F3600.00000
G1 F7200.000
G1 X1.912 Y126.679 E-0.47215
G1 X0.661 Y125.110 E-0.95285
G1 E-0.07500 F3600.00000
G1 X14.381 Y122.326 F9000.000
G1 E5.00000 F2400.00000
G1 X14.381 Y112.826 E0.37398
G1 X13.844 Y112.826 E0.02114
G1 X13.844 Y122.174 E0.36801
G1 X13.307 Y122.174 E0.02114
G1 X13.307 Y112.826 E0.36801
G1 X12.770 Y112.826 E0.02114
G1 X12.770 Y122.174 E0.36801
G1 X12.233 Y122.174 E0.02114
G1 X12.233 Y112.826 E0.36801
G1 X11.695 Y112.826 E0.02114
G1 X11.695 Y122.174 E0.36801
G1 X11.158 Y122.174 E0.02114
G1 X11.158 Y112.826 E0.36801
G1 X10.621 Y112.826 E0.02114
G1 X10.621 Y122.174 E0.36801
G1 X10.084 Y122.174 E0.02114
G1 X10.084 Y112.826 E0.36801
G1 X9.547 Y112.826 E0.02114
G1 X9.547 Y122.174 E0.36801
G1 X9.010 Y122.174 E0.02114
G1 X9.010 Y112.826 E0.36801
G1 X8.473 Y112.826 E0.02114
G1 X8.473 Y122.174 E0.36801
G1 X7.936 Y122.174 E0.02114
G1 X7.936 Y112.826 E0.36801
G1 X7.399 Y112.826 E0.02114
G1 X7.399 Y122.174 E0.36801
G1 X6.862 Y122.174 E0.02114
G1 X6.862 Y112.826 E0.36801
G1 X6.325 Y112.826 E0.02114
G1 X6.325 Y122.174 E0.36801
G1 X5.788 Y122.174 E0.02114
G1 X5.788 Y112.674 E0.37398
G1 E-3.50000 F3600.00000
G1 F7200.000
G1 X5.788 Y115.674 E-1.42500
G1 E-0.07500 F3600.00000
G1 X19.752 Y112.674 F9000.000
G1 E5.00000 F2400.00000
G1 X19.752 Y122.174 E0.37398
G1 X20.289 Y122.174 E0.02114
G1 X20.289 Y112.826 E0.36801
G1 X20.826 Y112.826 E0.02114
G1 X20.826 Y122.174 E0.36801
G1 X21.363 Y122.174 E0.02114
G1 X21.363 Y112.826 E0.36801
G1 X21.900 Y112.826 E0.02114
G1 X21.900 Y122.174 E0.36801
G1 X22.437 Y122.174 E0.02114
G1 X22.437 Y112.826 E0.36801
G1 X22.974 Y112.826 E0.02114
G1 X22.974 Y122.174 E0.36801
G1 X23.511 Y122.174 E0.02114
G1 X23.511 Y112.826 E0.36801
G1 X24.048 Y112.826 E0.02114
G1 X24.048 Y122.174 E0.36801
G1 X24.585 Y122.174 E0.02114
G1 X24.585 Y112.826 E0.36801
G1 X25.122 Y112.826 E0.02114
G1 X25.122 Y122.174 E0.36801
G1 X25.659 Y122.174 E0.02114
G1 X25.659 Y112.826 E0.36801
G1 X26.197 Y112.826 E0.02114
G1 X26.197 Y122.174 E0.36801
G1 X26.734 Y122.174 E0.02114
G1 X26.734 Y112.826 E0.36801
G1 X27.271 Y112.826 E0.02114
G1 X27.271 Y122.174 E0.36801
G1 X27.808 Y122.174 E0.02114
G1 X27.808 Y112.826 E0.36801
G1 X28.345 Y112.826 E0.02114
G1 X28.345 Y122.174 E0.36801
G1 X28.882 Y122.174 E0.02114
G1 X28.882 Y112.826 E0.36801
G1 X29.419 Y112.826 E0.02114
G1 X29.419 Y122.174 E0.36801
G1 X29.956 Y122.174 E0.02114
G1 X29.956 Y112.826 E0.36801
G1 X30.493 Y112.826 E0.02114
G1 X30.493 Y122.174 E0.36801
G1 X31.030 Y122.174 E0.02114
G1 X31.030 Y112.826 E0.36801
G1 X31.567 Y112.826 E0.02114
G1 X31.567 Y122.174 E0.36801
G1 X32.104 Y122.174 E0.02114
G1 X32.104 Y112.826 E0.36801
G1 X32.642 Y112.826 E0.02114
G1 X32.642 Y122.174 E0.36801
G1 X33.179 Y122.174 E0.02114
G1 X33.179 Y112.826 E0.36801
G1 X33.716 Y112.826 E0.02114
G1 X33.716 Y122.174 E0.36801
G1 X34.253 Y122.174 E0.02114
G1 X34.253 Y112.826 E0.36801
G1 X34.790 Y112.826 E0.02114
G1 X34.790 Y122.174 E0.36801
G1 X35.327 Y122.174 E0.02114
G1 X35.327 Y112.826 E0.36801
G1 X35.864 Y112.826 E0.02114
G1 X35.864 Y122.174 E0.36801
G1 X36.401 Y122.174 E0.02114
G1 X36.401 Y112.826 E0.36801
G1 X36.938 Y112.826 E0.02114
G1 X36.938 Y122.174 E0.36801
G1 X37.475 Y122.174 E0.02114
G1 X37.475 Y112.826 E0.36801
G1 X38.012 Y112.826 E0.02114
G1 X38.012 Y122.174 E0.36801
G1 X38.549 Y122.174 E0.02114
G1 X38.549 Y112.826 E0.36801
G1 X39.086 Y112.826 E0.02114
G1 X39.086 Y122.174 E0.36801
G1 X39.624 Y122.174 E0.02114
G1 X39.624 Y112.826 E0.36801
G1 X40.161 Y112.826 E0.02114
G1 X40.161 Y122.174 E0.36801
G1 X40.698 Y122.174 E0.02114
G1 X40.698 Y112.826 E0.36801
G1 X41.235 Y112.826 E0.02114
G1 X41.235 Y122.174 E0.36801
G1 X41.772 Y122.174 E0.02114
G1 X41.772 Y112.826 E0.36801
G1 X42.309 Y112.826 E0.02114
G1 X42.309 Y122.174 E0.36801
G1 X42.846 Y122.174 E0.02114
G1 X42.846 Y112.826 E0.36801
G1 X43.383 Y112.826 E0.02114
G1 X43.383 Y122.174 E0.36801
G1 X43.920 Y122.174 E0.02114
G1 X43.920 Y112.826 E0.36801
G1 X44.457 Y112.826 E0.02114
G1 X44.457 Y122.174 E0.36801
G1 X44.994 Y122.174 E0.02114
G1 X44.994 Y112.826 E0.36801
G1 X45.531 Y112.826 E0.02114
G1 X45.531 Y122.174 E0.36801
G1 X46.068 Y122.174 E0.02114
G1 X46.068 Y112.826 E0.36801
G1 X46.606 Y112.826 E0.02114
G1 X46.606 Y122.174 E0.36801
G1 X47.143 Y122.174 E0.02114
G1 X47.143 Y112.826 E0.36801
G1 X47.680 Y112.826 E0.02114
G1 X47.680 Y122.174 E0.36801
G1 X48.217 Y122.174 E0.02114
G1 X48.217 Y112.826 E0.36801
G1 X48.754 Y112.826 E0.02114
G1 X48.754 Y122.174 E0.36801
G1 X49.291 Y122.174 E0.02114
G1 X49.291 Y112.826 E0.36801
G1 X49.828 Y112.826 E0.02114
G1 X49.828 Y122.174 E0.36801
G1 X50.365 Y122.174 E0.02114
G1 X50.365 Y112.826 E0.36801
G1 X50.902 Y112.826 E0.02114
G1 X50.902 Y122.174 E0.36801
G1 X51.439 Y122.174 E0.02114
G1 X51.439 Y112.826 E0.36801
G1 X51.976 Y112.826 E0.02114
G1 X51.976 Y122.174 E0.36801
G1 X52.513 Y122.174 E0.02114
G1 X52.513 Y112.826 E0.36801
G1 X53.051 Y112.826 E0.02114
G1 X53.051 Y122.174 E0.36801
G1 X53.588 Y122.174 E0.02114
G1 X53.588 Y112.826 E0.36801
G1 X54.125 Y112.826 E0.02114
G1 X54.125 Y122.174 E0.36801
G1 X54.662 Y122.174 E0.02114
G1 X54.662 Y112.826 E0.36801
G1 X55.199 Y112.826 E0.02114
G1 X55.199 Y122.174 E0.36801
G1 X55.736 Y122.174 E0.02114
G1 X55.736 Y112.826 E0.36801
G1 X56.273 Y112.826 E0.02114
G1 X56.273 Y122.174 E0.36801
G1 X56.810 Y122.174 E0.02114
G1 X56.810 Y112.826 E0.36801
G1 X57.347 Y112.826 E0.02114
G1 X57.347 Y122.174 E0.36801
G1 X57.884 Y122.174 E0.02114
G1 X57.884 Y112.826 E0.36801
G1 X58.421 Y112.826 E0.02114
G1 X58.421 Y122.174 E0.36801
G1 X58.958 Y122.174 E0.02114
G1 X58.958 Y112.826 E0.36801
G1 X59.495 Y112.826 E0.02114
G1 X59.495 Y122.174 E0.36801
G1 X60.033 Y122.174 E0.02114
G1 X60.033 Y112.826 E0.36801
G1 X60.570 Y112.826 E0.02114
G1 X60.570 Y122.174 E0.36801
G1 X61.107 Y122.174 E0.02114
G1 X61.107 Y112.826 E0.36801
G1 X61.644 Y112.826 E0.02114
G1 X61.644 Y122.174 E0.36801
G1 X62.181 Y122.174 E0.02114
G1 X62.181 Y112.826 E0.36801
G1 X62.718 Y112.826 E0.02114
G1 X62.718 Y122.174 E0.36801
G1 X63.255 Y122.174 E0.02114
G1 X63.255 Y112.826 E0.36801
G1 X63.792 Y112.826 E0.02114
G1 X63.792 Y122.174 E0.36801
G1 X64.329 Y122.174 E0.02114
G1 X64.329 Y112.826 E0.36801
G1 X64.866 Y112.826 E0.02114
G1 X64.866 Y122.174 E0.36801
G1 X65.403 Y122.174 E0.02114
G1 X65.403 Y112.826 E0.36801
G1 X65.940 Y112.826 E0.02114
G1 X65.940 Y122.174 E0.36801
G1 X66.477 Y122.174 E0.02114
G1 X66.477 Y112.826 E0.36801
G1 X67.015 Y112.826 E0.02114
G1 X67.015 Y122.174 E0.36801
G1 X67.552 Y122.174 E0.02114
G1 X67.552 Y112.826 E0.36801
G1 X68.089 Y112.826 E0.02114
G1 X68.089 Y122.174 E0.36801
G1 X68.626 Y122.174 E0.02114
G1 X68.626 Y112.826 E0.36801
G1 X69.163 Y112.826 E0.02114
G1 X69.163 Y122.174 E0.36801
G1 X69.700 Y122.174 E0.02114
G1 X69.700 Y112.826 E0.36801
G1 X70.237 Y112.826 E0.02114
G1 X70.237 Y122.174 E0.36801
G1 X70.774 Y122.174 E0.02114
G1 X70.774 Y112.826 E0.36801
G1 X71.311 Y112.826 E0.02114
G1 X71.311 Y122.174 E0.36801
G1 X71.848 Y122.174 E0.02114
G1 X71.848 Y112.826 E0.36801
G1 X72.385 Y112.826 E0.02114
G1 X72.385 Y122.174 E0.36801
G1 X72.922 Y122.174 E0.02114
G1 X72.922 Y112.826 E0.36801
G1 X73.460 Y112.826 E0.02114
G1 X73.460 Y122.174 E0.36801
G1 X73.997 Y122.174 E0.02114
G1 X73.997 Y112.826 E0.36801
G1 X74.534 Y112.826 E0.02114
G1 X74.534 Y122.174 E0.36801
G1 X75.071 Y122.174 E0.02114
G1 X75.071 Y112.826 E0.36801
G1 X75.608 Y112.826 E0.02114
G1 X75.608 Y122.174 E0.36801
G1 X76.145 Y122.174 E0.02114
G1 X76.145 Y112.826 E0.36801
G1 X76.682 Y112.826 E0.02114
G1 X76.682 Y122.174 E0.36801
G1 X77.219 Y122.174 E0.02114
G1 X77.219 Y112.826 E0.36801
G1 X77.756 Y112.826 E0.02114
G1 X77.756 Y122.174 E0.36801
G1 X78.293 Y122.174 E0.02114
G1 X78.293 Y112.826 E0.36801
G1 X78.830 Y112.826 E0.02114
G1 X78.830 Y122.174 E0.36801
G1 X79.367 Y122.174 E0.02114
G1 X79.367 Y112.826 E0.36801
G1 X79.904 Y112.826 E0.02114
G1 X79.904 Y122.174 E0.36801
G1 X80.442 Y122.174 E0.02114
G1 X80.442 Y112.826 E0.36801
G1 X80.979 Y112.826 E0.02114
G1 X80.979 Y122.174 E0.36801
G1 X81.516 Y122.174 E0.02114
G1 X81.516 Y112.826 E0.36801
G1 X82.053 Y112.826 E0.02114
G1 X82.053 Y122.174 E0.36801
G1 X82.590 Y122.174 E0.02114
G1 X82.590 Y112.826 E0.36801
G1 X83.127 Y112.826 E0.02114
G1 X83.127 Y122.174 E0.36801
G1 X83.664 Y122.174 E0.02114
G1 X83.664 Y112.826 E0.36801
G1 X84.201 Y112.826 E0.02114
G1 X84.201 Y122.174 E0.36801
G1 X84.738 Y122.174 E0.02114
G1 X84.738 Y112.826 E0.36801
G1 X85.275 Y112.826 E0.02114
G1 X85.275 Y122.174 E0.36801
G1 X85.812 Y122.174 E0.02114
G1 X85.812 Y112.826 E0.36801
G1 X86.349 Y112.826 E0.02114
G1 X86.349 Y122.174 E0.36801
G1 X86.886 Y122.174 E0.02114
G1 X86.886 Y112.826 E0.36801
G1 X87.424 Y112.826 E0.02114
G1 X87.424 Y122.174 E0.36801
G1 X87.961 Y122.174 E0.02114
G1 X87.961 Y112.826 E0.36801
G1 X88.498 Y112.826 E0.02114
G1 X88.498 Y122.174 E0.36801
G1 X89.035 Y122.174 E0.02114
G1 X89.035 Y112.826 E0.36801
G1 X89.572 Y112.826 E0.02114
G1 X89.572 Y122.174 E0.36801
G1 X90.109 Y122.174 E0.02114
G1 X90.109 Y112.826 E0.36801
G1 X90.646 Y112.826 E0.02114
G1 X90.646 Y122.174 E0.36801
G1 X91.183 Y122.174 E0.02114
G1 X91.183 Y112.826 E0.36801
G1 X91.720 Y112.826 E0.02114
G1 X91.720 Y122.174 E0.36801
G1 X92.257 Y122.174 E0.02114
G1 X92.257 Y112.826 E0.36801
G1 X92.794 Y112.826 E0.02114
G1 X92.794 Y122.174 E0.36801
G1 X93.331 Y122.174 E0.02114
G1 X93.331 Y112.826 E0.36801
G1 X93.869 Y112.826 E0.02114
G1 X93.869 Y122.174 E0.36801
G1 X94.406 Y122.174 E0.02114
G1 X94.406 Y112.826 E0.36801
G1 X94.943 Y112.826 E0.02114
G1 X94.943 Y122.174 E0.36801
G1 X95.480 Y122.174 E0.02114
G1 X95.480 Y112.826 E0.36801
G1 X96.017 Y112.826 E0.02114
G1 X96.017 Y122.174 E0.36801
G1 X96.554 Y122.174 E0.02114
G1 X96.554 Y112.826 E0.36801
G1 X97.091 Y112.826 E0.02114
G1 X97.091 Y122.174 E0.36801
G1 X97.628 Y122.174 E0.02114
G1 X97.628 Y112.826 E0.36801
G1 X98.165 Y112.826 E0.02114
G1 X98.165 Y122.174 E0.36801
G1 X98.702 Y122.174 E0.02114
G1 X98.702 Y112.826 E0.36801
G1 X99.239 Y112.826 E0.02114
G1 X99.239 Y122.174 E0.36801
G1 X99.776 Y122.174 E0.02114
G1 X99.776 Y112.826 E0.36801
G1 X100.313 Y112.826 E0.02114
G1 X100.313 Y122.174 E0.36801
