; generated by PrusaSlicer 2.2.0+ on 2020-10-29 at 06:09:25 UTC

; 

; external perimeters extrusion width = 0.45mm
; perimeters extrusion width = 0.45mm
; infill extrusion width = 0.45mm
; solid infill extrusion width = 0.45mm
; top infill extrusion width = 0.40mm
; first layer extrusion width = 0.42mm

M201 X500 Y500 Z100 E5000 ; sets maximum accelerations, mm/sec^2
M203 X500 Y500 Z10 E60 ; sets maximum feedrates, mm/sec
M204 P500 R1000 T500 ; sets acceleration (P, T) and retract acceleration (R), mm/sec^2
M205 X8.00 Y8.00 Z0.40 E5.00 ; sets the jerk limits, mm/sec
M205 S0 T0 ; sets the minimum extruding and travel feed rate, mm/sec
M107
G90 ; use absolute coordinates
M83 ; extruder relative mode
M104 S200 ; set extruder temp
M140 S50 ; set bed temp
M190 S50 ; wait for bed temp
M109 S200 ; wait for extruder temp
G28 ; home all
G1 Z2 F240
G1 X2 Y10 F3000
G1 Z0.28 F240
G92 E0.0
G1 Y190 E15.0 F1500.0 ; intro line
G1 X2.3 F5000
G1 Y10 E30 F1200.0 ; intro line
G92 E0.0
G21 ; set units to millimeters
G90 ; use absolute coordinates
M83 ; use relative distances for extrusion
; Filament gcode
;BEFORE_LAYER_CHANGE
;0.2


G1 E-5.00000 F3600.00000
G1 Z0.200 F9000.000
;AFTER_LAYER_CHANGE
;0.2
G1 X109.049 Y107.948
G1 E5.00000 F2400.00000
G1 F1200.000
G1 X110.976 Y106.541 E0.07484
G1 X112.574 Y105.746 E0.05595
G1 X114.597 Y105.086 E0.06672
G1 X115.607 Y104.887 E0.03229
G1 X116.380 Y104.801 E0.02437
G1 X118.475 Y104.793 E0.06569
G1 X120.304 Y105.062 E0.05798
G1 X122.411 Y105.736 E0.06935
G1 X123.108 Y106.046 E0.02392
G1 X124.034 Y106.550 E0.03306
G1 X125.802 Y107.826 E0.06835
G1 X127.044 Y109.040 E0.05446
G1 X128.386 Y110.865 E0.07103
G1 X128.772 Y111.534 E0.02421
G1 X129.221 Y112.482 E0.03288
G1 X129.883 Y114.495 E0.06646
G1 X130.193 Y116.265 E0.05634
G1 X130.197 Y118.708 E0.07660
G1 X129.919 Y120.374 E0.05296
G1 X129.251 Y122.447 E0.06829
G1 X128.813 Y123.390 E0.03259
G1 X128.427 Y124.068 E0.02447
G1 X127.149 Y125.834 E0.06835
G1 X125.941 Y127.059 E0.05395
G1 X124.131 Y128.388 E0.07039
G1 X123.463 Y128.774 E0.02421
G1 X122.518 Y129.221 E0.03275
G1 X120.505 Y129.883 E0.06646
G1 X118.733 Y130.193 E0.05641
G1 X116.296 Y130.197 E0.07642
G1 X114.626 Y129.919 E0.05308
G1 X112.553 Y129.251 E0.06829
G1 X111.612 Y128.813 E0.03253
G1 X110.936 Y128.430 E0.02438
G1 X109.165 Y127.150 E0.06850
G1 X107.934 Y125.934 E0.05425
G1 X106.611 Y124.130 E0.07014
G1 X106.224 Y123.460 E0.02425
G1 X105.779 Y122.518 E0.03265
G1 X105.115 Y120.501 E0.06659
G1 X104.806 Y118.729 E0.05641
G1 X104.803 Y116.296 E0.07629
G1 X105.080 Y114.633 E0.05286
G1 X105.749 Y112.554 E0.06845
G1 X106.187 Y111.612 E0.03258
G1 X106.570 Y110.936 E0.02438
G1 X107.848 Y109.169 E0.06837
G1 X109.007 Y107.991 E0.05180
G1 X109.274 Y108.255 F9000.000
G1 F1200.000
G1 X111.171 Y106.864 E0.07376
G1 X112.695 Y106.103 E0.05340
G1 X114.700 Y105.448 E0.06612
G1 X115.668 Y105.259 E0.03094
G1 X116.396 Y105.177 E0.02298
G1 X118.475 Y105.170 E0.06517
G1 X120.210 Y105.427 E0.05500
G1 X122.287 Y106.092 E0.06837
G1 X122.945 Y106.386 E0.02258
G1 X123.829 Y106.866 E0.03155
G1 X125.574 Y108.127 E0.06750
G1 X126.756 Y109.285 E0.05189
G1 X128.077 Y111.081 E0.06989
G1 X128.440 Y111.712 E0.02284
G1 X128.869 Y112.616 E0.03137
G1 X129.525 Y114.612 E0.06588
G1 X129.818 Y116.298 E0.05363
G1 X129.821 Y118.677 E0.07460
G1 X129.557 Y120.270 E0.05063
G1 X128.897 Y122.317 E0.06745
G1 X128.476 Y123.220 E0.03123
G1 X128.114 Y123.857 E0.02298
G1 X126.852 Y125.601 E0.06750
G1 X125.698 Y126.771 E0.05154
G1 X123.919 Y128.077 E0.06918
G1 X123.288 Y128.440 E0.02284
G1 X122.384 Y128.869 E0.03137
G1 X120.388 Y129.525 E0.06588
G1 X118.700 Y129.818 E0.05370
G1 X116.323 Y129.821 E0.07454
G1 X114.730 Y129.557 E0.05062
G1 X112.683 Y128.897 E0.06745
G1 X111.783 Y128.477 E0.03116
G1 X111.147 Y128.117 E0.02291
G1 X109.398 Y126.853 E0.06764
G1 X108.222 Y125.691 E0.05184
G1 X106.923 Y123.918 E0.06892
G1 X106.559 Y123.285 E0.02290
G1 X106.131 Y122.384 E0.03127
G1 X105.474 Y120.384 E0.06600
G1 X105.182 Y118.700 E0.05358
G1 X105.179 Y116.323 E0.07454
G1 X105.442 Y114.738 E0.05036
G1 X106.103 Y112.684 E0.06766
G1 X106.523 Y111.783 E0.03120
G1 X106.883 Y111.147 E0.02291
G1 X108.147 Y109.398 E0.06764
G1 X109.232 Y108.298 E0.04846
G1 E-3.50000 F3600.00000
G1 F7200.000
G1 X111.171 Y106.864 E-1.14555
G1 X111.698 Y106.601 E-0.27945
G1 E-0.07500 F3600.00000
G1 X120.031 Y110.880 F9000.000
G1 E5.00000 F2400.00000
G1 F1200.000
G1 X119.973 Y111.399 E0.01638
G1 X120.574 Y111.674 E0.02073
G1 X121.233 Y112.071 E0.02413
G1 X121.896 Y112.594 E0.02647
G1 X122.441 Y113.144 E0.02429
G1 X122.921 Y113.757 E0.02439
G1 X123.328 Y114.427 E0.02460
G1 X123.653 Y115.145 E0.02471
G1 X123.900 Y115.939 E0.02608
G1 X124.041 Y116.715 E0.02472
G1 X124.087 Y117.501 E0.02467
G1 X124.034 Y118.328 E0.02600
G1 X123.900 Y119.060 E0.02332
G1 X123.670 Y119.812 E0.02466
G1 X123.328 Y120.572 E0.02612
G1 X122.946 Y121.202 E0.02311
G1 X122.399 Y121.903 E0.02790
G1 X121.844 Y122.452 E0.02447
G1 X121.296 Y122.882 E0.02182
G1 X120.668 Y123.272 E0.02320
G1 X119.978 Y123.599 E0.02393
G1 X120.037 Y124.117 E0.01634
G1 X118.029 Y124.573 E0.06456
G1 X115.921 Y124.416 E0.06629
G1 X114.920 Y124.022 E0.03370
G1 X115.002 Y123.590 E0.01381
G1 X114.426 Y123.326 E0.01988
G1 X113.768 Y122.929 E0.02409
G1 X113.105 Y122.406 E0.02648
G1 X112.559 Y121.857 E0.02428
G1 X112.079 Y121.243 E0.02444
G1 X111.672 Y120.573 E0.02459
G1 X111.347 Y119.855 E0.02471
G1 X111.100 Y119.061 E0.02608
G1 X110.959 Y118.285 E0.02471
G1 X110.914 Y117.540 E0.02340
G1 X110.966 Y116.673 E0.02724
G1 X111.100 Y115.940 E0.02337
G1 X111.330 Y115.188 E0.02466
G1 X111.672 Y114.428 E0.02612
G1 X112.054 Y113.798 E0.02311
G1 X112.601 Y113.097 E0.02790
G1 X113.156 Y112.548 E0.02447
G1 X113.704 Y112.118 E0.02185
G1 X114.420 Y111.677 E0.02635
G1 X115.000 Y111.411 E0.02002
G1 X114.917 Y110.979 E0.01379
G1 X115.921 Y110.584 E0.03382
G1 X118.006 Y110.428 E0.06558
G1 X119.972 Y110.867 E0.06315
G1 X119.619 Y111.174 F9000.000
G1 F1200.000
G1 X119.567 Y111.635 E0.01454
G1 X119.513 Y111.635 E0.00169
G1 X119.752 Y111.713 E0.00789
G1 X120.398 Y112.008 E0.02225
G1 X121.018 Y112.382 E0.02272
G1 X121.644 Y112.876 E0.02501
G1 X122.158 Y113.394 E0.02287
G1 X122.610 Y113.971 E0.02300
G1 X122.994 Y114.604 E0.02319
G1 X123.300 Y115.280 E0.02327
G1 X123.533 Y116.029 E0.02463
G1 X123.666 Y116.760 E0.02328
G1 X123.709 Y117.500 E0.02323
G1 X123.659 Y118.282 E0.02458
G1 X123.533 Y118.970 E0.02194
G1 X123.316 Y119.678 E0.02323
G1 X122.994 Y120.396 E0.02466
G1 X122.635 Y120.987 E0.02168
G1 X122.116 Y121.652 E0.02644
G1 X121.594 Y122.169 E0.02303
G1 X121.080 Y122.572 E0.02049
G1 X120.481 Y122.944 E0.02211
G1 X120.260 Y123.059 E0.00782
G1 X119.752 Y123.287 E0.01746
G1 X119.517 Y123.363 E0.00773
G1 X119.572 Y123.363 E0.00173
G1 X119.624 Y123.824 E0.01452
G1 X118.001 Y124.193 E0.05220
G1 X116.006 Y124.044 E0.06273
G1 X115.349 Y123.786 E0.02212
G1 X115.429 Y123.364 E0.01345
G1 X115.486 Y123.364 E0.00177
G1 X115.248 Y123.287 E0.00784
G1 X114.602 Y122.992 E0.02225
G1 X113.983 Y122.618 E0.02268
G1 X113.356 Y122.124 E0.02503
G1 X112.842 Y121.608 E0.02285
G1 X112.390 Y121.029 E0.02303
G1 X112.006 Y120.396 E0.02318
G1 X111.700 Y119.720 E0.02327
G1 X111.467 Y118.971 E0.02463
G1 X111.334 Y118.240 E0.02327
G1 X111.292 Y117.540 E0.02198
G1 X111.341 Y116.719 E0.02581
G1 X111.467 Y116.030 E0.02196
G1 X111.684 Y115.322 E0.02323
G1 X112.006 Y114.604 E0.02466
G1 X112.365 Y114.013 E0.02168
G1 X112.884 Y113.348 E0.02644
G1 X113.406 Y112.831 E0.02303
G1 X113.920 Y112.428 E0.02050
G1 X114.600 Y112.009 E0.02503
G1 X115.248 Y111.713 E0.02234
G1 X115.482 Y111.637 E0.00771
G1 X115.427 Y111.637 E0.00171
G1 X115.346 Y111.215 E0.01346
G1 X116.006 Y110.956 E0.02221
G1 X117.979 Y110.809 E0.06204
G1 X119.560 Y111.161 E0.05079
G1 X120.017 Y111.212 F9000.000
G1 E-3.50000 F3600.00000
G1 F7200.000
G1 X119.567 Y111.635 E-0.22515
G1 X119.513 Y111.635 E-0.02566
G1 X119.752 Y111.713 E-0.11958
G1 X120.398 Y112.008 E-0.33701
G1 X121.018 Y112.382 E-0.34415
G1 X121.635 Y112.869 E-0.37345
G1 E-0.07500 F3600.00000
G1 X118.998 Y108.212 F9000.000
G1 E5.00000 F2400.00000
G1 F1200.000
G1 X119.024 Y108.369 E0.00499
G1 X119.109 Y108.619 E0.00828
G1 X119.237 Y108.855 E0.00842
G1 X119.405 Y109.068 E0.00849
G1 X119.603 Y109.246 E0.00835
G1 X119.828 Y109.389 E0.00836
G1 X120.076 Y109.494 E0.00844
G1 X120.339 Y109.554 E0.00849
G1 X120.608 Y109.570 E0.00845
G1 X120.875 Y109.538 E0.00840
G1 X121.131 Y109.466 E0.00837
G1 X121.373 Y109.348 E0.00841
G1 X121.589 Y109.196 E0.00829
G1 X121.702 Y109.083 E0.00501
G1 X121.794 Y109.127 E0.00321
G1 X121.769 Y109.286 E0.00506
G1 X121.775 Y109.552 E0.00835
G1 X121.823 Y109.816 E0.00838
G1 X121.918 Y110.070 E0.00852
G1 X122.051 Y110.301 E0.00837
G1 X122.221 Y110.506 E0.00835
G1 X122.424 Y110.683 E0.00843
G1 X122.656 Y110.820 E0.00845
G1 X122.902 Y110.918 E0.00831
G1 X123.167 Y110.972 E0.00848
G1 X123.436 Y110.982 E0.00845
G1 X123.702 Y110.944 E0.00841
G1 X123.956 Y110.865 E0.00833
G1 X124.100 Y110.792 E0.00506
G1 X124.171 Y110.866 E0.00322
G1 X124.101 Y111.007 E0.00493
G1 X124.021 Y111.260 E0.00833
G1 X123.987 Y111.527 E0.00843
G1 X123.996 Y111.796 E0.00845
G1 X124.054 Y112.061 E0.00849
G1 X124.152 Y112.308 E0.00835
G1 X124.291 Y112.536 E0.00836
G1 X124.464 Y112.737 E0.00832
G1 X124.674 Y112.912 E0.00858
G1 X124.910 Y113.043 E0.00846
G1 X125.158 Y113.134 E0.00829
G1 X125.423 Y113.181 E0.00843
G1 X125.688 Y113.185 E0.00833
G1 X125.849 Y113.160 E0.00509
G1 X125.893 Y113.251 E0.00319
G1 X125.780 Y113.366 E0.00506
G1 X125.630 Y113.585 E0.00831
G1 X125.513 Y113.826 E0.00839
G1 X125.442 Y114.086 E0.00846
G1 X125.414 Y114.349 E0.00829
G1 X125.430 Y114.615 E0.00836
G1 X125.491 Y114.877 E0.00843
G1 X125.596 Y115.127 E0.00852
G1 X125.743 Y115.354 E0.00847
G1 X125.923 Y115.549 E0.00831
G1 X126.133 Y115.714 E0.00839
G1 X126.371 Y115.842 E0.00848
G1 X126.625 Y115.927 E0.00838
G1 X126.779 Y115.951 E0.00491
G1 X126.798 Y116.052 E0.00321
G1 X126.653 Y116.127 E0.00511
G1 X126.442 Y116.288 E0.00833
G1 X126.259 Y116.480 E0.00831
G1 X126.111 Y116.702 E0.00836
G1 X125.999 Y116.947 E0.00845
G1 X125.932 Y117.209 E0.00848
G1 X125.910 Y117.479 E0.00848
G1 X125.935 Y117.744 E0.00837
G1 X126.001 Y118.003 E0.00836
G1 X126.113 Y118.248 E0.00846
G1 X126.263 Y118.472 E0.00844
G1 X126.450 Y118.665 E0.00844
G1 X126.664 Y118.825 E0.00836
G1 X126.806 Y118.896 E0.00498
G1 X126.788 Y118.998 E0.00325
G1 X126.631 Y119.024 E0.00499
G1 X126.383 Y119.109 E0.00822
G1 X126.142 Y119.237 E0.00854
G1 X125.931 Y119.407 E0.00850
G1 X125.754 Y119.603 E0.00828
G1 X125.611 Y119.828 E0.00836
G1 X125.506 Y120.076 E0.00844
G1 X125.446 Y120.339 E0.00849
G1 X125.430 Y120.608 E0.00845
G1 X125.462 Y120.875 E0.00841
G1 X125.534 Y121.128 E0.00826
G1 X125.649 Y121.373 E0.00848
G1 X125.806 Y121.591 E0.00843
G1 X125.917 Y121.702 E0.00492
G1 X125.873 Y121.794 E0.00321
G1 X125.714 Y121.769 E0.00506
G1 X125.448 Y121.775 E0.00835
G1 X125.184 Y121.823 E0.00838
G1 X124.930 Y121.918 E0.00852
G1 X124.699 Y122.051 E0.00837
G1 X124.494 Y122.221 E0.00835
G1 X124.317 Y122.424 E0.00843
G1 X124.180 Y122.656 E0.00845
G1 X124.082 Y122.902 E0.00829
G1 X124.028 Y123.167 E0.00848
G1 X124.018 Y123.436 E0.00845
G1 X124.056 Y123.702 E0.00841
G1 X124.135 Y123.956 E0.00833
G1 X124.208 Y124.100 E0.00506
G1 X124.134 Y124.171 E0.00322
G1 X123.993 Y124.101 E0.00493
G1 X123.740 Y124.021 E0.00833
G1 X123.473 Y123.987 E0.00843
G1 X123.204 Y123.996 E0.00845
G1 X122.939 Y124.054 E0.00849
G1 X122.693 Y124.151 E0.00829
G1 X122.462 Y124.291 E0.00848
G1 X122.262 Y124.466 E0.00833
G1 X122.088 Y124.674 E0.00850
G1 X121.957 Y124.910 E0.00846
G1 X121.866 Y125.158 E0.00829
G1 X121.819 Y125.423 E0.00843
G1 X121.815 Y125.688 E0.00833
G1 X121.840 Y125.849 E0.00509
G1 X121.749 Y125.893 E0.00319
G1 X121.635 Y125.781 E0.00500
G1 X121.418 Y125.630 E0.00830
G1 X121.173 Y125.513 E0.00851
G1 X120.914 Y125.442 E0.00842
G1 X120.651 Y125.414 E0.00829
G1 X120.385 Y125.430 E0.00836
G1 X120.123 Y125.491 E0.00843
G1 X119.873 Y125.596 E0.00852
G1 X119.646 Y125.743 E0.00847
G1 X119.451 Y125.923 E0.00831
G1 X119.286 Y126.133 E0.00839
G1 X119.158 Y126.371 E0.00848
G1 X119.073 Y126.625 E0.00838
G1 X119.049 Y126.779 E0.00491
G1 X118.948 Y126.798 E0.00321
G1 X118.873 Y126.653 E0.00511
G1 X118.712 Y126.442 E0.00833
G1 X118.520 Y126.259 E0.00831
G1 X118.298 Y126.111 E0.00836
G1 X118.053 Y125.999 E0.00845
G1 X117.791 Y125.932 E0.00848
G1 X117.521 Y125.910 E0.00848
G1 X117.256 Y125.935 E0.00837
G1 X116.997 Y126.001 E0.00836
G1 X116.752 Y126.113 E0.00846
G1 X116.528 Y126.263 E0.00844
G1 X116.335 Y126.450 E0.00844
G1 X116.175 Y126.664 E0.00836
G1 X116.104 Y126.806 E0.00498
G1 X116.003 Y126.788 E0.00322
G1 X115.979 Y126.631 E0.00499
G1 X115.890 Y126.380 E0.00835
G1 X115.763 Y126.142 E0.00844
G1 X115.593 Y125.931 E0.00850
G1 X115.396 Y125.753 E0.00834
G1 X115.170 Y125.611 E0.00836
G1 X114.926 Y125.507 E0.00832
G1 X114.661 Y125.446 E0.00853
G1 X114.392 Y125.430 E0.00845
G1 X114.125 Y125.462 E0.00841
G1 X113.872 Y125.534 E0.00826
G1 X113.629 Y125.648 E0.00842
G1 X113.407 Y125.806 E0.00856
G1 X113.298 Y125.917 E0.00485
G1 X113.206 Y125.872 E0.00322
G1 X113.229 Y125.714 E0.00502
G1 X113.225 Y125.451 E0.00823
G1 X113.177 Y125.184 E0.00850
G1 X113.082 Y124.930 E0.00852
G1 X112.949 Y124.699 E0.00837
G1 X112.777 Y124.492 E0.00842
G1 X112.573 Y124.317 E0.00842
G1 X112.345 Y124.181 E0.00833
G1 X112.098 Y124.082 E0.00835
G1 X111.833 Y124.028 E0.00849
G1 X111.561 Y124.018 E0.00852
G1 X111.298 Y124.057 E0.00835
G1 X111.044 Y124.135 E0.00831
G1 X110.900 Y124.208 E0.00506
G1 X110.829 Y124.134 E0.00322
G1 X110.899 Y123.993 E0.00493
G1 X110.979 Y123.740 E0.00833
G1 X111.013 Y123.473 E0.00843
G1 X111.004 Y123.204 E0.00845
G1 X110.946 Y122.939 E0.00849
G1 X110.849 Y122.693 E0.00829
G1 X110.709 Y122.462 E0.00848
G1 X110.534 Y122.262 E0.00833
G1 X110.326 Y122.088 E0.00850
G1 X110.090 Y121.957 E0.00846
G1 X109.841 Y121.866 E0.00829
G1 X109.577 Y121.819 E0.00843
G1 X109.312 Y121.815 E0.00833
G1 X109.151 Y121.840 E0.00509
G1 X109.106 Y121.748 E0.00322
G1 X109.217 Y121.637 E0.00491
G1 X109.370 Y121.418 E0.00838
G1 X109.486 Y121.176 E0.00842
G1 X109.560 Y120.914 E0.00854
G1 X109.586 Y120.647 E0.00839
G1 X109.570 Y120.385 E0.00824
G1 X109.509 Y120.123 E0.00843
G1 X109.404 Y119.873 E0.00852
G1 X109.257 Y119.646 E0.00847
G1 X109.077 Y119.451 E0.00831
G1 X108.867 Y119.286 E0.00838
G1 X108.628 Y119.158 E0.00849
G1 X108.375 Y119.073 E0.00838
G1 X108.221 Y119.049 E0.00491
G1 X108.202 Y118.948 E0.00321
G1 X108.345 Y118.873 E0.00505
G1 X108.561 Y118.712 E0.00845
G1 X108.742 Y118.517 E0.00834
G1 X108.889 Y118.298 E0.00827
G1 X109.001 Y118.053 E0.00845
G1 X109.069 Y117.787 E0.00859
G1 X109.088 Y117.521 E0.00836
G1 X109.066 Y117.259 E0.00825
G1 X108.999 Y116.997 E0.00848
G1 X108.887 Y116.752 E0.00845
G1 X108.737 Y116.528 E0.00844
G1 X108.550 Y116.335 E0.00844
G1 X108.336 Y116.175 E0.00836
G1 X108.194 Y116.104 E0.00498
G1 X108.212 Y116.003 E0.00322
G1 X108.369 Y115.979 E0.00498
G1 X108.622 Y115.889 E0.00841
G1 X108.855 Y115.763 E0.00831
G1 X109.068 Y115.595 E0.00849
G1 X109.247 Y115.396 E0.00841
G1 X109.389 Y115.170 E0.00836
G1 X109.493 Y114.926 E0.00832
G1 X109.554 Y114.661 E0.00853
G1 X109.570 Y114.392 E0.00845
G1 X109.538 Y114.125 E0.00841
G1 X109.466 Y113.869 E0.00837
G1 X109.349 Y113.629 E0.00835
G1 X109.196 Y113.409 E0.00842
G1 X109.083 Y113.298 E0.00494
G1 X109.128 Y113.206 E0.00322
G1 X109.286 Y113.229 E0.00502
G1 X109.549 Y113.225 E0.00823
G1 X109.816 Y113.177 E0.00850
G1 X110.070 Y113.082 E0.00852
G1 X110.301 Y112.949 E0.00837
G1 X110.508 Y112.777 E0.00842
G1 X110.683 Y112.573 E0.00842
G1 X110.819 Y112.346 E0.00832
G1 X110.918 Y112.098 E0.00837
G1 X110.972 Y111.833 E0.00848
G1 X110.982 Y111.561 E0.00852
G1 X110.943 Y111.298 E0.00835
G1 X110.865 Y111.044 E0.00831
G1 X110.792 Y110.900 E0.00506
G1 X110.866 Y110.829 E0.00322
G1 X111.007 Y110.899 E0.00493
G1 X111.260 Y110.979 E0.00833
G1 X111.527 Y111.013 E0.00843
G1 X111.796 Y111.004 E0.00845
G1 X112.061 Y110.946 E0.00849
G1 X112.308 Y110.848 E0.00835
G1 X112.536 Y110.709 E0.00836
G1 X112.737 Y110.536 E0.00832
G1 X112.912 Y110.326 E0.00858
G1 X113.043 Y110.090 E0.00846
