;FLAVOR:Marlin
;TIME:7041
;Filament used: 4.47216m
;Layer height: 0.2
;MINX:54.911
;MINY:104.699
;MINZ:0.2
;MAXX:180.089
;MAXY:130.205
;MAXZ:20
;Generated with Cura_SteamEngine 4.7.1
M140 S50
M105
M190 S50
M104 S200
M105
M109 S200
M82 ;absolute extrusion mode
; Ender 3 Custom Start G-code
G92 E0 ; Reset Extruder
G28 ; Home all axes
G1 Z2.0 F3000 ; Move Z Axis up little to prevent scratching of Heat Bed
G1 X0.1 Y20 Z0.3 F5000.0 ; Move to start position
G1 X0.1 Y200.0 Z0.3 F1500.0 E15 ; Draw the first line
G1 X0.4 Y200.0 Z0.3 F5000.0 ; Move to side a little
G1 X0.4 Y20 Z0.3 F1500.0 E30 ; Draw the second line
G92 E0 ; Reset Extruder
G1 Z2.0 F3000 ; Move Z Axis up little to prevent scratching of Heat Bed
G1 X5 Y20 Z0.3 F5000.0 ; Move over to prevent blob squish
G92 E0
G92 E0
G1 F2700 E-5
;LAYER_COUNT:100
;LAYER:0
M107
G0 F6000 X59.332 Y106.005 Z0.2
;TYPE:SKIRT
G1 F2700 E0
G1 F1200 X60.037 Y105.648 E0.02628
G1 X60.774 Y105.365 E0.05254
G1 X61.536 Y105.157 E0.07881
G1 X62.315 Y105.028 E0.10508
G1 X62.709 Y104.993 E0.11823
G1 X62.923 Y104.979 E0.12536
G1 X63.3 Y104.938 E0.13798
G1 X64.152 Y104.891 E0.16636
G1 X64.313 Y104.891 E0.17171
G1 X65.102 Y104.931 E0.19799
G1 X65.882 Y105.05 E0.22423
G1 X66.009 Y105.083 E0.2286
G1 X66.998 Y105.083 E0.26149
G1 X67.188 Y105.068 E0.26783
G1 X67.219 Y105.062 E0.26888
G1 X68.059 Y104.951 E0.29706
G1 X68.059 Y104.955 E0.29719
G1 X68.332 Y104.913 E0.30638
G1 X68.983 Y104.881 E0.32806
G1 X69.321 Y104.824 E0.33946
G1 X70.109 Y104.771 E0.36573
G1 X70.898 Y104.798 E0.39199
G1 X71.083 Y104.823 E0.39819
G1 X71.097 Y104.823 E0.39866
G1 X71.885 Y104.882 E0.42494
G1 X72.147 Y104.935 E0.43383
G1 X72.148 Y104.928 E0.43407
G1 X73.503 Y105.133 E0.47965
G1 X74.277 Y105.29 E0.50592
G1 X74.694 Y105.42 E0.52044
G1 X74.985 Y105.369 E0.53027
G1 X76.156 Y105.281 E0.56933
G1 X78.413 Y105.282 E0.6444
G1 X78.591 Y105.24 E0.65048
G1 X79.374 Y105.137 E0.67675
G1 X80.163 Y105.115 E0.703
G1 X80.951 Y105.172 E0.72928
G1 X81.656 Y105.296 E0.75308
G1 X82.187 Y105.175 E0.7712
G1 X83.26 Y105.062 E0.80708
G1 X84.864 Y105.005 E0.86047
G1 X85.181 Y105.01 E0.87101
G1 X85.479 Y104.953 E0.8811
G1 X86.266 Y104.885 E0.90738
G1 X87.055 Y104.897 E0.93362
G1 X87.17 Y104.91 E0.93747
G1 X87.29 Y104.906 E0.94146
G1 X89.758 Y104.899 E1.02355
G1 X89.966 Y104.909 E1.03048
G1 X90.312 Y104.899 E1.04199
G1 X90.471 Y104.896 E1.04728
G1 X90.936 Y104.892 E1.06275
G1 X91.195 Y104.903 E1.07137
G1 X91.571 Y104.886 E1.08389
G1 X91.956 Y104.888 E1.09669
G1 X92.129 Y104.883 E1.10245
G1 X92.375 Y104.889 E1.11063
G1 X92.452 Y104.885 E1.1132
G1 X92.685 Y104.886 E1.12095
G1 X92.865 Y104.878 E1.12694
G1 X93.654 Y104.882 E1.15318
G1 X93.689 Y104.886 E1.15435
G1 X93.971 Y104.88 E1.16373
G1 X94.041 Y104.886 E1.16607
G1 X94.535 Y104.88 E1.1825
G1 X94.594 Y104.885 E1.18447
G1 X94.753 Y104.878 E1.18977
G1 X94.958 Y104.889 E1.19659
G1 X95.346 Y104.873 E1.20951
G1 X95.58 Y104.887 E1.21731
G1 X95.932 Y104.873 E1.22902
G1 X96.128 Y104.885 E1.23555
G1 X96.35 Y104.872 E1.24295
G1 X96.734 Y104.889 E1.25574
G1 X96.972 Y104.875 E1.26367
G1 X97.255 Y104.888 E1.27309
G1 X97.45 Y104.873 E1.27959
G1 X97.989 Y104.888 E1.29753
G1 X98.127 Y104.878 E1.30213
G1 X98.576 Y104.89 E1.31707
G1 X98.766 Y104.876 E1.3234
G1 X99.415 Y104.893 E1.345
G1 X99.832 Y104.879 E1.35887
G1 X99.978 Y104.889 E1.36374
G1 X100.775 Y104.881 E1.39025
G1 X100.913 Y104.896 E1.39487
G1 X101.45 Y104.88 E1.41274
G1 X101.683 Y104.902 E1.42052
G1 X102.208 Y104.879 E1.438
G1 X102.525 Y104.905 E1.44858
G1 X103.004 Y104.876 E1.46454
G1 X103.603 Y104.902 E1.48448
G1 X103.835 Y104.882 E1.49223
G1 X104.625 Y104.896 E1.51851
G1 X104.721 Y104.905 E1.52171
G1 X105.003 Y104.883 E1.53112
G1 X105.792 Y104.901 E1.55737
G1 X105.846 Y104.906 E1.55917
G1 X106.054 Y104.888 E1.56612
G1 X106.843 Y104.898 E1.59236
G1 X107.163 Y104.926 E1.60305
G1 X107.699 Y104.888 E1.62092
G1 X108.561 Y104.918 E1.64961
G1 X108.695 Y104.93 E1.65408
G1 X108.955 Y104.902 E1.66278
G1 X109.953 Y104.91 E1.69597
G1 X110.574 Y104.954 E1.71668
G1 X110.699 Y104.935 E1.72088
G1 X111.487 Y104.893 E1.74713
G1 X111.939 Y104.905 E1.76217
G1 X112.809 Y104.953 E1.79115
G1 X113.277 Y104.969 E1.80672
G1 X114.046 Y105.023 E1.83236
G1 X114.246 Y104.984 E1.83914
G1 X115.032 Y104.909 E1.8654
G1 X115.508 Y104.907 E1.88123
G1 X115.508 Y104.904 E1.88133
G1 X117.528 Y104.923 E1.94852
G1 X119.398 Y104.905 E2.01072
G1 X119.483 Y104.902 E2.01355
G1 X120.272 Y104.916 E2.0398
G1 X121.056 Y105.01 E2.06606
G1 X121.105 Y105.021 E2.06773
G1 X122.408 Y104.921 E2.1112
G1 X122.621 Y104.907 E2.1183
G1 X122.925 Y104.892 E2.12842
G1 X123.714 Y104.894 E2.15466
G1 X124.346 Y104.958 E2.17579
G1 X124.867 Y104.915 E2.19318
G1 X125.656 Y104.889 E2.21943
G1 X126.35 Y104.937 E2.24257
G1 X126.468 Y104.925 E2.24652
G1 X127.256 Y104.882 E2.27276
G1 X127.964 Y104.915 E2.29634
G1 X128.488 Y104.884 E2.3138
G1 X129.225 Y104.916 E2.33833
G1 X129.775 Y104.883 E2.35666
G1 X130.347 Y104.907 E2.3757
G1 X130.609 Y104.884 E2.38445
G1 X131.399 Y104.895 E2.41073
G1 X131.438 Y104.9 E2.41203
G1 X131.632 Y104.884 E2.41851
G1 X132.428 Y104.899 E2.44499
G1 X133.098 Y104.886 E2.46728
G1 X133.177 Y104.894 E2.46992
G1 X133.204 Y104.891 E2.47082
G1 X133.994 Y104.884 E2.4971
G1 X134.039 Y104.889 E2.4986
G1 X134.821 Y104.882 E2.52461
G1 X134.961 Y104.895 E2.52929
G1 X135.363 Y104.877 E2.54267
G1 X135.576 Y104.892 E2.54978
G1 X136.067 Y104.871 E2.56612
G1 X136.328 Y104.89 E2.57483
G1 X136.697 Y104.873 E2.58711
G1 X136.977 Y104.895 E2.59645
G1 X137.422 Y104.876 E2.61127
G1 X137.634 Y104.891 E2.61834
G1 X138.019 Y104.872 E2.63116
G1 X138.317 Y104.888 E2.64108
G1 X138.587 Y104.874 E2.65007
G1 X138.836 Y104.887 E2.65837
G1 X138.95 Y104.878 E2.66217
G1 X139.21 Y104.885 E2.67082
G1 X140.011 Y104.875 E2.69747
G1 X140.146 Y104.885 E2.70197
G1 X140.421 Y104.877 E2.71112
G1 X140.812 Y104.899 E2.72414
G1 X141.079 Y104.878 E2.73305
G1 X141.428 Y104.885 E2.74466
G1 X142.052 Y104.882 E2.76542
G1 X142.307 Y104.892 E2.7739
G1 X142.436 Y104.882 E2.77821
G1 X142.982 Y104.888 E2.79637
G1 X143.033 Y104.89 E2.79807
G1 X143.17 Y104.884 E2.80263
G1 X144.17 Y104.893 E2.83589
G1 X144.226 Y104.889 E2.83776
G1 X144.721 Y104.896 E2.85422
G1 X144.865 Y104.903 E2.85902
G1 X145.092 Y104.898 E2.86657
G1 X145.731 Y104.901 E2.88782
G1 X145.941 Y104.905 E2.89481
G1 X146.22 Y104.914 E2.90409
G1 X150.007 Y104.884 E3.03005
G1 X150.488 Y104.787 E3.04637
G1 X151.649 Y104.7 E3.0851
G1 X155.425 Y104.699 E3.21069
G1 X156.214 Y104.739 E3.23696
G1 X156.994 Y104.858 E3.2632
G1 X157.759 Y105.056 E3.28949
G1 X158.369 Y105.282 E3.31112
G1 X158.85 Y105.282 E3.32712
G1 X160.015 Y105.37 E3.36598
G1 X160.048 Y105.375 E3.36709
G1 X160.239 Y105.419 E3.37361
G1 X160.443 Y105.331 E3.381
G1 X161.196 Y105.094 E3.40725
G1 X161.969 Y104.933 E3.43352
G1 X162.754 Y104.852 E3.45976
G1 X163.445 Y104.85 E3.48275
G1 X163.512 Y104.842 E3.48499
G1 X163.836 Y104.835 E3.49577
G1 X164.246 Y104.787 E3.5095
G1 X165.035 Y104.774 E3.53575
G1 X165.822 Y104.84 E3.56201
G1 X166.083 Y104.888 E3.57084
G1 X166.296 Y104.888 E3.57792
G1 X166.939 Y104.947 E3.5994
G1 X167.729 Y105.053 E3.62591
G1 X168.09 Y105.082 E3.63796
G1 X168.997 Y105.082 E3.66812
G1 X169.192 Y105.034 E3.6748
G1 X169.974 Y104.923 E3.70107
G1 X170.674 Y104.892 E3.72438
G1 X170.851 Y104.892 E3.73027
G1 X171.665 Y104.935 E3.75738
G1 X172.06 Y104.976 E3.77059
G1 X172.353 Y104.997 E3.78036
G1 X173.137 Y105.092 E3.80662
G1 X173.907 Y105.266 E3.83288
G1 X174.656 Y105.517 E3.85915
G1 X175.376 Y105.842 E3.88543
G1 X176.059 Y106.238 E3.91168
G1 X176.488 Y106.538 E3.9291
G1 X176.749 Y106.737 E3.94001
G1 X176.938 Y106.887 E3.94804
G1 X177.531 Y107.409 E3.97431
G1 X178.068 Y107.988 E4.00058
G1 X178.647 Y108.775 E4.03308
G1 X178.788 Y108.994 E4.04174
G1 X179.182 Y109.678 E4.06799
G1 X179.406 Y110.159 E4.08564
G1 X179.429 Y110.213 E4.08759
G1 X179.701 Y110.955 E4.11388
G1 X179.942 Y111.958 E4.14819
G1 X179.978 Y112.169 E4.15531
G1 X180.071 Y112.953 E4.18157
G1 X180.089 Y113.481 E4.19914
G1 X180.089 Y121.497 E4.46575
G1 X180.049 Y122.286 E4.49203
G1 X179.987 Y122.754 E4.50773
G1 X179.947 Y122.999 E4.51598
G1 X179.781 Y123.771 E4.54225
G1 X179.568 Y124.439 E4.56557
G1 X179.554 Y124.477 E4.56691
G1 X179.244 Y125.203 E4.59317
G1 X178.762 Y126.051 E4.62561
G1 X178.62 Y126.268 E4.63424
G1 X178.154 Y126.906 E4.66052
G1 X177.627 Y127.494 E4.68678
G1 X177.014 Y128.049 E4.71428
G1 X176.907 Y128.136 E4.71887
G1 X176.753 Y128.258 E4.7254
G1 X176.573 Y128.397 E4.73297
G1 X175.925 Y128.847 E4.75921
G1 X175.234 Y129.229 E4.78547
G1 X174.508 Y129.54 E4.81174
G1 X173.754 Y129.776 E4.83801
G1 X172.98 Y129.934 E4.86429
G1 X172.3 Y130.007 E4.88704
G1 X172.086 Y130.021 E4.89417
G1 X171.709 Y130.062 E4.90678
G1 X170.857 Y130.109 E4.93516
G1 X170.687 Y130.109 E4.94082
G1 X169.898 Y130.069 E4.96709
G1 X169.118 Y129.95 E4.99334
G1 X168.99 Y129.917 E4.99773
G1 X167.991 Y129.917 E5.03096
G1 X167.79 Y129.931 E5.03766
G1 X167.722 Y129.946 E5.03998
G1 X166.979 Y130.048 E5.06492
G1 X166.978 Y130.041 E5.06516
G1 X166.745 Y130.079 E5.07301
G1 X165.956 Y130.126 E5.0993
G1 X165.742 Y130.112 E5.10643
G1 X165.288 Y130.142 E5.12156
G1 X164.989 Y130.129 E5.13152
G1 X164.933 Y130.138 E5.1334
G1 X164.145 Y130.185 E5.15966
G1 X163.356 Y130.151 E5.18593
G1 X162.574 Y130.039 E5.2122
G1 X162.404 Y129.997 E5.21802
G1 X162.073 Y129.958 E5.22911
G1 X161.302 Y129.787 E5.25538
G1 X161.089 Y129.722 E5.26278
G1 X160.457 Y129.6 E5.28419
G1 X160.354 Y129.572 E5.28774
G1 X160.015 Y129.631 E5.29919
G1 X158.844 Y129.719 E5.33824
G1 X156.61 Y129.718 E5.41255
G1 X156.397 Y129.768 E5.41982
G1 X155.614 Y129.869 E5.44608
G1 X154.824 Y129.89 E5.47237
G1 X154.037 Y129.831 E5.49862
G1 X153.369 Y129.712 E5.52118
G1 X152.653 Y129.886 E5.54569
G1 X151.871 Y129.993 E5.57194
G1 X151.305 Y130.021 E5.59079
G1 X147.426 Y130.072 E5.71982
G1 X147.143 Y130.081 E5.72924
G1 X146.958 Y130.085 E5.73539
G1 X145.205 Y130.102 E5.7937
G1 X144.937 Y130.091 E5.80262
G1 X144.586 Y130.103 E5.8143
G1 X144.408 Y130.107 E5.82022
G1 X143.992 Y130.112 E5.83406
G1 X143.753 Y130.103 E5.84201
G1 X143.353 Y130.116 E5.85533
G1 X142.998 Y130.11 E5.86713
G1 X142.968 Y130.111 E5.86813
G1 X142.744 Y130.109 E5.87558
G1 X142.659 Y130.113 E5.87841
G1 X142.4 Y130.111 E5.88703
G1 X142.094 Y130.16 E5.89734
G1 X141.306 Y130.205 E5.92359
G1 X140.517 Y130.17 E5.94986
G1 X140.126 Y130.118 E5.96297
G1 X139.873 Y130.117 E5.97139
G1 X139.851 Y130.115 E5.97212
G1 X139.777 Y130.119 E5.97459
G1 X139.53 Y130.108 E5.98281
G1 X139.257 Y130.125 E5.99191
G1 X138.905 Y130.112 E6.00363
G1 X138.706 Y130.124 E6.01026
G1 X138.403 Y130.112 E6.02034
G1 X138.254 Y130.125 E6.02532
G1 X137.692 Y130.115 E6.04401
G1 X137.575 Y130.124 E6.04792
G1 X137.058 Y130.112 E6.06512
G1 X137.009 Y130.116 E6.06675
G1 X136.463 Y130.111 E6.08491
G1 X136.341 Y130.122 E6.08899
G1 X135.562 Y130.113 E6.1149
G1 X135.157 Y130.127 E6.12838
G1 X134.948 Y130.113 E6.13534
G1 X134.157 Y130.113 E6.16165
G1 X134.099 Y130.107 E6.16359
G1 X133.61 Y130.124 E6.17986
G1 X133.357 Y130.101 E6.18831
G1 X132.746 Y130.122 E6.20865
G1 X132.448 Y130.097 E6.21859
G1 X131.983 Y130.123 E6.23408
G1 X131.407 Y130.097 E6.25326
G1 X131.22 Y130.114 E6.25951
G1 X130.43 Y130.107 E6.28578
G1 X130.295 Y130.094 E6.29029
G1 X130.043 Y130.116 E6.29871
G1 X129.253 Y130.104 E6.32499
G1 X129.151 Y130.094 E6.3284
G1 X128.945 Y130.112 E6.33527
G1 X128.156 Y130.103 E6.36152
G1 X127.836 Y130.074 E6.3722
G1 X127.301 Y130.112 E6.39004
G1 X126.449 Y130.083 E6.4184
G1 X126.307 Y130.07 E6.42314
G1 X126.019 Y130.1 E6.43277
G1 X125.063 Y130.092 E6.46457
G1 X124.388 Y130.045 E6.48707
G1 X124.219 Y130.07 E6.49276
G1 X123.038 Y130.095 E6.53204
G1 X122.101 Y130.044 E6.56325
G1 X121.723 Y130.031 E6.57583
G1 X120.954 Y129.977 E6.60147
G1 X120.754 Y130.016 E6.60825
G1 X119.968 Y130.091 E6.63451
G1 X119.492 Y130.093 E6.65035
G1 X119.492 Y130.096 E6.65044
G1 X117.472 Y130.077 E6.71763
G1 X115.602 Y130.095 E6.77983
G1 X115.517 Y130.098 E6.78266
G1 X114.728 Y130.084 E6.80891
G1 X113.944 Y129.99 E6.83517
G1 X113.895 Y129.979 E6.83684
G1 X112.592 Y130.079 E6.88031
G1 X112.379 Y130.093 E6.88741
G1 X112.075 Y130.108 E6.89753
G1 X111.286 Y130.106 E6.92377
G1 X110.654 Y130.042 E6.9449
G1 X110.133 Y130.085 E6.96229
G1 X109.344 Y130.111 E6.98854
G1 X108.65 Y130.063 E7.01168
G1 X108.532 Y130.075 E7.01563
G1 X107.744 Y130.118 E7.04187
G1 X107.036 Y130.085 E7.06545
G1 X106.512 Y130.116 E7.08291
G1 X105.775 Y130.084 E7.10744
G1 X105.225 Y130.117 E7.12577
G1 X104.653 Y130.093 E7.14481
G1 X104.391 Y130.116 E7.15356
G1 X103.601 Y130.105 E7.17984
G1 X103.559 Y130.099 E7.18125
G1 X103.37 Y130.115 E7.18756
G1 X102.586 Y130.102 E7.21364
G1 X101.907 Y130.115 E7.23622
G1 X101.83 Y130.107 E7.2388
G1 X101.033 Y130.117 E7.26531
G1 X100.978 Y130.111 E7.26715
G1 X100.2 Y130.12 E7.29303
G1 X100.038 Y130.105 E7.29844
G1 X99.618 Y130.123 E7.31242
G1 X99.388 Y130.107 E7.32009
G1 X98.913 Y130.125 E7.3359
G1 X98.685 Y130.108 E7.3435
G1 X98.243 Y130.125 E7.35821
G1 X97.994 Y130.106 E7.36652
G1 X97.638 Y130.123 E7.37837
G1 X97.421 Y130.107 E7.38561
G1 X97.063 Y130.128 E7.39754
G1 X96.793 Y130.115 E7.40653
G1 X96.725 Y130.121 E7.4088
G1 X95.935 Y130.114 E7.43508
G1 X95.868 Y130.108 E7.43731
G1 X95.106 Y130.13 E7.46267
G1 X94.792 Y130.112 E7.47313
G1 X94.499 Y130.118 E7.48288
G1 X94.4 Y130.112 E7.48618
G1 X94.16 Y130.11 E7.49416
G1 X94.111 Y130.115 E7.4958
G1 X93.589 Y130.107 E7.51316
G1 X93.463 Y130.118 E7.51737
G1 X92.856 Y130.114 E7.53756
G1 X92.753 Y130.109 E7.54099
G1 X92.554 Y130.114 E7.54761
G1 X92.266 Y130.104 E7.55719
G1 X91.992 Y130.108 E7.56631
G1 X91.918 Y130.105 E7.56877
G1 X91.827 Y130.11 E7.5718
G1 X90.595 Y130.101 E7.61278
G1 X90.394 Y130.104 E7.61946
G1 X90.202 Y130.098 E7.62585
G1 X89.262 Y130.099 E7.65712
G1 X88.906 Y130.091 E7.66896
G1 X88.755 Y130.084 E7.67399
G1 X83.89 Y130.115 E7.8358
G1 X83.101 Y130.08 E7.86207
G1 X82.32 Y129.965 E7.88833
G1 X81.554 Y129.772 E7.9146
G1 X81.479 Y129.745 E7.91725
G1 X81.451 Y129.752 E7.91821
G1 X80.669 Y129.86 E7.94447
G1 X79.88 Y129.889 E7.97073
G1 X79.092 Y129.838 E7.99699
G1 X78.384 Y129.719 E8.02087
G1 X76.15 Y129.718 E8.09517
G1 X74.985 Y129.63 E8.13403
G1 X74.952 Y129.625 E8.13514
G1 X74.738 Y129.576 E8.14244
G1 X74.563 Y129.637 E8.14861
G1 X74.103 Y129.758 E8.16443
G1 X73.474 Y129.903 E8.1859
G1 X72.697 Y130.041 E8.21214
G1 X71.984 Y130.094 E8.23592
G1 X71.562 Y130.151 E8.25009
G1 X70.773 Y130.177 E8.27634
G1 X69.985 Y130.123 E8.30261
G1 X69.938 Y130.115 E8.3042
G1 X69.645 Y130.125 E8.31395
G1 X69.474 Y130.114 E8.31965
G1 X69.459 Y130.115 E8.32015
G1 X68.669 Y130.113 E8.34643
G1 X68.013 Y130.049 E8.36835
G1 X67.397 Y129.963 E8.38904
G1 X67.254 Y129.935 E8.39388
G1 X67.016 Y129.918 E8.40182
G1 X66.003 Y129.918 E8.43551
G1 X65.808 Y129.966 E8.44219
G1 X65.026 Y130.077 E8.46846
G1 X64.326 Y130.108 E8.49176
G1 X64.12 Y130.108 E8.49862
G1 X63.312 Y130.066 E8.52553
G1 X62.971 Y130.031 E8.53693
G1 X62.621 Y130.004 E8.5486
G1 X61.838 Y129.904 E8.57486
G1 X61.068 Y129.726 E8.60114
G1 X60.321 Y129.471 E8.6274
G1 X59.354 Y129.006 E8.66308
G1 X59.303 Y128.977 E8.66504
G1 X58.638 Y128.553 E8.69127
G1 X58.258 Y128.265 E8.70713
G1 X58.024 Y128.076 E8.71713
G1 X57.436 Y127.549 E8.74339
G1 X57.102 Y127.198 E8.75951
G1 X57.061 Y127.152 E8.76156
G1 X56.566 Y126.537 E8.78781
G1 X56.336 Y126.201 E8.80136
G1 X56.224 Y126.028 E8.80821
G1 X55.828 Y125.342 E8.83456
G1 X55.806 Y125.299 E8.83616
G1 X55.482 Y124.578 E8.86245
G1 X55.233 Y123.829 E8.88871
G1 X55.027 Y122.841 E8.92227
G1 X54.988 Y122.566 E8.93151
G1 X54.911 Y121.47 E8.96806
G1 X54.912 Y113.51 E9.23281
G1 X54.952 Y112.721 E9.25908
G1 X55.016 Y112.242 E9.27516
G1 X55.062 Y111.963 E9.28456
G1 X55.23 Y111.191 E9.31084
G1 X55.475 Y110.441 E9.33708
G1 X55.781 Y109.744 E9.3624
G1 X55.799 Y109.708 E9.36374
G1 X56.371 Y108.745 E9.40099
G1 X56.51 Y108.545 E9.40909
G1 X56.993 Y107.92 E9.43536
G1 X57.537 Y107.347 E9.46164
G1 X58.058 Y106.893 E9.48463
G1 X58.303 Y106.698 E9.49504
G1 X58.945 Y106.238 E9.52131
G1 X59.29 Y106.029 E9.53473
G1 X59.332 Y106.005 E9.53634
G0 F6000 X59.531 Y106.352
G1 F1200 X60.217 Y106.006 E9.56189
G1 X60.936 Y105.732 E9.58748
G1 X61.68 Y105.535 E9.61308
