; generated by PrusaSlicer 2.2.0+ on 2020-11-18 at 17:24:26 UTC

; 

; external perimeters extrusion width = 0.45mm
; perimeters extrusion width = 0.45mm
; infill extrusion width = 0.45mm
; solid infill extrusion width = 0.45mm
; top infill extrusion width = 0.40mm
; first layer extrusion width = 0.42mm

M201 X500 Y500 Z100 E5000 ; sets maximum accelerations, mm/sec^2
M203 X500 Y500 Z10 E60 ; sets maximum feedrates, mm/sec
M204 P500 R1000 T500 ; sets acceleration (P, T) and retract acceleration (R), mm/sec^2
M205 X8.00 Y8.00 Z0.40 E5.00 ; sets the jerk limits, mm/sec
M205 S0 T0 ; sets the minimum extruding and travel feed rate, mm/sec
M107
G90 ; use absolute coordinates
M83 ; extruder relative mode

M104 S120 ; set extruder temp
M140 S105 ; set bed temp
M109 S120; wait for extruder temp
G29 ; perform bed level

M104 S255 ; set extruder temp
M140 S105 ; set bed temp
M190 S105 ; wait for bed temp
M109 S255 ; wait for extruder temp
G28 ; home all

G1 Z2 F240
G1 X2 Y10 F3000
G1 Z0.28 F240
G92 E0.0
G1 Y190 E15.0 F1500.0 ; intro line
G1 X2.3 F5000
G1 Y10 E30 F1200.0 ; intro line
G92 E0.0
G21 ; set units to millimeters
G90 ; use absolute coordinates
M83 ; use relative distances for extrusion
; Filament gcode
;BEFORE_LAYER_CHANGE
;0.2


G1 E-5.00000 F3600.00000
G1 Z0.200 F9000.000
;AFTER_LAYER_CHANGE
;0.2
G1 X97.982 Y92.787
G1 E5.00000 F2400.00000
G1 F1200.000
G1 X98.289 Y92.156 E0.02201
G1 X98.657 Y91.736 E0.01752
G1 X99.113 Y91.413 E0.01752
G1 X99.631 Y91.205 E0.01752
G1 X100.184 Y91.124 E0.01752
G1 X134.754 Y91.123 E1.08391
G1 X135.642 Y91.297 E0.02837
G1 X136.401 Y91.789 E0.02837
G1 X136.920 Y92.530 E0.02837
G1 X137.125 Y93.411 E0.02837
G1 X137.127 Y141.519 E1.50838
G1 X137.018 Y142.213 E0.02201
G1 X136.711 Y142.844 E0.02201
G1 X136.337 Y143.270 E0.01775
G1 X135.874 Y143.595 E0.01775
G1 X135.346 Y143.801 E0.01775
G1 X134.789 Y143.877 E0.01763
G1 X100.223 Y143.877 E1.08379
G1 X99.534 Y143.767 E0.02190
G1 X98.906 Y143.461 E0.02190
G1 X98.478 Y143.084 E0.01787
G1 X98.154 Y142.620 E0.01775
G1 X97.948 Y142.093 E0.01775
G1 X97.873 Y141.528 E0.01787
G1 X97.873 Y93.481 E1.50647
G1 X97.973 Y92.847 E0.02013
G1 E-3.50000 F3600.00000
G1 F7200.000
G1 X98.289 Y92.156 E-0.36085
G1 X98.657 Y91.736 E-0.26535
G1 X99.113 Y91.413 E-0.26535
G1 X99.631 Y91.205 E-0.26535
G1 X100.184 Y91.124 E-0.26535
G1 X100.190 Y91.124 E-0.00276
G1 E-0.07500 F3600.00000
G1 X103.199 Y98.078 F9000.000
G1 E5.00000 F2400.00000
G1 F1200.000
G1 X103.477 Y97.844 E0.01139
G1 X103.818 Y97.720 E0.01139
G1 X104.182 Y97.720 E0.01139
G1 X104.498 Y97.835 E0.01057
G1 X104.689 Y97.969 E0.00731
G1 X104.906 Y98.227 E0.01057
G1 X105.030 Y98.568 E0.01139
G1 X105.030 Y98.932 E0.01139
G1 X104.906 Y99.273 E0.01139
G1 X104.672 Y99.551 E0.01139
G1 X104.381 Y99.720 E0.01057
G1 X104.180 Y99.774 E0.00649
G1 X103.974 Y99.792 E0.00649
G1 X103.642 Y99.733 E0.01057
G1 X103.328 Y99.551 E0.01139
G1 X103.094 Y99.273 E0.01139
G1 X102.979 Y98.956 E0.01057
G1 X102.958 Y98.724 E0.00731
G1 X103.017 Y98.392 E0.01057
G1 X103.169 Y98.130 E0.00951
G1 X104.115 Y99.401 F9000.000
G1 F1200.000
G1 X103.991 Y99.412 E0.00390
G1 X103.773 Y99.373 E0.00693
G1 X103.574 Y99.258 E0.00722
G1 X103.426 Y99.082 E0.00722
G1 X103.350 Y98.874 E0.00693
G1 X103.338 Y98.741 E0.00419
G1 X103.377 Y98.523 E0.00693
G1 X103.492 Y98.324 E0.00722
G1 X103.668 Y98.176 E0.00722
G1 X103.885 Y98.097 E0.00722
G1 X104.115 Y98.097 E0.00722
G1 X104.323 Y98.172 E0.00693
G1 X104.432 Y98.249 E0.00419
G1 X104.574 Y98.418 E0.00693
G1 X104.653 Y98.635 E0.00722
G1 X104.653 Y98.865 E0.00722
G1 X104.574 Y99.082 E0.00722
G1 X104.426 Y99.258 E0.00722
G1 X104.235 Y99.369 E0.00693
G1 X104.173 Y99.385 E0.00202
G1 X104.075 Y99.519 F9000.000
G1 E-3.50000 F3600.00000
G1 F7200.000
G1 X103.991 Y99.412 E-0.08733
G1 X103.773 Y99.373 E-0.10496
G1 X103.574 Y99.258 E-0.10941
G1 X103.426 Y99.082 E-0.10941
G1 X103.350 Y98.874 E-0.10495
G1 X103.338 Y98.741 E-0.06353
G1 X103.377 Y98.523 E-0.10496
G1 X103.492 Y98.324 E-0.10941
G1 X103.668 Y98.176 E-0.10941
G1 X103.885 Y98.097 E-0.10941
G1 X104.115 Y98.097 E-0.10941
G1 X104.323 Y98.172 E-0.10496
G1 X104.432 Y98.249 E-0.06353
G1 X104.574 Y98.418 E-0.10495
G1 X104.596 Y98.476 E-0.02938
G1 E-0.07500 F3600.00000
G1 X107.163 Y100.413 F9000.000
G1 E5.00000 F2400.00000
G1 F1200.000
G1 X100.837 Y100.413 E0.19834
G1 X100.837 Y94.087 E0.19834
G1 X107.163 Y94.087 E0.19834
G1 X107.163 Y100.353 E0.19646
G1 X107.540 Y100.790 F9000.000
G1 F1200.000
G1 X100.460 Y100.790 E0.22199
G1 X100.460 Y93.710 E0.22199
G1 X107.540 Y93.710 E0.22199
G1 X107.540 Y100.730 E0.22011
G1 X107.154 Y100.686 F9000.000
G1 E-3.50000 F3600.00000
G1 F7200.000
G1 X104.540 Y100.755 E-1.42500
G1 E-0.07500 F3600.00000
G1 X104.490 Y99.875 F9000.000
G1 E5.00000 F2400.00000
G1 F1200.000
G1 X104.745 Y100.130 E0.01134
G1 X105.279 Y100.130 E0.01675
G1 X104.886 Y99.737 E0.01745
G1 X105.129 Y99.447 E0.01189
G1 X105.813 Y100.130 E0.03032
G1 X106.346 Y100.130 E0.01675
G1 X105.282 Y99.066 E0.04722
G1 X105.313 Y98.982 E0.00282
G1 X105.313 Y98.563 E0.01313
G1 X106.880 Y100.130 E0.06954
G1 X106.880 Y99.596 E0.01674
G1 X101.653 Y94.370 E0.23193
G1 X102.187 Y94.370 E0.01675
G1 X106.880 Y99.063 E0.20825
G1 X106.880 Y98.529 E0.01675
G1 X102.721 Y94.370 E0.18457
G1 X103.255 Y94.370 E0.01675
G1 X106.880 Y97.995 E0.16089
G1 X106.880 Y97.462 E0.01675
G1 X103.788 Y94.370 E0.13721
G1 X104.322 Y94.370 E0.01675
G1 X106.880 Y96.928 E0.11352
G1 X106.880 Y96.394 E0.01675
G1 X104.856 Y94.370 E0.08984
G1 X105.389 Y94.370 E0.01675
G1 X106.880 Y95.861 E0.06616
G1 X106.880 Y95.327 E0.01675
G1 X105.923 Y94.370 E0.04248
G1 X106.457 Y94.370 E0.01675
G1 X107.050 Y94.963 E0.02632
G1 E-3.50000 F3600.00000
G1 F7200.000
G1 X106.457 Y94.370 E-0.39848
G1 X105.923 Y94.370 E-0.25350
G1 X106.880 Y95.327 E-0.64299
G1 X106.880 Y95.601 E-0.13003
G1 E-0.07500 F3600.00000
G1 X103.598 Y100.072 F9000.000
G1 E5.00000 F2400.00000
G1 F1200.000
G1 X103.976 Y100.103 E0.00772
G1 X104.225 Y100.092 E0.00548
G1 X104.401 Y100.070 E0.00404
G1 E-3.50000 F3600.00000
G1 F7200.000
G1 X104.225 Y100.092 E-0.08448
G1 E-1.41552 F3600.00000
G1 X104.445 Y97.695 F9000.000
G1 E5.00000 F2400.00000
G1 F1200.000
G1 X101.120 Y94.370 E0.14757
G1 X101.120 Y94.904 E0.01675
G1 X103.684 Y97.468 E0.11378
G1 X103.303 Y97.621 E0.01288
G1 X101.120 Y95.437 E0.09689
G1 X101.120 Y95.971 E0.01675
G1 X103.013 Y97.864 E0.08401
G1 X102.979 Y97.893 E0.00141
G1 X102.806 Y98.191 E0.01081
G1 X101.120 Y96.505 E0.07484
G1 X101.120 Y97.038 E0.01675
G1 X102.691 Y98.610 E0.06974
G1 X102.673 Y98.712 E0.00325
G1 X102.700 Y99.018 E0.00965
G1 X102.777 Y99.229 E0.00705
G1 X101.120 Y97.572 E0.07354
G1 X101.120 Y98.106 E0.01675
G1 X103.144 Y100.130 E0.08984
G1 X102.611 Y100.130 E0.01675
G1 X101.120 Y98.639 E0.06615
G1 X101.120 Y99.173 E0.01675
G1 X102.077 Y100.130 E0.04247
G1 X101.543 Y100.130 E0.01675
G1 X100.950 Y99.537 E0.02632
G1 E-3.50000 F3600.00000
G1 F7200.000
G1 X101.543 Y100.130 E-0.39841
G1 X102.077 Y100.130 E-0.25350
G1 X101.120 Y99.173 E-0.64292
G1 X101.120 Y98.899 E-0.13018
G1 E-0.07500 F3600.00000
G1 X116.517 Y98.392 F9000.000
G1 E5.00000 F2400.00000
G1 F1200.000
G1 X116.699 Y98.078 E0.01139
G1 X116.977 Y97.844 E0.01139
G1 X117.318 Y97.720 E0.01139
G1 X117.682 Y97.720 E0.01139
G1 X117.998 Y97.835 E0.01057
G1 X118.189 Y97.969 E0.00731
G1 X118.406 Y98.227 E0.01057
G1 X118.530 Y98.568 E0.01139
G1 X118.530 Y98.932 E0.01139
G1 X118.406 Y99.273 E0.01139
G1 X118.172 Y99.551 E0.01139
G1 X117.881 Y99.720 E0.01057
G1 X117.680 Y99.774 E0.00649
G1 X117.474 Y99.792 E0.00649
G1 X117.142 Y99.733 E0.01057
G1 X116.828 Y99.551 E0.01139
G1 X116.594 Y99.273 E0.01139
G1 X116.479 Y98.956 E0.01057
G1 X116.458 Y98.724 E0.00731
G1 X116.507 Y98.451 E0.00869
G1 X117.615 Y99.401 F9000.000
G1 F1200.000
G1 X117.491 Y99.412 E0.00390
G1 X117.273 Y99.373 E0.00693
G1 X117.074 Y99.258 E0.00722
G1 X116.926 Y99.082 E0.00722
G1 X116.850 Y98.874 E0.00693
G1 X116.838 Y98.741 E0.00419
G1 X116.877 Y98.523 E0.00693
G1 X116.992 Y98.324 E0.00722
G1 X117.168 Y98.176 E0.00722
G1 X117.385 Y98.097 E0.00722
G1 X117.615 Y98.097 E0.00722
G1 X117.823 Y98.172 E0.00693
G1 X117.932 Y98.249 E0.00419
G1 X118.074 Y98.418 E0.00693
G1 X118.153 Y98.635 E0.00722
G1 X118.153 Y98.865 E0.00722
G1 X118.074 Y99.082 E0.00722
G1 X117.926 Y99.258 E0.00722
G1 X117.735 Y99.369 E0.00693
G1 X117.673 Y99.385 E0.00202
G1 X117.575 Y99.519 F9000.000
G1 E-3.50000 F3600.00000
G1 F7200.000
G1 X117.491 Y99.412 E-0.08733
G1 X117.273 Y99.373 E-0.10496
G1 X117.074 Y99.258 E-0.10941
G1 X116.926 Y99.082 E-0.10941
G1 X116.850 Y98.874 E-0.10495
G1 X116.838 Y98.741 E-0.06353
G1 X116.877 Y98.523 E-0.10496
G1 X116.992 Y98.324 E-0.10941
G1 X117.168 Y98.176 E-0.10941
G1 X117.385 Y98.097 E-0.10941
G1 X117.615 Y98.097 E-0.10941
G1 X117.823 Y98.172 E-0.10496
G1 X117.932 Y98.249 E-0.06353
G1 X118.074 Y98.418 E-0.10495
G1 X118.096 Y98.476 E-0.02938
G1 E-0.07500 F3600.00000
G1 X120.663 Y100.413 F9000.000
G1 E5.00000 F2400.00000
G1 F1200.000
G1 X114.337 Y100.413 E0.19834
G1 X114.337 Y94.087 E0.19834
G1 X120.663 Y94.087 E0.19834
G1 X120.663 Y100.353 E0.19646
G1 X121.040 Y100.790 F9000.000
G1 F1200.000
G1 X113.960 Y100.790 E0.22199
G1 X113.960 Y93.710 E0.22199
G1 X121.040 Y93.710 E0.22199
G1 X121.040 Y100.730 E0.22011
G1 X120.654 Y100.686 F9000.000
G1 E-3.50000 F3600.00000
G1 F7200.000
G1 X118.040 Y100.755 E-1.42500
G1 E-0.07500 F3600.00000
G1 X117.990 Y99.875 F9000.000
G1 E5.00000 F2400.00000
G1 F1200.000
G1 X118.245 Y100.130 E0.01134
G1 X118.779 Y100.130 E0.01675
G1 X118.386 Y99.737 E0.01745
G1 X118.629 Y99.447 E0.01189
G1 X119.313 Y100.130 E0.03032
G1 X119.846 Y100.130 E0.01675
G1 X118.782 Y99.066 E0.04722
G1 X118.813 Y98.982 E0.00282
G1 X118.813 Y98.563 E0.01313
G1 X120.380 Y100.130 E0.06954
G1 X120.380 Y99.596 E0.01674
G1 X115.153 Y94.370 E0.23193
G1 X115.687 Y94.370 E0.01675
G1 X120.380 Y99.063 E0.20825
G1 X120.380 Y98.529 E0.01675
G1 X116.221 Y94.370 E0.18457
G1 X116.755 Y94.370 E0.01675
G1 X120.380 Y97.995 E0.16089
G1 X120.380 Y97.462 E0.01675
G1 X117.288 Y94.370 E0.13721
G1 X117.822 Y94.370 E0.01675
G1 X120.380 Y96.928 E0.11352
G1 X120.380 Y96.394 E0.01675
G1 X118.356 Y94.370 E0.08984
G1 X118.889 Y94.370 E0.01675
G1 X120.380 Y95.861 E0.06616
G1 X120.380 Y95.327 E0.01675
G1 X119.423 Y94.370 E0.04248
G1 X119.957 Y94.370 E0.01675
G1 X120.550 Y94.963 E0.02632
G1 E-3.50000 F3600.00000
G1 F7200.000
G1 X119.957 Y94.370 E-0.39848
G1 X119.423 Y94.370 E-0.25350
G1 X120.380 Y95.327 E-0.64299
G1 X120.380 Y95.601 E-0.13003
G1 E-0.07500 F3600.00000
G1 X117.098 Y100.072 F9000.000
G1 E5.00000 F2400.00000
G1 F1200.000
G1 X117.476 Y100.103 E0.00772
G1 X117.725 Y100.092 E0.00548
G1 X117.901 Y100.070 E0.00404
G1 E-3.50000 F3600.00000
G1 F7200.000
G1 X117.725 Y100.092 E-0.08448
G1 E-1.41552 F3600.00000
G1 X117.945 Y97.695 F9000.000
G1 E5.00000 F2400.00000
G1 F1200.000
G1 X114.620 Y94.370 E0.14757
G1 X114.620 Y94.904 E0.01675
G1 X117.184 Y97.468 E0.11378
G1 X116.803 Y97.621 E0.01288
G1 X114.620 Y95.437 E0.09689
G1 X114.620 Y95.971 E0.01675
G1 X116.513 Y97.864 E0.08401
G1 X116.479 Y97.893 E0.00141
G1 X116.306 Y98.191 E0.01081
G1 X114.620 Y96.505 E0.07484
G1 X114.620 Y97.038 E0.01675
G1 X116.191 Y98.610 E0.06974
G1 X116.173 Y98.712 E0.00325
G1 X116.200 Y99.018 E0.00965
G1 X116.277 Y99.229 E0.00705
G1 X114.620 Y97.572 E0.07354
G1 X114.620 Y98.106 E0.01675
G1 X116.644 Y100.130 E0.08984
G1 X116.111 Y100.130 E0.01675
G1 X114.620 Y98.639 E0.06615
G1 X114.620 Y99.173 E0.01675
G1 X115.577 Y100.130 E0.04247
G1 X115.043 Y100.130 E0.01675
G1 X114.450 Y99.537 E0.02632
G1 E-3.50000 F3600.00000
G1 F7200.000
G1 X115.043 Y100.130 E-0.39841
G1 X115.577 Y100.130 E-0.25350
G1 X114.620 Y99.173 E-0.64292
G1 X114.620 Y98.899 E-0.13018
G1 E-0.07500 F3600.00000
G1 X130.017 Y98.392 F9000.000
G1 E5.00000 F2400.00000
G1 F1200.000
G1 X130.199 Y98.078 E0.01139
G1 X130.477 Y97.844 E0.01139
G1 X130.818 Y97.720 E0.01139
G1 X131.182 Y97.720 E0.01139
G1 X131.498 Y97.835 E0.01057
G1 X131.689 Y97.969 E0.00731
G1 X131.906 Y98.227 E0.01057
G1 X132.030 Y98.568 E0.01139
G1 X132.030 Y98.932 E0.01139
G1 X131.906 Y99.273 E0.01139
G1 X131.672 Y99.551 E0.01139
G1 X131.381 Y99.720 E0.01057
G1 X131.180 Y99.774 E0.00649
G1 X130.974 Y99.792 E0.00649
G1 X130.642 Y99.733 E0.01057
G1 X130.328 Y99.551 E0.01139
G1 X130.094 Y99.273 E0.01139
G1 X129.979 Y98.956 E0.01057
G1 X129.958 Y98.724 E0.00731
G1 X130.007 Y98.451 E0.00869
G1 X131.115 Y99.401 F9000.000
G1 F1200.000
G1 X130.991 Y99.412 E0.00390
G1 X130.773 Y99.373 E0.00693
G1 X130.574 Y99.258 E0.00722
G1 X130.426 Y99.082 E0.00722
G1 X130.350 Y98.874 E0.00693
G1 X130.338 Y98.741 E0.00419
G1 X130.377 Y98.523 E0.00693
G1 X130.492 Y98.324 E0.00722
G1 X130.668 Y98.176 E0.00722
G1 X130.885 Y98.097 E0.00722
G1 X131.115 Y98.097 E0.00722
G1 X131.323 Y98.172 E0.00693
G1 X131.432 Y98.249 E0.00419
G1 X131.574 Y98.418 E0.00693
G1 X131.653 Y98.635 E0.00722
G1 X131.653 Y98.865 E0.00722
G1 X131.574 Y99.082 E0.00722
G1 X131.426 Y99.258 E0.00722
G1 X131.235 Y99.369 E0.00693
G1 X131.173 Y99.385 E0.00202
G1 X131.075 Y99.519 F9000.000
G1 E-3.50000 F3600.00000
G1 F7200.000
G1 X130.991 Y99.412 E-0.08733
G1 X130.773 Y99.373 E-0.10496
G1 X130.574 Y99.258 E-0.10941
G1 X130.426 Y99.082 E-0.10941
G1 X130.350 Y98.874 E-0.10495
G1 X130.338 Y98.741 E-0.06353
G1 X130.377 Y98.523 E-0.10496
G1 X130.492 Y98.324 E-0.10941
G1 X130.668 Y98.176 E-0.10941
G1 X130.885 Y98.097 E-0.10941
G1 X131.115 Y98.097 E-0.10941
G1 X131.323 Y98.172 E-0.10496
G1 X131.432 Y98.249 E-0.06353
G1 X131.574 Y98.418 E-0.10495
G1 X131.596 Y98.476 E-0.02938
G1 E-0.07500 F3600.00000
G1 X134.163 Y100.413 F9000.000
G1 E5.00000 F2400.00000
G1 F1200.000
G1 X127.837 Y100.413 E0.19834
G1 X127.837 Y94.087 E0.19834
G1 X134.163 Y94.087 E0.19834
G1 X134.163 Y100.353 E0.19646
G1 X134.540 Y100.790 F9000.000
G1 F1200.000
G1 X127.460 Y100.790 E0.22199
G1 X127.460 Y93.710 E0.22199
G1 X134.540 Y93.710 E0.22199
G1 X134.540 Y100.730 E0.22011
G1 X134.154 Y100.686 F9000.000
G1 E-3.50000 F3600.00000
G1 F7200.000
G1 X131.540 Y100.755 E-1.42500
G1 E-0.07500 F3600.00000
G1 X131.490 Y99.875 F9000.000
G1 E5.00000 F2400.00000
G1 F1200.000
G1 X131.745 Y100.130 E0.01134
G1 X132.279 Y100.130 E0.01675
G1 X131.886 Y99.737 E0.01745
G1 X132.129 Y99.447 E0.01189
G1 X132.813 Y100.130 E0.03032
G1 X133.346 Y100.130 E0.01675
G1 X132.282 Y99.066 E0.04722
G1 X132.313 Y98.982 E0.00282
G1 X132.313 Y98.563 E0.01313
G1 X133.880 Y100.130 E0.06954
G1 X133.880 Y99.596 E0.01674
G1 X128.653 Y94.370 E0.23193
G1 X129.187 Y94.370 E0.01675
G1 X133.880 Y99.063 E0.20825
G1 X133.880 Y98.529 E0.01675
G1 X129.721 Y94.370 E0.18457
G1 X130.255 Y94.370 E0.01675
G1 X133.880 Y97.995 E0.16089
G1 X133.880 Y97.462 E0.01675
G1 X130.788 Y94.370 E0.13721
G1 X131.322 Y94.370 E0.01675
G1 X133.880 Y96.928 E0.11352
G1 X133.880 Y96.394 E0.01675
G1 X131.856 Y94.370 E0.08984
G1 X132.389 Y94.370 E0.01675
G1 X133.880 Y95.861 E0.06616
G1 X133.880 Y95.327 E0.01675
G1 X132.923 Y94.370 E0.04248
G1 X133.457 Y94.370 E0.01675
G1 X134.050 Y94.963 E0.02632
G1 E-3.50000 F3600.00000
G1 F7200.000
G1 X133.457 Y94.370 E-0.39848
G1 X132.923 Y94.370 E-0.25350
G1 X133.880 Y95.327 E-0.64299
G1 X133.880 Y95.601 E-0.13003
G1 E-0.07500 F3600.00000
G1 X130.598 Y100.072 F9000.000
G1 E5.00000 F2400.00000
G1 F1200.000
G1 X130.976 Y100.103 E0.00772
G1 X131.225 Y100.092 E0.00548
G1 X131.401 Y100.070 E0.00404
G1 E-3.50000 F3600.00000
G1 F7200.000
G1 X131.225 Y100.092 E-0.08448
G1 E-1.41552 F3600.00000
G1 X131.445 Y97.695 F9000.000
G1 E5.00000 F2400.00000
G1 F1200.000
G1 X128.120 Y94.370 E0.14757
G1 X128.120 Y94.904 E0.01675
G1 X130.684 Y97.468 E0.11378
G1 X130.303 Y97.621 E0.01288
G1 X128.120 Y95.437 E0.09689
G1 X128.120 Y95.971 E0.01675
G1 X130.013 Y97.864 E0.08401
G1 X129.979 Y97.893 E0.00141
G1 X129.806 Y98.191 E0.01081
G1 X128.120 Y96.505 E0.07484
G1 X128.120 Y97.038 E0.01675
G1 X129.691 Y98.610 E0.06974
G1 X129.673 Y98.712 E0.00325
G1 X129.700 Y99.018 E0.00965
G1 X129.777 Y99.229 E0.00705
G1 X128.120 Y97.572 E0.07354
G1 X128.120 Y98.106 E0.01675
G1 X130.144 Y100.130 E0.08984
G1 X129.611 Y100.130 E0.01675
G1 X128.120 Y98.639 E0.06615
G1 X128.120 Y99.173 E0.01675
G1 X129.077 Y100.130 E0.04247
