; generated by PrusaSlicer 2.2.0+ on 2020-11-17 at 02:52:26 UTC

; 

; external perimeters extrusion width = 0.45mm
; perimeters extrusion width = 0.45mm
; infill extrusion width = 0.45mm
; solid infill extrusion width = 0.45mm
; top infill extrusion width = 0.40mm
; first layer extrusion width = 0.42mm

M201 X500 Y500 Z100 E5000 ; sets maximum accelerations, mm/sec^2
M203 X500 Y500 Z10 E60 ; sets maximum feedrates, mm/sec
M204 P500 R1000 T500 ; sets acceleration (P, T) and retract acceleration (R), mm/sec^2
M205 X8.00 Y8.00 Z0.40 E5.00 ; sets the jerk limits, mm/sec
M205 S0 T0 ; sets the minimum extruding and travel feed rate, mm/sec
M107
G90 ; use absolute coordinates
M83 ; extruder relative mode
M104 S200 ; set extruder temp
M140 S60 ; set bed temp
M190 S60 ; wait for bed temp
M109 S200 ; wait for extruder temp
G28 ; home all
G1 Z2 F240
G1 X2 Y10 F3000
G1 Z0.28 F240
G92 E0.0
G1 Y190 E15.0 F1500.0 ; intro line
G1 X2.3 F5000
G1 Y10 E30 F1200.0 ; intro line
G92 E0.0
G21 ; set units to millimeters
G90 ; use absolute coordinates
M83 ; use relative distances for extrusion
; Filament gcode
;BEFORE_LAYER_CHANGE
;0.2


G1 E-5.00000 F3600.00000
G1 Z0.200 F9000.000
;AFTER_LAYER_CHANGE
;0.2
G1 X83.789 Y73.850
G1 E5.00000 F2400.00000
G1 F1200.000
G1 X84.529 Y73.330 E0.02837
G1 X85.414 Y73.124 E0.02849
G1 X149.504 Y73.123 E2.00949
G1 X150.395 Y73.298 E0.02849
G1 X151.159 Y73.797 E0.02860
G1 X151.678 Y74.548 E0.02860
G1 X151.876 Y75.434 E0.02849
G1 X151.877 Y159.500 E2.63582
G1 X151.696 Y160.409 E0.02907
G1 X151.181 Y161.180 E0.02907
G1 X150.410 Y161.696 E0.02907
G1 X149.501 Y161.877 E0.02907
G1 X148.961 Y161.815 E0.01704
G1 X148.449 Y161.632 E0.01704
G1 X147.992 Y161.338 E0.01704
G1 X147.614 Y160.947 E0.01704
G1 X83.602 Y76.932 E3.31174
G1 X83.247 Y76.257 E0.02390
G1 X83.123 Y75.501 E0.02402
G1 X83.296 Y74.609 E0.02849
G1 X83.756 Y73.901 E0.02649
G1 E-3.50000 F3600.00000
G1 F7200.000
G1 X84.529 Y73.330 E-0.45634
G1 X85.414 Y73.124 E-0.43156
G1 X86.545 Y73.124 E-0.53710
G1 E-0.07500 F3600.00000
G1 X142.284 Y143.639 F9000.000
G1 E5.00000 F2400.00000
G1 F1200.000
G1 X142.844 Y143.232 E0.02170
G1 X143.477 Y142.951 E0.02170
G1 X144.154 Y142.807 E0.02170
G1 X144.846 Y142.807 E0.02170
G1 X145.523 Y142.951 E0.02170
G1 X146.156 Y143.232 E0.02170
G1 X146.716 Y143.639 E0.02170
G1 X147.179 Y144.154 E0.02171
G1 X147.525 Y144.753 E0.02170
G1 X147.739 Y145.412 E0.02171
G1 X147.811 Y146.100 E0.02170
G1 X147.739 Y146.788 E0.02170
G1 X147.525 Y147.447 E0.02171
G1 X147.179 Y148.046 E0.02170
G1 X146.716 Y148.561 E0.02170
G1 X146.156 Y148.968 E0.02171
G1 X145.523 Y149.249 E0.02170
G1 X144.846 Y149.393 E0.02170
G1 X144.154 Y149.393 E0.02170
G1 X143.477 Y149.249 E0.02170
G1 X142.844 Y148.968 E0.02170
G1 X142.284 Y148.561 E0.02171
G1 X141.821 Y148.046 E0.02170
G1 X141.475 Y147.447 E0.02171
G1 X141.260 Y146.779 E0.02199
G1 X141.189 Y146.100 E0.02140
G1 X141.261 Y145.412 E0.02170
G1 X141.475 Y144.753 E0.02171
G1 X141.821 Y144.154 E0.02170
G1 X142.244 Y143.684 E0.01982
G1 X142.201 Y143.248 F9000.000
G1 E-3.50000 F3600.00000
G1 F7200.000
G1 X142.844 Y143.232 E-0.35672
G1 X143.477 Y142.951 E-0.32881
G1 X144.154 Y142.807 E-0.32880
G1 X144.846 Y142.807 E-0.32880
G1 X145.015 Y142.843 E-0.08187
G1 E-0.07500 F3600.00000
G1 X122.369 Y116.042 F9000.000
G1 E5.00000 F2400.00000
G1 F1200.000
G1 X121.745 Y116.496 E0.02419
G1 X121.040 Y116.810 E0.02419
G1 X120.286 Y116.970 E0.02419
G1 X119.514 Y116.970 E0.02419
G1 X118.760 Y116.810 E0.02419
G1 X118.055 Y116.496 E0.02419
G1 X117.431 Y116.042 E0.02419
G1 X116.914 Y115.469 E0.02419
G1 X116.528 Y114.800 E0.02422
G1 X116.289 Y114.057 E0.02448
G1 X116.210 Y113.300 E0.02387
G1 X116.290 Y112.533 E0.02419
G1 X116.529 Y111.799 E0.02419
G1 X116.914 Y111.131 E0.02419
G1 X117.431 Y110.558 E0.02419
G1 X118.055 Y110.104 E0.02419
G1 X118.760 Y109.790 E0.02419
G1 X119.514 Y109.630 E0.02419
G1 X120.286 Y109.630 E0.02419
G1 X121.040 Y109.790 E0.02419
G1 X121.745 Y110.104 E0.02419
G1 X122.369 Y110.558 E0.02419
G1 X122.886 Y111.131 E0.02419
G1 X123.271 Y111.799 E0.02419
G1 X123.510 Y112.533 E0.02419
G1 X123.590 Y113.300 E0.02419
G1 X123.510 Y114.067 E0.02419
G1 X123.271 Y114.801 E0.02419
G1 X122.886 Y115.469 E0.02419
G1 X122.409 Y115.998 E0.02231
G1 X122.129 Y115.745 F9000.000
G1 F1200.000
G1 X121.556 Y116.168 E0.02233
G1 X120.923 Y116.449 E0.02170
G1 X120.246 Y116.593 E0.02171
G1 X119.554 Y116.593 E0.02170
G1 X118.877 Y116.449 E0.02171
G1 X118.244 Y116.168 E0.02170
G1 X117.684 Y115.761 E0.02170
G1 X117.221 Y115.246 E0.02170
G1 X116.875 Y114.647 E0.02171
G1 X116.660 Y113.979 E0.02199
G1 X116.589 Y113.300 E0.02140
G1 X116.661 Y112.612 E0.02170
G1 X116.875 Y111.953 E0.02171
G1 X117.221 Y111.354 E0.02170
G1 X117.684 Y110.839 E0.02170
G1 X118.244 Y110.432 E0.02170
G1 X118.877 Y110.151 E0.02170
G1 X119.554 Y110.007 E0.02171
G1 X120.246 Y110.007 E0.02170
G1 X120.923 Y110.151 E0.02171
G1 X121.556 Y110.432 E0.02170
G1 X122.116 Y110.839 E0.02170
G1 X122.579 Y111.354 E0.02170
G1 X122.925 Y111.953 E0.02170
G1 X123.139 Y112.612 E0.02171
G1 X123.211 Y113.300 E0.02170
G1 X123.139 Y113.988 E0.02170
G1 X122.925 Y114.647 E0.02171
G1 X122.579 Y115.246 E0.02170
G1 X122.169 Y115.701 E0.01918
G1 X122.214 Y116.136 F9000.000
G1 E-3.50000 F3600.00000
G1 F7200.000
G1 X121.556 Y116.168 E-0.36626
G1 X120.923 Y116.449 E-0.32879
G1 X120.246 Y116.593 E-0.32884
G1 X119.554 Y116.593 E-0.32876
G1 X119.405 Y116.561 E-0.07235
G1 E-0.07500 F3600.00000
G1 X121.040 Y108.610 F9000.000
G1 E5.00000 F2400.00000
G1 F1200.000
G1 X120.286 Y108.770 E0.02419
G1 X119.514 Y108.770 E0.02419
G1 X118.760 Y108.610 E0.02419
G1 X118.055 Y108.296 E0.02419
G1 X117.431 Y107.842 E0.02419
G1 X116.914 Y107.269 E0.02419
G1 X116.528 Y106.600 E0.02422
G1 X116.289 Y105.857 E0.02448
G1 X116.210 Y105.100 E0.02387
G1 X116.290 Y104.333 E0.02419
G1 X116.529 Y103.599 E0.02419
G1 X116.914 Y102.931 E0.02419
G1 X117.431 Y102.358 E0.02419
G1 X118.055 Y101.904 E0.02419
G1 X118.760 Y101.590 E0.02419
G1 X119.514 Y101.430 E0.02419
G1 X120.286 Y101.430 E0.02419
G1 X121.040 Y101.590 E0.02419
G1 X121.745 Y101.904 E0.02419
G1 X122.370 Y102.358 E0.02422
G1 X122.891 Y102.940 E0.02448
G1 X123.271 Y103.599 E0.02387
G1 X123.510 Y104.333 E0.02419
G1 X123.590 Y105.100 E0.02419
G1 X123.510 Y105.867 E0.02419
G1 X123.271 Y106.601 E0.02419
G1 X122.886 Y107.269 E0.02419
G1 X122.369 Y107.842 E0.02419
G1 X121.745 Y108.296 E0.02419
G1 X121.095 Y108.585 E0.02231
G1 X120.942 Y108.241 F9000.000
G1 F1200.000
G1 X120.246 Y108.393 E0.02233
G1 X119.554 Y108.393 E0.02170
G1 X118.877 Y108.249 E0.02171
G1 X118.244 Y107.968 E0.02170
G1 X117.684 Y107.561 E0.02170
G1 X117.221 Y107.046 E0.02170
G1 X116.875 Y106.447 E0.02171
G1 X116.660 Y105.779 E0.02199
G1 X116.589 Y105.100 E0.02140
G1 X116.661 Y104.412 E0.02170
G1 X116.875 Y103.753 E0.02171
G1 X117.221 Y103.154 E0.02170
G1 X117.684 Y102.639 E0.02171
G1 X118.244 Y102.232 E0.02170
G1 X118.877 Y101.951 E0.02170
G1 X119.554 Y101.807 E0.02171
G1 X120.246 Y101.807 E0.02170
G1 X120.923 Y101.951 E0.02171
G1 X121.556 Y102.232 E0.02170
G1 X122.116 Y102.639 E0.02171
G1 X122.584 Y103.162 E0.02199
G1 X122.925 Y103.753 E0.02140
G1 X123.139 Y104.412 E0.02171
G1 X123.211 Y105.100 E0.02170
G1 X123.139 Y105.788 E0.02170
G1 X122.925 Y106.447 E0.02171
G1 X122.579 Y107.046 E0.02170
G1 X122.116 Y107.561 E0.02170
G1 X121.556 Y107.968 E0.02170
G1 X120.997 Y108.216 E0.01918
G1 X120.860 Y108.632 F9000.000
G1 E-3.50000 F3600.00000
G1 F7200.000
G1 X120.246 Y108.393 E-0.36625
G1 X119.554 Y108.393 E-0.32876
G1 X118.877 Y108.249 E-0.32884
G1 X118.244 Y107.968 E-0.32879
G1 X118.121 Y107.878 E-0.07235
G1 E-0.07500 F3600.00000
G1 X124.728 Y106.600 F9000.000
G1 E5.00000 F2400.00000
G1 F1200.000
G1 X124.489 Y105.857 E0.02448
G1 X124.410 Y105.100 E0.02387
G1 X124.490 Y104.333 E0.02419
G1 X124.729 Y103.599 E0.02419
G1 X125.114 Y102.931 E0.02419
G1 X125.631 Y102.358 E0.02419
G1 X126.255 Y101.904 E0.02419
G1 X126.960 Y101.590 E0.02419
G1 X127.714 Y101.430 E0.02419
G1 X128.486 Y101.430 E0.02419
G1 X129.240 Y101.590 E0.02419
G1 X129.945 Y101.904 E0.02419
G1 X130.570 Y102.358 E0.02422
G1 X131.091 Y102.940 E0.02448
G1 X131.471 Y103.599 E0.02387
G1 X131.710 Y104.333 E0.02419
G1 X131.790 Y105.100 E0.02419
G1 X131.710 Y105.867 E0.02419
G1 X131.471 Y106.601 E0.02419
G1 X131.086 Y107.269 E0.02419
G1 X130.569 Y107.842 E0.02419
G1 X129.945 Y108.296 E0.02419
G1 X129.240 Y108.610 E0.02419
G1 X128.486 Y108.770 E0.02419
G1 X127.714 Y108.770 E0.02419
G1 X126.960 Y108.610 E0.02419
G1 X126.255 Y108.296 E0.02419
G1 X125.631 Y107.842 E0.02419
G1 X125.114 Y107.269 E0.02419
G1 X124.758 Y106.652 E0.02233
G1 X125.085 Y106.464 F9000.000
G1 F1200.000
G1 X124.860 Y105.779 E0.02260
G1 X124.789 Y105.100 E0.02140
G1 X124.861 Y104.412 E0.02170
G1 X125.075 Y103.753 E0.02171
G1 X125.421 Y103.154 E0.02170
G1 X125.884 Y102.639 E0.02171
G1 X126.444 Y102.232 E0.02170
G1 X127.077 Y101.951 E0.02170
G1 X127.754 Y101.807 E0.02171
G1 X128.446 Y101.807 E0.02170
G1 X129.123 Y101.951 E0.02171
G1 X129.756 Y102.232 E0.02170
G1 X130.316 Y102.639 E0.02171
G1 X130.784 Y103.162 E0.02199
G1 X131.125 Y103.753 E0.02140
G1 X131.339 Y104.412 E0.02171
G1 X131.411 Y105.100 E0.02170
G1 X131.339 Y105.788 E0.02170
G1 X131.125 Y106.447 E0.02171
G1 X130.779 Y107.046 E0.02170
G1 X130.316 Y107.561 E0.02170
G1 X129.756 Y107.968 E0.02170
G1 X129.123 Y108.249 E0.02170
G1 X128.446 Y108.393 E0.02171
G1 X127.754 Y108.393 E0.02170
G1 X127.077 Y108.249 E0.02171
G1 X126.444 Y107.968 E0.02170
G1 X125.884 Y107.561 E0.02170
G1 X125.421 Y107.046 E0.02170
G1 X125.115 Y106.516 E0.01921
G1 X124.687 Y106.423 F9000.000
G1 E-3.50000 F3600.00000
G1 F7200.000
G1 X124.860 Y105.779 E-0.37028
G1 X124.789 Y105.100 E-0.32424
G1 X124.861 Y104.412 E-0.32879
G1 X125.075 Y103.753 E-0.32883
G1 X125.152 Y103.620 E-0.07286
G1 E-0.07500 F3600.00000
G1 X126.960 Y109.790 F9000.000
G1 E5.00000 F2400.00000
G1 F1200.000
G1 X127.714 Y109.630 E0.02419
G1 X128.486 Y109.630 E0.02419
G1 X129.240 Y109.790 E0.02419
G1 X129.945 Y110.104 E0.02419
G1 X130.569 Y110.558 E0.02419
G1 X131.086 Y111.131 E0.02419
G1 X131.471 Y111.799 E0.02419
G1 X131.710 Y112.533 E0.02419
G1 X131.790 Y113.300 E0.02419
G1 X131.710 Y114.067 E0.02419
G1 X131.471 Y114.801 E0.02419
G1 X131.086 Y115.469 E0.02419
G1 X130.569 Y116.042 E0.02419
G1 X129.945 Y116.496 E0.02419
G1 X129.240 Y116.810 E0.02419
G1 X128.486 Y116.970 E0.02419
G1 X127.714 Y116.970 E0.02419
G1 X126.960 Y116.810 E0.02419
G1 X126.255 Y116.496 E0.02419
G1 X125.631 Y116.042 E0.02419
G1 X125.114 Y115.469 E0.02419
G1 X124.728 Y114.800 E0.02422
G1 X124.489 Y114.057 E0.02448
G1 X124.410 Y113.300 E0.02387
G1 X124.490 Y112.533 E0.02419
G1 X124.729 Y111.799 E0.02419
G1 X125.114 Y111.131 E0.02419
G1 X125.631 Y110.558 E0.02419
G1 X126.255 Y110.104 E0.02419
G1 X126.905 Y109.815 E0.02231
G1 X127.058 Y110.159 F9000.000
G1 F1200.000
G1 X127.754 Y110.007 E0.02233
G1 X128.446 Y110.007 E0.02170
G1 X129.123 Y110.151 E0.02171
G1 X129.756 Y110.432 E0.02170
G1 X130.316 Y110.839 E0.02170
G1 X130.779 Y111.354 E0.02170
G1 X131.125 Y111.953 E0.02170
G1 X131.339 Y112.612 E0.02171
G1 X131.411 Y113.300 E0.02170
G1 X131.339 Y113.988 E0.02170
G1 X131.125 Y114.647 E0.02171
G1 X130.779 Y115.246 E0.02170
G1 X130.316 Y115.761 E0.02170
G1 X129.756 Y116.168 E0.02170
G1 X129.123 Y116.449 E0.02170
G1 X128.446 Y116.593 E0.02171
G1 X127.754 Y116.593 E0.02170
G1 X127.077 Y116.449 E0.02171
G1 X126.444 Y116.168 E0.02170
G1 X125.884 Y115.761 E0.02170
G1 X125.421 Y115.246 E0.02170
G1 X125.075 Y114.647 E0.02171
G1 X124.860 Y113.979 E0.02199
G1 X124.789 Y113.300 E0.02140
G1 X124.861 Y112.612 E0.02170
G1 X125.075 Y111.953 E0.02171
G1 X125.421 Y111.354 E0.02170
G1 X125.884 Y110.839 E0.02170
G1 X126.444 Y110.432 E0.02170
G1 X127.003 Y110.184 E0.01918
G1 X127.140 Y109.768 F9000.000
G1 E-3.50000 F3600.00000
G1 F7200.000
G1 X127.754 Y110.007 E-0.36626
G1 X128.446 Y110.007 E-0.32876
G1 X129.123 Y110.151 E-0.32884
G1 X129.756 Y110.432 E-0.32879
G1 X129.879 Y110.522 E-0.07235
G1 E-0.07500 F3600.00000
G1 X127.714 Y117.830 F9000.000
G1 E5.00000 F2400.00000
G1 F1200.000
G1 X128.486 Y117.830 E0.02419
G1 X129.230 Y117.988 E0.02387
G1 X129.944 Y118.304 E0.02447
G1 X130.569 Y118.758 E0.02422
G1 X131.086 Y119.331 E0.02419
G1 X131.471 Y119.999 E0.02419
G1 X131.710 Y120.733 E0.02419
G1 X131.790 Y121.500 E0.02419
G1 X131.710 Y122.267 E0.02419
G1 X131.471 Y123.001 E0.02419
G1 X131.086 Y123.669 E0.02419
G1 X130.569 Y124.242 E0.02419
G1 X129.945 Y124.696 E0.02419
G1 X129.240 Y125.010 E0.02419
G1 X128.486 Y125.170 E0.02419
G1 X127.714 Y125.170 E0.02419
G1 X126.960 Y125.010 E0.02419
G1 X126.255 Y124.696 E0.02419
G1 X125.631 Y124.242 E0.02419
G1 X125.114 Y123.669 E0.02419
G1 X124.728 Y123.000 E0.02422
G1 X124.489 Y122.257 E0.02448
G1 X124.410 Y121.500 E0.02387
G1 X124.490 Y120.733 E0.02419
G1 X124.729 Y119.999 E0.02419
G1 X125.114 Y119.331 E0.02419
G1 X125.631 Y118.758 E0.02419
G1 X126.255 Y118.304 E0.02419
G1 X126.960 Y117.990 E0.02419
G1 X127.656 Y117.842 E0.02231
G1 X127.734 Y118.211 F9000.000
G1 F1200.000
G1 X128.446 Y118.207 E0.02233
G1 X129.114 Y118.349 E0.02141
G1 X129.755 Y118.632 E0.02199
G1 X130.316 Y119.039 E0.02171
G1 X130.779 Y119.554 E0.02170
G1 X131.125 Y120.153 E0.02170
G1 X131.339 Y120.812 E0.02171
G1 X131.411 Y121.500 E0.02170
G1 X131.339 Y122.188 E0.02170
G1 X131.125 Y122.847 E0.02171
G1 X130.779 Y123.446 E0.02170
G1 X130.316 Y123.961 E0.02170
G1 X129.756 Y124.368 E0.02170
G1 X129.123 Y124.649 E0.02170
G1 X128.446 Y124.793 E0.02171
G1 X127.754 Y124.793 E0.02170
G1 X127.077 Y124.649 E0.02171
G1 X126.444 Y124.368 E0.02170
G1 X125.884 Y123.961 E0.02170
G1 X125.421 Y123.446 E0.02170
G1 X125.075 Y122.847 E0.02171
G1 X124.860 Y122.179 E0.02199
G1 X124.789 Y121.500 E0.02140
G1 X124.861 Y120.812 E0.02170
G1 X125.075 Y120.153 E0.02171
G1 X125.421 Y119.554 E0.02170
G1 X125.884 Y119.039 E0.02170
G1 X126.444 Y118.632 E0.02170
G1 X127.077 Y118.351 E0.02170
G1 X127.675 Y118.224 E0.01919
G1 X127.895 Y117.845 F9000.000
G1 E-3.50000 F3600.00000
G1 F7200.000
G1 X128.446 Y118.207 E-0.36619
G1 X129.114 Y118.349 E-0.32430
G1 X129.755 Y118.632 E-0.33310
G1 X130.316 Y119.039 E-0.32896
G1 X130.418 Y119.153 E-0.07245
G1 E-0.07500 F3600.00000
G1 X142.031 Y135.158 F9000.000
G1 E5.00000 F2400.00000
G1 F1200.000
G1 X142.655 Y134.704 E0.02419
G1 X143.360 Y134.390 E0.02419
G1 X144.114 Y134.230 E0.02419
G1 X144.886 Y134.230 E0.02419
G1 X145.640 Y134.390 E0.02419
G1 X146.345 Y134.704 E0.02419
G1 X146.969 Y135.158 E0.02419
G1 X147.486 Y135.731 E0.02419
G1 X147.871 Y136.399 E0.02419
G1 X148.110 Y137.133 E0.02419
G1 X148.190 Y137.900 E0.02419
G1 X148.110 Y138.667 E0.02419
G1 X147.871 Y139.401 E0.02419
G1 X147.486 Y140.069 E0.02419
G1 X146.969 Y140.642 E0.02419
G1 X146.345 Y141.096 E0.02419
G1 X145.640 Y141.410 E0.02419
G1 X144.886 Y141.570 E0.02419
G1 X144.114 Y141.570 E0.02419
G1 X143.360 Y141.410 E0.02419
G1 X142.655 Y141.096 E0.02419
G1 X142.031 Y140.642 E0.02419
G1 X141.514 Y140.069 E0.02419
G1 X141.128 Y139.400 E0.02421
G1 X140.889 Y138.657 E0.02448
G1 X140.810 Y137.900 E0.02387
G1 X140.890 Y137.133 E0.02419
G1 X141.129 Y136.399 E0.02419
G1 X141.514 Y135.731 E0.02419
G1 X141.991 Y135.202 E0.02231
G1 X142.271 Y135.455 F9000.000
G1 F1200.000
G1 X142.844 Y135.032 E0.02233
G1 X143.477 Y134.751 E0.02170
G1 X144.154 Y134.607 E0.02170
G1 X144.846 Y134.607 E0.02170
G1 X145.523 Y134.751 E0.02170
G1 X146.156 Y135.032 E0.02170
G1 X146.716 Y135.439 E0.02171
G1 X147.179 Y135.954 E0.02170
G1 X147.525 Y136.553 E0.02170
G1 X147.739 Y137.212 E0.02171
G1 X147.811 Y137.900 E0.02170
G1 X147.739 Y138.588 E0.02170
G1 X147.525 Y139.247 E0.02171
G1 X147.179 Y139.846 E0.02170
G1 X146.716 Y140.361 E0.02171
G1 X146.156 Y140.768 E0.02170
G1 X145.523 Y141.049 E0.02170
G1 X144.846 Y141.193 E0.02170
G1 X144.154 Y141.193 E0.02170
G1 X143.477 Y141.049 E0.02170
G1 X142.844 Y140.768 E0.02170
G1 X142.284 Y140.361 E0.02170
G1 X141.821 Y139.846 E0.02171
G1 X141.475 Y139.247 E0.02171
G1 X141.260 Y138.579 E0.02199
G1 X141.189 Y137.900 E0.02140
G1 X141.261 Y137.212 E0.02170
G1 X141.475 Y136.553 E0.02171
G1 X141.821 Y135.954 E0.02170
G1 X142.231 Y135.499 E0.01918
G1 X142.186 Y135.064 F9000.000
