;FLAVOR:Marlin
;TIME:15399
;Filament used: 13.15m
;Layer height: 0.2
;MINX:61.717
;MINY:48.988
;MINZ:0.2
;MAXX:173.361
;MAXY:184.212
;MAXZ:36
;Generated with Cura_SteamEngine 4.7.1
M140 S50
M105
M190 S50
M104 S200
M105
M109 S200
M82 ;absolute extrusion mode
; Ender 3 Custom Start G-code
G92 E0 ; Reset Extruder
G28 ; Home all axes
G1 Z2.0 F3000 ; Move Z Axis up little to prevent scratching of Heat Bed
G1 X0.1 Y20 Z0.3 F5000.0 ; Move to start position
G1 X0.1 Y200.0 Z0.3 F1500.0 E15 ; Draw the first line
G1 X0.4 Y200.0 Z0.3 F5000.0 ; Move to side a little
G1 X0.4 Y20 Z0.3 F1500.0 E30 ; Draw the second line
G92 E0 ; Reset Extruder
G1 Z2.0 F3000 ; Move Z Axis up little to prevent scratching of Heat Bed
G1 X5 Y20 Z0.3 F5000.0 ; Move over to prevent blob squish
G92 E0
G92 E0
G1 F2700 E-5
;LAYER_COUNT:180
;LAYER:0
M107
G0 F6000 X92.807 Y54.46 Z0.2
;TYPE:SKIRT
G1 F2700 E0
G1 F1200 X93.313 Y53.671 E0.03118
G1 X93.884 Y52.927 E0.06237
G1 X94.517 Y52.235 E0.09356
G1 X95.207 Y51.6 E0.12475
G1 X95.948 Y51.025 E0.15595
G1 X96.736 Y50.516 E0.18715
G1 X97.564 Y50.075 E0.21835
G1 X98.426 Y49.707 E0.24952
G1 X99.317 Y49.413 E0.28073
G1 X100.229 Y49.197 E0.3119
G1 X101.157 Y49.059 E0.34311
G1 X101.985 Y49.003 E0.37071
G1 X102.462 Y48.99 E0.38658
G1 X102.697 Y48.988 E0.3944
G1 X132.294 Y49.015 E1.3788
G1 X133.001 Y49.025 E1.40231
G1 X133.937 Y49.078 E1.43349
G1 X134.865 Y49.211 E1.46468
G1 X135.779 Y49.423 E1.49588
G1 X136.671 Y49.711 E1.52706
G1 X137.536 Y50.074 E1.55826
G1 X138.367 Y50.51 E1.58947
G1 X139.157 Y51.015 E1.62066
G1 X139.901 Y51.586 E1.65185
G1 X140.595 Y52.217 E1.68305
G1 X141.231 Y52.906 E1.71423
G1 X141.807 Y53.646 E1.74542
G1 X142.318 Y54.433 E1.77663
G1 X142.76 Y55.26 E1.80782
G1 X143.13 Y56.122 E1.83902
G1 X143.425 Y57.012 E1.87021
G1 X143.643 Y57.924 E1.90139
G1 X143.782 Y58.852 E1.9326
G1 X143.84 Y59.702 E1.96094
G1 X143.848 Y59.975 E1.97003
G1 X143.853 Y60.216 E1.97804
G1 X143.854 Y60.443 E1.98559
G1 X143.836 Y79.456 E2.61797
G1 X143.826 Y80.167 E2.64162
G1 X143.798 Y80.8 E2.66269
G1 X143.646 Y83.441 E2.75068
G1 X143.561 Y87.332 E2.88012
G1 X143.491 Y171.799 E5.68951
G1 X143.48 Y172.659 E5.71811
G1 X143.427 Y173.595 E5.7493
G1 X143.286 Y174.566 E5.78193
G1 X143.245 Y174.781 E5.78921
G1 X143.03 Y175.693 E5.82037
G1 X142.739 Y176.585 E5.85158
G1 X142.385 Y177.42 E5.88175
G1 X142.29 Y177.621 E5.88914
G1 X141.854 Y178.452 E5.92035
G1 X141.348 Y179.241 E5.95153
G1 X140.683 Y180.096 E5.98755
G1 X140.609 Y180.182 E5.99133
G1 X139.968 Y180.866 E6.02251
G1 X139.27 Y181.493 E6.05371
G1 X138.626 Y181.985 E6.08067
G1 X138.448 Y182.111 E6.08792
G1 X137.66 Y182.62 E6.11912
G1 X136.832 Y183.06 E6.15031
G1 X135.969 Y183.427 E6.1815
G1 X135.147 Y183.701 E6.21032
G1 X134.929 Y183.764 E6.21787
G1 X134.018 Y183.985 E6.24905
G1 X133.091 Y184.129 E6.28025
G1 X132.42 Y184.182 E6.30263
G1 X132.158 Y184.195 E6.31136
G1 X131.721 Y184.208 E6.3259
G1 X131.298 Y184.212 E6.33997
G1 X103.797 Y184.188 E7.25466
G1 X103.083 Y184.177 E7.27841
G1 X102.146 Y184.122 E7.30963
G1 X100.915 Y183.927 E7.35108
G1 X100.708 Y183.882 E7.35813
G1 X99.801 Y183.644 E7.38931
G1 X98.918 Y183.329 E7.4205
G1 X98.064 Y182.941 E7.45169
G1 X97.478 Y182.62 E7.47392
G1 X97.282 Y182.505 E7.48148
G1 X96.494 Y181.997 E7.51266
G1 X95.753 Y181.423 E7.54383
G1 X95.063 Y180.788 E7.57502
G1 X94.429 Y180.096 E7.60624
G1 X94.119 Y179.711 E7.62268
G1 X93.935 Y179.471 E7.63274
G1 X93.397 Y178.703 E7.66392
G1 X92.926 Y177.892 E7.69512
G1 X92.526 Y177.044 E7.7263
G1 X92.199 Y176.164 E7.75753
G1 X92.007 Y175.5 E7.78052
G1 X91.948 Y175.269 E7.78845
G1 X91.755 Y174.351 E7.81965
G1 X91.641 Y173.42 E7.85084
G1 X91.607 Y172.718 E7.87422
G1 X91.593 Y171.82 E7.90409
G1 X91.592 Y171.64 E7.91008
G1 X91.635 Y120.442 E9.61293
G1 X91.66 Y88.66 E10.67
G1 X91.625 Y86.052 E10.75675
G1 X91.52 Y83.547 E10.84014
G1 X91.338 Y80.929 E10.92743
G1 X91.313 Y80.383 E10.94561
G1 X91.289 Y79.175 E10.98579
G1 X91.287 Y78.949 E10.99331
G1 X91.301 Y60.519 E11.6063
G1 X91.312 Y59.824 E11.62941
G1 X91.367 Y58.888 E11.6606
G1 X91.502 Y57.959 E11.69182
G1 X91.714 Y57.046 E11.723
G1 X92.004 Y56.154 E11.75419
G1 X92.369 Y55.29 E11.78539
G1 X92.807 Y54.46 E11.8166
G0 F6000 X93.204 Y54.574
G1 F1200 X93.709 Y53.805 E11.8472
G1 X94.278 Y53.082 E11.8778
G1 X94.909 Y52.411 E11.90844
G1 X95.595 Y51.797 E11.93906
G1 X96.332 Y51.245 E11.96969
G1 X97.114 Y50.759 E12.00031
G1 X97.935 Y50.343 E12.03092
G1 X98.79 Y50 E12.06156
G1 X99.671 Y49.732 E12.09219
G1 X100.571 Y49.542 E12.12278
G1 X101.485 Y49.43 E12.15341
G1 X101.997 Y49.403 E12.17046
G1 X102.54 Y49.389 E12.18853
G1 X102.696 Y49.388 E12.19372
G1 X132.288 Y49.415 E13.17795
G1 X132.995 Y49.425 E13.20147
G1 X133.914 Y49.478 E13.23209
G1 X134.825 Y49.611 E13.26271
G1 X135.721 Y49.822 E13.29332
G1 X136.596 Y50.11 E13.32396
G1 X137.442 Y50.473 E13.35458
G1 X138.253 Y50.907 E13.38517
G1 X139.024 Y51.411 E13.41581
G1 X139.748 Y51.98 E13.44644
G1 X140.42 Y52.609 E13.47705
G1 X141.035 Y53.294 E13.50767
G1 X141.588 Y54.03 E13.53829
G1 X142.075 Y54.812 E13.56893
G1 X142.492 Y55.632 E13.59953
G1 X142.837 Y56.486 E13.63016
G1 X143.106 Y57.366 E13.66077
G1 X143.298 Y58.267 E13.69141
G1 X143.411 Y59.18 E13.72201
G1 X143.44 Y59.714 E13.73979
G1 X143.453 Y60.219 E13.7566
G1 X143.454 Y60.443 E13.76405
G1 X143.436 Y79.45 E14.39622
G1 X143.426 Y80.161 E14.41987
G1 X143.399 Y80.777 E14.44038
G1 X143.246 Y83.438 E14.52903
G1 X143.161 Y87.323 E14.65828
G1 X143.091 Y171.799 E17.46796
G1 X143.08 Y172.653 E17.49637
G1 X143.027 Y173.572 E17.52699
G1 X142.893 Y174.491 E17.55787
G1 X142.852 Y174.706 E17.56515
G1 X142.641 Y175.602 E17.59577
G1 X142.352 Y176.476 E17.62639
G1 X142.024 Y177.25 E17.65435
G1 X141.929 Y177.451 E17.66174
G1 X141.499 Y178.265 E17.69236
G1 X141.001 Y179.039 E17.72297
G1 X140.38 Y179.835 E17.75655
G1 X140.306 Y179.921 E17.76033
G1 X139.676 Y180.592 E17.79094
G1 X138.99 Y181.206 E17.82156
G1 X138.395 Y181.659 E17.84643
G1 X138.217 Y181.785 E17.85368
G1 X137.443 Y182.284 E17.88431
G1 X136.629 Y182.713 E17.91492
G1 X135.781 Y183.071 E17.94553
G1 X135.036 Y183.316 E17.97162
G1 X134.818 Y183.379 E17.97916
G1 X133.923 Y183.596 E18.0098
G1 X133.013 Y183.735 E18.04041
G1 X132.4 Y183.783 E18.06086
G1 X132.138 Y183.796 E18.06959
G1 X131.717 Y183.808 E18.0836
G1 X131.298 Y183.812 E18.09753
G1 X103.803 Y183.788 E19.01202
G1 X103.089 Y183.777 E19.03577
G1 X102.17 Y183.723 E19.06639
G1 X101 Y183.536 E19.1058
G1 X100.793 Y183.491 E19.11284
G1 X99.903 Y183.257 E19.14345
G1 X99.036 Y182.946 E19.17409
G1 X98.2 Y182.561 E19.2047
G1 X97.681 Y182.275 E19.22441
G1 X97.485 Y182.16 E19.23197
G1 X96.712 Y181.661 E19.26257
G1 X95.985 Y181.095 E19.29321
G1 X95.31 Y180.469 E19.32383
G1 X94.437 Y179.467 E19.36803
G1 X94.253 Y179.227 E19.37809
G1 X93.725 Y178.473 E19.40871
G1 X93.264 Y177.676 E19.43933
G1 X92.875 Y176.842 E19.46994
G1 X92.559 Y175.977 E19.50057
G1 X92.395 Y175.401 E19.52049
G1 X92.336 Y175.17 E19.52842
G1 X92.147 Y174.269 E19.55904
G1 X92.037 Y173.355 E19.58966
G1 X92.007 Y172.712 E19.61107
G1 X91.993 Y171.814 E19.64094
G1 X91.992 Y171.64 E19.64673
G1 X92.035 Y120.442 E21.34958
G1 X92.06 Y88.654 E22.40685
G1 X92.025 Y86.065 E22.49297
G1 X91.918 Y83.505 E22.57819
G1 X91.737 Y80.902 E22.66498
G1 X91.713 Y80.376 E22.68249
G1 X91.689 Y79.168 E22.72267
G1 X91.687 Y78.949 E22.72996
G1 X91.701 Y60.525 E23.34274
G1 X91.712 Y59.83 E23.36586
G1 X91.767 Y58.911 E23.39648
G1 X91.901 Y58 E23.42711
G1 X92.114 Y57.105 E23.45771
G1 X92.403 Y56.231 E23.48833
G1 X92.767 Y55.385 E23.51896
G1 X93.204 Y54.574 E23.5496
G0 F6000 X93.601 Y54.691
G1 F1200 X94.104 Y53.941 E23.57963
G1 X94.672 Y53.239 E23.60967
G1 X95.3 Y52.59 E23.63971
G1 X95.983 Y51.998 E23.66977
G1 X96.715 Y51.47 E23.69979
G1 X97.491 Y51.009 E23.72981
G1 X98.305 Y50.617 E23.75986
G1 X99.151 Y50.3 E23.78991
G1 X100.021 Y50.058 E23.81994
G1 X100.909 Y49.895 E23.84997
G1 X102.009 Y49.802 E23.88669
G1 X102.313 Y49.793 E23.8968
G1 X102.696 Y49.788 E23.90954
G1 X132.282 Y49.815 E24.89358
G1 X132.989 Y49.825 E24.91709
G1 X133.891 Y49.878 E24.94715
G1 X134.784 Y50.01 E24.97717
G1 X135.662 Y50.221 E25.0072
G1 X136.518 Y50.508 E25.03723
G1 X137.346 Y50.871 E25.0673
G1 X138.138 Y51.305 E25.09734
G1 X138.888 Y51.807 E25.12736
G1 X139.591 Y52.374 E25.1574
G1 X140.242 Y53 E25.18743
G1 X140.834 Y53.682 E25.21747
G1 X141.363 Y54.414 E25.24751
G1 X141.826 Y55.189 E25.27754
G1 X142.219 Y56.003 E25.3076
G1 X142.538 Y56.847 E25.33761
G1 X142.781 Y57.717 E25.36765
G1 X142.946 Y58.605 E25.39769
G1 X143.041 Y59.725 E25.43508
G1 X143.049 Y59.998 E25.44416
G1 X143.054 Y60.358 E25.45614
G1 X143.036 Y79.444 E26.09094
G1 X143.026 Y80.155 E26.11459
G1 X143.002 Y80.72 E26.1334
G1 X142.996 Y80.806 E26.13627
G1 X142.849 Y83.361 E26.22139
G1 X142.761 Y87.361 E26.35446
G1 X142.691 Y171.798 E29.16285
G1 X142.68 Y172.648 E29.19112
G1 X142.627 Y173.549 E29.22114
G1 X142.5 Y174.416 E29.25029
G1 X142.459 Y174.631 E29.25757
G1 X142.251 Y175.509 E29.28758
G1 X141.966 Y176.366 E29.31761
G1 X141.662 Y177.079 E29.34339
G1 X141.567 Y177.28 E29.35079
G1 X141.145 Y178.078 E29.38081
G1 X140.655 Y178.836 E29.41083
G1 X140.077 Y179.574 E29.44201
G1 X140.003 Y179.66 E29.44579
G1 X139.384 Y180.318 E29.47583
G1 X138.709 Y180.918 E29.50587
G1 X138.164 Y181.332 E29.52863
G1 X137.986 Y181.458 E29.53589
G1 X137.227 Y181.947 E29.56592
G1 X136.427 Y182.366 E29.59595
G1 X135.593 Y182.714 E29.62601
G1 X134.925 Y182.932 E29.64938
G1 X134.707 Y182.995 E29.65693
G1 X133.829 Y183.207 E29.68697
G1 X132.936 Y183.341 E29.717
G1 X132.38 Y183.383 E29.73555
G1 X132.118 Y183.396 E29.74428
G1 X131.713 Y183.409 E29.75775
G1 X131.298 Y183.412 E29.77156
G1 X103.809 Y183.388 E30.68584
G1 X103.095 Y183.377 E30.70959
G1 X102.193 Y183.323 E30.73965
G1 X101.085 Y183.145 E30.77697
G1 X100.878 Y183.1 E30.78402
G1 X100.005 Y182.869 E30.81405
G1 X99.156 Y182.562 E30.84408
G1 X98.337 Y182.181 E30.87413
G1 X97.883 Y181.93 E30.89138
G1 X97.687 Y181.815 E30.89894
G1 X96.929 Y181.324 E30.92898
G1 X96.218 Y180.768 E30.959
G1 X95.558 Y180.151 E30.98905
G1 X94.754 Y179.224 E31.02986
G1 X94.57 Y178.984 E31.03992
G1 X94.053 Y178.244 E31.06994
G1 X93.603 Y177.46 E31.10001
G1 X93.225 Y176.641 E31.13001
G1 X92.92 Y175.79 E31.16008
G1 X92.782 Y175.302 E31.17694
G1 X92.723 Y175.071 E31.18487
G1 X92.539 Y174.187 E31.21491
G1 X92.433 Y173.29 E31.24495
G1 X92.407 Y172.706 E31.26439
G1 X92.393 Y171.808 E31.29426
G1 X92.392 Y171.64 E31.29985
G1 X92.435 Y120.442 E33.0027
G1 X92.46 Y88.65 E34.06011
G1 X92.425 Y86.042 E34.14686
G1 X92.319 Y83.496 E34.23161
G1 X92.136 Y80.874 E34.31903
G1 X92.113 Y80.368 E34.33588
G1 X92.089 Y79.16 E34.37607
G1 X92.087 Y78.95 E34.38305
G1 X92.101 Y60.532 E34.99564
G1 X92.112 Y59.837 E35.01876
G1 X92.167 Y58.935 E35.04881
G1 X92.3 Y58.042 E35.07884
G1 X92.513 Y57.164 E35.10889
G1 X92.802 Y56.309 E35.13891
G1 X93.165 Y55.482 E35.16895
G1 X93.601 Y54.691 E35.19899
G1 F2700 E30.19899
;MESH:sx-70-film-door-bracket.stl
G0 F6000 X115.002 Y69.761
G0 X113.573 Y69.465
G0 X114.054 Y71.578
G0 X114.459 Y72.445
G0 X114.957 Y73.06
G0 X115.462 Y73.497
G0 X115.983 Y73.767
G0 X117.424 Y74.145
;TYPE:WALL-INNER
G1 F2700 E35.19899
G1 F1200 X117.915 Y74.096 E35.2154
G1 X118.338 Y73.993 E35.22988
G1 X118.552 Y73.934 E35.23726
G1 X118.666 Y73.884 E35.2414
G1 X118.867 Y73.79 E35.24878
G1 X119.125 Y73.681 E35.2581
G1 X119.253 Y73.606 E35.26303
G1 X119.512 Y73.439 E35.27328
G1 X119.74 Y73.28 E35.28253
G1 X119.807 Y73.217 E35.28559
G1 X119.986 Y73.057 E35.29357
G1 X120.207 Y72.84 E35.30387
G1 X120.4 Y72.597 E35.3142
G1 X120.614 Y72.302 E35.32632
G1 X120.911 Y71.712 E35.34829
G1 X121.098 Y71.098 E35.36963
G1 X121.104 Y71.025 E35.37207
G1 X121.172 Y70.494 E35.38988
G1 X121.165 Y70.362 E35.39427
G1 X121.149 Y69.906 E35.40945
G1 X121.038 Y69.373 E35.42756
G1 X120.997 Y69.235 E35.43235
G1 X120.921 Y69.047 E35.43909
G1 X120.813 Y68.796 E35.44818
G1 X120.776 Y68.716 E35.45111
G1 X120.515 Y68.299 E35.46747
G1 X120.432 Y68.189 E35.47205
G1 X120.272 Y68.006 E35.48014
G1 X120.141 Y67.867 E35.48649
G1 X120.056 Y67.785 E35.49042
G1 X119.845 Y67.612 E35.4995
G1 X119.718 Y67.515 E35.50481
G1 X119.583 Y67.426 E35.51019
G1 X119.325 Y67.281 E35.52003
G1 X119.262 Y67.224 E35.52286
G1 X119.106 Y67.152 E35.52857
G1 X118.88 Y67.088 E35.53639
G1 X118.78 Y67.04 E35.54007
G1 X118.693 Y67.004 E35.54321
G1 X118.337 Y66.839 E35.55626
G1 X118.191 Y66.797 E35.56131
G1 X118.119 Y66.781 E35.56376
G1 X117.798 Y66.697 E35.5748
G1 X117.658 Y66.681 E35.57949
G1 X117.425 Y66.659 E35.58727
G1 X117.246 Y66.65 E35.59323
G1 X117.173 Y66.65 E35.59566
G1 X116.968 Y66.672 E35.60252
G1 X116.683 Y66.69 E35.61201
G1 X116.594 Y66.711 E35.61506
G1 X116.386 Y66.768 E35.62223
G1 X116.168 Y66.815 E35.62965
G1 X116.07 Y66.846 E35.63307
G1 X115.81 Y66.968 E35.64262
G1 X115.584 Y67.064 E35.65078
G1 X115.506 Y67.111 E35.65381
G1 X115.256 Y67.282 E35.66389
G1 X115.113 Y67.371 E35.66949
G1 X115.031 Y67.437 E35.67299
G1 X114.774 Y67.684 E35.68485
G1 X114.633 Y67.81 E35.69114
G1 X114.245 Y68.32 E35.71245
G1 X113.956 Y68.883 E35.7335
G1 X113.784 Y69.418 E35.75219
G1 X113.76 Y69.503 E35.75513
G1 X113.691 Y70.03 E35.7728
G1 X113.683 Y70.109 E35.77544
G1 X113.678 Y70.243 E35.7799
G1 X113.683 Y70.381 E35.7845
G1 X113.678 Y70.549 E35.79009
G1 X113.683 Y70.655 E35.79362
G1 X113.702 Y70.796 E35.79835
G1 X113.734 Y70.956 E35.80378
G1 X113.763 Y71.185 E35.81145
G1 X113.787 Y71.3 E35.81536
G1 X113.832 Y71.448 E35.82051
G1 X113.902 Y71.63 E35.82699
G1 X113.957 Y71.819 E35.83354
G1 X114.001 Y71.932 E35.83757
G1 X114.068 Y72.076 E35.84285
G1 X114.183 Y72.267 E35.85027
G1 X114.253 Y72.413 E35.85566
G1 X114.324 Y72.533 E35.86029
G1 X114.414 Y72.66 E35.86547
G1 X114.582 Y72.859 E35.87413
G1 X114.662 Y72.972 E35.87874
G1 X114.761 Y73.089 E35.88383
G1 X114.847 Y73.177 E35.88793
G1 X115.107 Y73.402 E35.89936
G1 X115.158 Y73.455 E35.90181
G1 X115.301 Y73.577 E35.90806
G1 X115.372 Y73.63 E35.91101
G1 X115.783 Y73.883 E35.92706
G1 X116.057 Y73.985 E35.93678
G1 X116.124 Y74.004 E35.9391
G1 X116.751 Y74.125 E35.96034
G1 X116.882 Y74.133 E35.9647
G1 X117.424 Y74.145 E35.98274
G0 F6000 X117.409 Y73.745
;TYPE:WALL-OUTER
G1 F1200 X117.847 Y73.701 E35.99738
G1 X118.237 Y73.606 E36.01073
G1 X118.418 Y73.556 E36.01697
G1 X118.5 Y73.52 E36.01995
G1 X118.701 Y73.425 E36.02735
G1 X118.946 Y73.322 E36.03619
G1 X119.044 Y73.265 E36.03996
G1 X119.289 Y73.107 E36.04965
G1 X119.487 Y72.969 E36.05768
G1 X119.541 Y72.918 E36.06015
G1 X119.713 Y72.765 E36.06781
G1 X119.909 Y72.572 E36.07696
G1 X120.081 Y72.355 E36.08617
G1 X120.271 Y72.093 E36.09693
G1 X120.538 Y71.563 E36.11667
G1 X120.703 Y71.022 E36.13548
G1 X120.707 Y70.974 E36.13708
G1 X120.771 Y70.48 E36.15365
G1 X120.765 Y70.376 E36.15712
G1 X120.75 Y69.954 E36.17116
G1 X120.65 Y69.471 E36.18757
G1 X120.619 Y69.367 E36.19118
G1 X120.552 Y69.201 E36.19713
G1 X120.448 Y68.959 E36.20589
G1 X120.424 Y68.907 E36.20779
G1 X120.185 Y68.526 E36.22275
G1 X120.121 Y68.441 E36.22629
G1 X119.976 Y68.275 E36.23362
G1 X119.856 Y68.148 E36.23943
G1 X119.79 Y68.084 E36.24249
G1 X119.597 Y67.926 E36.25079
G1 X119.486 Y67.841 E36.25544
G1 X119.375 Y67.768 E36.25986
G1 X119.124 Y67.627 E36.26943
G1 X119.097 Y67.614 E36.27043
G1 X119.039 Y67.562 E36.27302
G1 X118.966 Y67.528 E36.2757
G1 X118.74 Y67.464 E36.28351
G1 X118.618 Y67.406 E36.288
G1 X118.533 Y67.371 E36.29106
G1 X118.197 Y67.215 E36.30338
G1 X118.093 Y67.185 E36.30698
G1 X118.014 Y67.168 E36.30967
G1 X117.724 Y67.091 E36.31965
G1 X117.617 Y67.079 E36.32323
G1 X117.396 Y67.058 E36.33061
G1 X117.236 Y67.05 E36.33594
G1 X117.195 Y67.05 E36.33731
G1 X117.011 Y67.07 E36.34346
G1 X116.743 Y67.087 E36.35239
G1 X116.693 Y67.099 E36.3541
G1 X116.483 Y67.156 E36.36134
G1 X116.27 Y67.202 E36.36859
G1 X116.216 Y67.219 E36.37047
G1 X115.981 Y67.33 E36.37912
G1 X115.766 Y67.421 E36.38688
G1 X115.723 Y67.447 E36.38855
G1 X115.483 Y67.612 E36.39824
G1 X115.345 Y67.698 E36.40365
G1 X115.295 Y67.738 E36.40578
G1 X115.041 Y67.982 E36.41749
G1 X114.928 Y68.083 E36.42253
G1 X114.585 Y68.534 E36.44138
G1 X114.327 Y69.037 E36.46018
G1 X114.167 Y69.533 E36.47752
G1 X114.153 Y69.583 E36.47924
G1 X114.088 Y70.076 E36.49578
G1 X114.082 Y70.136 E36.49779
