;FLAVOR:Marlin
;TIME:13138
;Filament used: 2.80959m
;Layer height: 0.2
;MINX:81.421
;MINY:83.391
;MINZ:0.2
;MAXX:151.477
;MAXY:151.576
;MAXZ:7
;Generated with Cura_SteamEngine 4.8.0-beta
M140 S60
M105
M190 S60
M104 S200
M105
M109 S200
M82 ;absolute extrusion mode
M201 X500.00 Y500.00 Z100.00 E5000.00 ;Setup machine max acceleration
M203 X500.00 Y500.00 Z10.00 E50.00 ;Setup machine max feedrate
M204 P500.00 R1000.00 T500.00 ;Setup Print/Retract/Travel acceleration
M205 X8.00 Y8.00 Z0.40 E5.00 ;Setup Jerk
M220 S100 ;Reset Feedrate
M221 S100 ;Reset Flowrate

G28 ;Home

G92 E0 ;Reset Extruder
G1 Z2.0 F3000 ;Move Z Axis up
G1 X10.1 Y20 Z0.28 F5000.0 ;Move to start position
G1 X10.1 Y200.0 Z0.28 F1500.0 E15 ;Draw the first line
G1 X10.4 Y200.0 Z0.28 F5000.0 ;Move to side a little
G1 X10.4 Y20 Z0.28 F1500.0 E30 ;Draw the second line
G92 E0 ;Reset Extruder
G1 Z2.0 F3000 ;Move Z Axis up

G92 E0
G92 E0
G1 F1500 E-6.5
;LAYER_COUNT:35
;LAYER:0
M107
G0 F6000 X91.036 Y87.419 Z0.2
;TYPE:SKIRT
G1 F1500 E0
G1 F1200 X91.336 Y87.122 E0.01404
G1 X91.766 Y86.746 E0.03304
G1 X92.706 Y85.983 E0.07331
G1 X93.402 Y85.479 E0.10189
G1 X94.192 Y85.031 E0.13209
G1 X95.272 Y84.499 E0.17214
G1 X95.9 Y84.223 E0.19495
G1 X96.935 Y83.899 E0.23102
G1 X98.115 Y83.618 E0.27137
G1 X99.018 Y83.459 E0.30186
G1 X99.869 Y83.403 E0.33023
G1 X101.076 Y83.391 E0.37038
G1 X101.853 Y83.422 E0.39624
G1 X102.866 Y83.578 E0.43033
G1 X104.065 Y83.844 E0.47118
G1 X104.827 Y84.054 E0.49747
G1 X105.699 Y84.402 E0.5287
G1 X106.799 Y84.92 E0.56913
G1 X107.403 Y85.238 E0.59184
G1 X108.311 Y85.853 E0.62831
G1 X109.128 Y86.495 E0.66287
G1 X109.152 Y86.478 E0.66385
G1 X110.126 Y85.91 E0.70135
G1 X111.212 Y85.378 E0.74157
G1 X111.824 Y85.11 E0.7638
G1 X112.867 Y84.784 E0.80014
G1 X114.044 Y84.505 E0.84037
G1 X114.939 Y84.348 E0.8706
G1 X115.797 Y84.292 E0.89919
G1 X117.004 Y84.281 E0.93934
G1 X117.803 Y84.315 E0.96594
G1 X118.797 Y84.471 E0.9994
G1 X119.997 Y84.739 E1.0403
G1 X120.758 Y84.949 E1.06656
G1 X121.625 Y85.296 E1.09762
G1 X122.721 Y85.813 E1.13792
G1 X123.577 Y86.285 E1.17043
G1 X124.077 Y86.629 E1.19062
G1 X129.634 Y90.776 E1.42124
G1 X130.008 Y90.778 E1.43368
G1 X139.343 Y91.463 E1.745
G1 X140.446 Y91.624 E1.78207
G1 X141.652 Y91.889 E1.82314
G1 X142.414 Y92.097 E1.84941
G1 X143.303 Y92.451 E1.88124
G1 X144.419 Y92.977 E1.92227
G1 X145.116 Y93.35 E1.94857
G1 X145.898 Y93.888 E1.98014
G1 X146.856 Y94.637 E2.02058
G1 X147.453 Y95.154 E2.04685
G1 X148.102 Y95.859 E2.07872
G1 X148.879 Y96.814 E2.11967
G1 X149.389 Y97.517 E2.14856
G1 X149.837 Y98.307 E2.17876
G1 X150.369 Y99.387 E2.2188
G1 X150.645 Y100.015 E2.24162
G1 X150.969 Y101.05 E2.27769
G1 X151.25 Y102.23 E2.31804
G1 X151.399 Y103.051 E2.34579
G1 X151.465 Y103.983 E2.37687
G1 X151.477 Y105.192 E2.41708
G1 X151.446 Y105.968 E2.44291
G1 X151.29 Y106.981 E2.477
G1 X151.024 Y108.18 E2.51785
G1 X150.814 Y108.942 E2.54414
G1 X150.466 Y109.814 E2.57536
G1 X149.948 Y110.914 E2.6158
G1 X149.63 Y111.518 E2.63851
G1 X149.015 Y112.426 E2.67498
G1 X148.27 Y113.375 E2.71511
G1 X147.823 Y113.896 E2.73794
G1 X147.027 Y114.638 E2.77414
G1 X146.069 Y115.413 E2.81512
G1 X145.43 Y115.878 E2.84141
G1 X144.594 Y116.354 E2.8734
G1 X144.382 Y116.458 E2.88126
G1 X144.394 Y116.564 E2.8848
G1 X144.389 Y117.636 E2.92046
G1 X143.703 Y126.971 E3.23178
G1 X143.542 Y128.073 E3.26882
G1 X143.277 Y129.279 E3.30989
G1 X143.069 Y130.041 E3.33616
G1 X142.715 Y130.93 E3.36799
G1 X142.35 Y131.705 E3.39648
G1 X142.553 Y131.857 E3.40491
G1 X143.161 Y132.361 E3.43118
G1 X143.716 Y132.923 E3.45745
G1 X144.21 Y133.539 E3.48371
G1 X144.639 Y134.202 E3.50998
G1 X145 Y134.905 E3.53626
G1 X145.287 Y135.64 E3.56251
G1 X145.499 Y136.401 E3.58878
G1 X145.633 Y137.179 E3.61504
G1 X145.687 Y137.967 E3.64131
G1 X145.673 Y138.593 E3.66214
G1 X145.81 Y138.994 E3.67623
G1 X145.989 Y139.763 E3.70249
G1 X146.089 Y140.547 E3.72878
G1 X146.112 Y141.142 E3.74858
G1 X146.112 Y141.679 E3.76644
G1 X146.073 Y142.454 E3.79225
G1 X145.999 Y143.24 E3.81851
G1 X145.846 Y144.015 E3.84479
G1 X145.576 Y144.875 E3.87477
G1 X145.545 Y144.957 E3.87768
G1 X145.229 Y145.681 E3.90396
G1 X144.841 Y146.369 E3.93023
G1 X144.386 Y147.014 E3.95648
G1 X143.766 Y147.713 E3.98756
G1 X142.316 Y149.164 E4.05578
G1 X141.731 Y149.693 E4.08202
G1 X141.094 Y150.161 E4.10831
G1 X140.414 Y150.562 E4.13456
G1 X139.605 Y150.928 E4.1641
G1 X139.522 Y150.96 E4.16705
G1 X138.772 Y151.206 E4.19331
G1 X138 Y151.376 E4.2196
G1 X137.216 Y151.466 E4.24585
G1 X136.144 Y151.461 E4.2815
G1 X126.809 Y150.775 E4.59282
G1 X125.708 Y150.615 E4.62983
G1 X124.501 Y150.35 E4.67093
G1 X123.74 Y150.141 E4.69718
G1 X123.612 Y150.09 E4.70176
G1 X123.365 Y150.271 E4.71194
G1 X122.685 Y150.672 E4.7382
G1 X121.876 Y151.038 E4.76773
G1 X121.793 Y151.07 E4.77069
G1 X121.043 Y151.316 E4.79694
G1 X120.271 Y151.486 E4.82324
G1 X119.487 Y151.576 E4.84948
G1 X118.415 Y151.571 E4.88514
G1 X109.08 Y150.885 E5.19646
G1 X107.979 Y150.725 E5.23346
G1 X106.772 Y150.46 E5.27456
G1 X106.011 Y150.251 E5.30081
G1 X105.117 Y149.895 E5.33282
G1 X104.002 Y149.369 E5.37382
G1 X103.306 Y148.997 E5.40007
G1 X102.526 Y148.46 E5.43157
G1 X101.568 Y147.711 E5.47201
G1 X100.971 Y147.194 E5.49828
G1 X100.322 Y146.489 E5.53015
G1 X99.545 Y145.534 E5.5711
G1 X98.988 Y144.757 E5.6029
G1 X98.586 Y144.039 E5.63027
G1 X98.054 Y142.959 E5.67031
G1 X97.754 Y142.268 E5.69536
G1 X97.515 Y141.493 E5.72234
G1 X96.824 Y141.218 E5.74708
G1 X95.725 Y140.7 E5.78748
G1 X95.124 Y140.383 E5.81008
G1 X94.215 Y139.768 E5.84659
G1 X93.265 Y139.022 E5.88676
G1 X92.76 Y138.59 E5.90887
G1 X92.009 Y137.787 E5.94543
G1 X91.246 Y136.846 E5.98573
G1 X90.855 Y136.319 E6.00755
G1 X90.287 Y135.345 E6.04505
G1 X89.754 Y134.257 E6.08535
G1 X89.462 Y133.582 E6.10981
G1 X89.161 Y132.604 E6.14385
G1 X88.882 Y131.427 E6.18408
G1 X88.735 Y130.614 E6.21156
G1 X88.7 Y130.115 E6.22819
G1 X88.488 Y130.015 E6.23599
G1 X87.887 Y129.698 E6.25859
G1 X86.978 Y129.083 E6.29509
G1 X86.028 Y128.337 E6.33527
G1 X85.523 Y127.905 E6.35737
G1 X84.772 Y127.102 E6.39394
G1 X84.009 Y126.161 E6.43423
G1 X83.618 Y125.634 E6.45606
G1 X83.05 Y124.66 E6.49356
G1 X82.517 Y123.572 E6.53386
G1 X82.225 Y122.897 E6.55832
G1 X81.924 Y121.919 E6.59235
G1 X81.645 Y120.742 E6.63258
G1 X81.498 Y119.929 E6.66006
G1 X81.432 Y118.991 E6.69134
G1 X81.421 Y117.782 E6.73155
G1 X81.455 Y116.983 E6.75815
G1 X81.611 Y115.989 E6.79161
G1 X81.879 Y114.789 E6.83251
G1 X82.089 Y114.028 E6.85877
G1 X82.436 Y113.161 E6.88983
G1 X82.953 Y112.065 E6.93013
G1 X83.363 Y111.308 E6.95877
G1 X83.768 Y110.709 E6.98282
G1 X86.748 Y106.717 E7.14851
G1 X86.657 Y105.93 E7.17486
G1 X86.662 Y104.858 E7.21051
G1 X87.348 Y95.524 E7.5218
G1 X87.509 Y94.422 E7.55884
G1 X87.774 Y93.216 E7.59991
G1 X87.982 Y92.454 E7.62618
G1 X88.336 Y91.565 E7.65801
G1 X88.862 Y90.449 E7.69904
G1 X89.235 Y89.752 E7.72533
G1 X89.772 Y88.971 E7.75686
G1 X90.519 Y88.015 E7.79721
G1 X91.036 Y87.419 E7.82345
G0 F6000 X91.593 Y87.429
G1 F1200 X92.018 Y87.057 E7.84224
G1 X92.958 Y86.294 E7.88251
G1 X93.619 Y85.815 E7.90966
G1 X94.369 Y85.39 E7.93833
G1 X95.449 Y84.858 E7.97837
G1 X96.045 Y84.596 E8.00002
G1 X97.028 Y84.288 E8.03429
G1 X98.208 Y84.007 E8.07463
G1 X99.065 Y83.856 E8.10357
G1 X99.873 Y83.803 E8.13051
G1 X101.08 Y83.791 E8.17065
G1 X101.818 Y83.821 E8.19522
G1 X102.78 Y83.969 E8.22759
G1 X103.979 Y84.235 E8.26844
G1 X104.72 Y84.44 E8.29401
G1 X105.529 Y84.764 E8.323
G1 X106.629 Y85.282 E8.36344
G1 X107.203 Y85.584 E8.38501
G1 X108.064 Y86.167 E8.41959
G1 X109.013 Y86.912 E8.45972
G1 X109.117 Y87.001 E8.46427
G1 X109.378 Y86.808 E8.47507
G1 X110.302 Y86.27 E8.51063
G1 X111.388 Y85.738 E8.55085
G1 X111.969 Y85.483 E8.57196
G1 X112.959 Y85.174 E8.60645
G1 X114.136 Y84.895 E8.64668
G1 X114.986 Y84.745 E8.67539
G1 X115.801 Y84.692 E8.70256
G1 X117.008 Y84.681 E8.7427
G1 X117.767 Y84.713 E8.76797
G1 X118.71 Y84.861 E8.79972
G1 X119.91 Y85.129 E8.84061
G1 X120.651 Y85.335 E8.86619
G1 X121.454 Y85.658 E8.89498
G1 X122.55 Y86.175 E8.93529
G1 X123.364 Y86.623 E8.96619
G1 X123.838 Y86.95 E8.98534
G1 X129.496 Y91.173 E9.22017
G1 X129.979 Y91.177 E9.23623
G1 X139.314 Y91.862 E9.54755
G1 X140.36 Y92.014 E9.58271
G1 X141.566 Y92.279 E9.62377
G1 X142.308 Y92.483 E9.64937
G1 X143.133 Y92.813 E9.67892
G1 X144.249 Y93.339 E9.71996
G1 X144.927 Y93.703 E9.74555
G1 X145.652 Y94.203 E9.77484
G1 X146.61 Y94.952 E9.81529
G1 X147.19 Y95.457 E9.84087
G1 X147.792 Y96.112 E9.87046
G1 X148.569 Y97.067 E9.91141
G1 X149.053 Y97.734 E9.93882
G1 X149.478 Y98.484 E9.96749
G1 X150.01 Y99.564 E10.00753
G1 X150.272 Y100.16 E10.02918
G1 X150.58 Y101.143 E10.06345
G1 X150.861 Y102.323 E10.10379
G1 X151.003 Y103.103 E10.13016
G1 X151.065 Y103.987 E10.15963
G1 X151.077 Y105.196 E10.19985
G1 X151.047 Y105.933 E10.22438
G1 X150.899 Y106.895 E10.25675
G1 X150.633 Y108.094 E10.2976
G1 X150.428 Y108.835 E10.32317
G1 X150.104 Y109.644 E10.35216
G1 X149.586 Y110.744 E10.3926
G1 X149.284 Y111.318 E10.41417
G1 X148.701 Y112.179 E10.44875
G1 X147.956 Y113.128 E10.48888
G1 X147.531 Y113.623 E10.51058
G1 X146.775 Y114.327 E10.54494
G1 X145.817 Y115.102 E10.58593
G1 X145.195 Y115.554 E10.6115
G1 X144.419 Y115.994 E10.64117
G1 X143.952 Y116.223 E10.65847
G1 X143.998 Y116.65 E10.67275
G1 X143.99 Y117.606 E10.70455
G1 X143.304 Y126.941 E11.01587
G1 X143.152 Y127.987 E11.05103
G1 X142.887 Y129.193 E11.09209
G1 X142.683 Y129.935 E11.11769
G1 X142.353 Y130.76 E11.14724
G1 X141.848 Y131.831 E11.18663
G1 X142.314 Y132.178 E11.20595
G1 X142.906 Y132.669 E11.23153
G1 X143.443 Y133.219 E11.2571
G1 X143.921 Y133.822 E11.28269
G1 X144.333 Y134.472 E11.30829
G1 X144.676 Y135.16 E11.33386
G1 X144.945 Y135.881 E11.35945
G1 X145.138 Y136.625 E11.38502
G1 X145.253 Y137.386 E11.41061
G1 X145.288 Y138.154 E11.43618
G1 X145.275 Y138.555 E11.44953
G1 X145.27 Y138.643 E11.45246
G1 X145.453 Y139.201 E11.47199
G1 X145.616 Y139.952 E11.49755
G1 X145.7 Y140.717 E11.52315
G1 X145.712 Y141.142 E11.53729
G1 X145.712 Y141.679 E11.55515
G1 X145.672 Y142.456 E11.58103
G1 X145.597 Y143.222 E11.60663
G1 X145.443 Y143.975 E11.63219
G1 X145.202 Y144.734 E11.65868
G1 X145.171 Y144.816 E11.66159
G1 X144.862 Y145.52 E11.68716
G1 X144.481 Y146.189 E11.71277
G1 X144.034 Y146.814 E11.73833
G1 X143.483 Y147.43 E11.76582
G1 X142.033 Y148.881 E11.83404
G1 X141.462 Y149.396 E11.85962
G1 X140.841 Y149.849 E11.88518
G1 X140.175 Y150.235 E11.91079
G1 X139.461 Y150.555 E11.93681
G1 X139.378 Y150.587 E11.93977
G1 X138.647 Y150.826 E11.96535
G1 X137.895 Y150.987 E11.99093
G1 X137.13 Y151.07 E12.01652
G1 X136.174 Y151.062 E12.04832
G1 X126.839 Y150.376 E12.35964
G1 X125.794 Y150.224 E12.39476
G1 X124.587 Y149.959 E12.43586
G1 X123.845 Y149.755 E12.46146
G1 X123.552 Y149.638 E12.47195
G1 X123.112 Y149.959 E12.49007
G1 X122.446 Y150.345 E12.51567
G1 X121.732 Y150.665 E12.54169
G1 X121.649 Y150.697 E12.54465
G1 X120.918 Y150.936 E12.57023
G1 X120.166 Y151.097 E12.59581
G1 X119.401 Y151.18 E12.6214
G1 X118.445 Y151.172 E12.6532
G1 X109.11 Y150.486 E12.96452
G1 X108.065 Y150.334 E12.99964
G1 X106.858 Y150.069 E13.04074
G1 X106.116 Y149.865 E13.06634
G1 X105.288 Y149.534 E13.096
G1 X104.173 Y149.008 E13.137
G1 X103.495 Y148.644 E13.1626
G1 X102.772 Y148.145 E13.19182
G1 X101.814 Y147.396 E13.23226
G1 X101.234 Y146.891 E13.25784
G1 X100.632 Y146.236 E13.28743
G1 X99.855 Y145.281 E13.32838
G1 X99.326 Y144.544 E13.35855
G1 X98.945 Y143.862 E13.38453
G1 X98.413 Y142.782 E13.42458
G1 X98.128 Y142.125 E13.4484
G1 X97.84 Y141.19 E13.48094
G1 X97.807 Y141.181 E13.48207
G1 X96.995 Y140.856 E13.51116
G1 X95.896 Y140.338 E13.55157
G1 X95.324 Y140.037 E13.57307
G1 X94.462 Y139.453 E13.6077
G1 X93.512 Y138.707 E13.64788
G1 X93.033 Y138.297 E13.66885
G1 X92.32 Y137.535 E13.70356
G1 X91.557 Y136.594 E13.74385
G1 X91.185 Y136.093 E13.7646
G1 X90.647 Y135.17 E13.80014
G1 X90.114 Y134.082 E13.84043
G1 X89.836 Y133.439 E13.86373
G1 X89.551 Y132.512 E13.89599
G1 X89.272 Y131.335 E13.93622
G1 X89.131 Y130.562 E13.96236
G1 X89.082 Y129.852 E13.98603
G1 X88.659 Y129.653 E14.00157
G1 X88.087 Y129.352 E14.02307
G1 X87.225 Y128.768 E14.0577
G1 X86.275 Y128.022 E14.09788
G1 X85.796 Y127.612 E14.11885
G1 X85.083 Y126.85 E14.15356
G1 X84.32 Y125.909 E14.19385
G1 X83.948 Y125.408 E14.21461
G1 X83.41 Y124.485 E14.25014
G1 X82.877 Y123.397 E14.29044
G1 X82.599 Y122.754 E14.31374
G1 X82.314 Y121.827 E14.34599
G1 X82.035 Y120.65 E14.38622
G1 X81.894 Y119.877 E14.41236
G1 X81.832 Y118.987 E14.44203
G1 X81.821 Y117.778 E14.48224
G1 X81.853 Y117.019 E14.50751
G1 X82.001 Y116.076 E14.53926
G1 X82.269 Y114.876 E14.58015
G1 X82.475 Y114.135 E14.60574
G1 X82.798 Y113.332 E14.63452
G1 X83.315 Y112.236 E14.67483
G1 X83.705 Y111.516 E14.70206
G1 X84.089 Y110.949 E14.72484
G1 X87.179 Y106.809 E14.89666
G1 X87.136 Y106.609 E14.90347
G1 X87.053 Y105.844 E14.92906
G1 X87.061 Y104.888 E14.96086
G1 X87.747 Y95.554 E15.27214
G1 X87.899 Y94.508 E15.3073
G1 X88.164 Y93.302 E15.34837
G1 X88.368 Y92.56 E15.37396
G1 X88.698 Y91.735 E15.40352
G1 X89.224 Y90.619 E15.44455
G1 X89.588 Y89.941 E15.47015
G1 X90.087 Y89.218 E15.49936
G1 X90.834 Y88.262 E15.53972
G1 X91.593 Y87.429 E15.5772
G0 F6000 X91.867 Y87.721
G1 F1200 X92.27 Y87.367 E15.59504
G1 X93.21 Y86.604 E15.63531
G1 X93.836 Y86.151 E15.66101
G1 X94.546 Y85.749 E15.68814
G1 X95.626 Y85.217 E15.72819
G1 X96.191 Y84.968 E15.74872
G1 X97.12 Y84.677 E15.7811
G1 X98.3 Y84.396 E15.82145
G1 X99.113 Y84.253 E15.8489
G1 X99.877 Y84.203 E15.87437
G1 X101.084 Y84.191 E15.91451
G1 X101.783 Y84.219 E15.93778
G1 X102.693 Y84.359 E15.9684
G1 X103.892 Y84.625 E16.00925
G1 X104.613 Y84.826 E16.03415
G1 X105.358 Y85.126 E16.06086
G1 X106.458 Y85.644 E16.1013
G1 X107.002 Y85.93 E16.12174
G1 X107.817 Y86.482 E16.15448
G1 X108.766 Y87.227 E16.19461
G1 X109.101 Y87.514 E16.20928
G1 X109.129 Y87.491 E16.21049
G1 X109.604 Y87.138 E16.23017
G1 X110.478 Y86.629 E16.26381
G1 X111.564 Y86.097 E16.30403
G1 X112.115 Y85.855 E16.32405
G1 X113.051 Y85.563 E16.35666
G1 X114.228 Y85.284 E16.39689
G1 X115.034 Y85.142 E16.42411
G1 X115.804 Y85.092 E16.44978
G1 X117.011 Y85.081 E16.48992
G1 X117.731 Y85.112 E16.51389
G1 X118.623 Y85.251 E16.54392
G1 X119.823 Y85.519 E16.58481
G1 X120.543 Y85.721 E16.60968
G1 X121.283 Y86.02 E16.63623
G1 X122.379 Y86.537 E16.67654
G1 X123.15 Y86.962 E16.70582
G1 X123.599 Y87.27 E16.72393
G1 X129.358 Y91.568 E16.96294
G1 X129.949 Y91.576 E16.98259
G1 X139.284 Y92.261 E17.29391
G1 X140.274 Y92.405 E17.32719
G1 X141.48 Y92.67 E17.36825
G1 X142.201 Y92.869 E17.39313
G1 X142.962 Y93.175 E17.42041
G1 X144.078 Y93.701 E17.46145
G1 X144.737 Y94.056 E17.48634
G1 X145.406 Y94.518 E17.51338
G1 X146.364 Y95.267 E17.55383
G1 X146.927 Y95.759 E17.5787
G1 X147.482 Y96.364 E17.60601
G1 X148.259 Y97.319 E17.64695
G1 X148.717 Y97.951 E17.67291
G1 X149.119 Y98.661 E17.70005
G1 X149.651 Y99.741 E17.74009
G1 X149.9 Y100.306 E17.76063
G1 X150.191 Y101.235 E17.79301
G1 X150.472 Y102.415 E17.83335
G1 X150.606 Y103.155 E17.85837
G1 X150.665 Y103.991 E17.88624
G1 X150.677 Y105.2 E17.92645
G1 X150.649 Y105.898 E17.94969
G1 X150.509 Y106.808 E17.98031
G1 X150.243 Y108.007 E18.02116
G1 X150.042 Y108.728 E18.04605
G1 X149.742 Y109.473 E18.07277
G1 X149.224 Y110.573 E18.11321
G1 X148.938 Y111.117 E18.13365
G1 X148.386 Y111.932 E18.16639
G1 X147.641 Y112.881 E18.20652
G1 X147.238 Y113.35 E18.22708
G1 X146.524 Y114.016 E18.25956
G1 X145.566 Y114.791 E18.30054
G1 X144.96 Y115.23 E18.32543
G1 X144.243 Y115.635 E18.35282
G1 X143.526 Y115.986 E18.37937
G1 X143.602 Y116.734 E18.40438
G1 X143.591 Y117.577 E18.43242
G1 X142.905 Y126.912 E18.74374
G1 X142.761 Y127.901 E18.77698
G1 X142.496 Y129.107 E18.81805
G1 X142.297 Y129.828 E18.84293
G1 X141.991 Y130.589 E18.87021
G1 X141.465 Y131.705 E18.91124
G1 X141.335 Y131.946 E18.92035
G1 X142.075 Y132.498 E18.95105
G1 X142.65 Y132.977 E18.97595
G1 X143.17 Y133.514 E19.00081
G1 X143.63 Y134.104 E19.02569
G1 X144.024 Y134.74 E19.05057
G1 X144.349 Y135.414 E19.07546
G1 X144.599 Y136.119 E19.10034
G1 X144.773 Y136.846 E19.1252
G1 X144.869 Y137.588 E19.15009
G1 X144.875 Y138.53 E19.18142
G1 X144.866 Y138.683 E19.18652
G1 X145.093 Y139.405 E19.21169
