; generated by PrusaSlicer 2.2.0+ on 2020-11-12 at 17:43:00 UTC

; 

; external perimeters extrusion width = 0.45mm
; perimeters extrusion width = 0.45mm
; infill extrusion width = 0.45mm
; solid infill extrusion width = 0.45mm
; top infill extrusion width = 0.40mm
; first layer extrusion width = 0.42mm

M201 X500 Y500 Z100 E5000 ; sets maximum accelerations, mm/sec^2
M203 X500 Y500 Z10 E60 ; sets maximum feedrates, mm/sec
M204 P500 R1000 T500 ; sets acceleration (P, T) and retract acceleration (R), mm/sec^2
M205 X8.00 Y8.00 Z0.40 E5.00 ; sets the jerk limits, mm/sec
M205 S0 T0 ; sets the minimum extruding and travel feed rate, mm/sec
M107
G90 ; use absolute coordinates
M83 ; extruder relative mode
M104 S200 ; set extruder temp
M140 S50 ; set bed temp
M190 S50 ; wait for bed temp
M109 S200 ; wait for extruder temp
G28 ; home all
G1 Z2 F240
G1 X2 Y10 F3000
G1 Z0.28 F240
G92 E0.0
G1 Y190 E15.0 F1500.0 ; intro line
G1 X2.3 F5000
G1 Y10 E30 F1200.0 ; intro line
G92 E0.0
G21 ; set units to millimeters
G90 ; use absolute coordinates
M83 ; use relative distances for extrusion
; Filament gcode
;BEFORE_LAYER_CHANGE
;0.2


G1 E-5.00000 F3600.00000
G1 Z0.200 F9000.000
;AFTER_LAYER_CHANGE
;0.2
G1 X80.429 Y97.221
G1 E5.00000 F2400.00000
G1 F1200.000
G1 X81.190 Y96.725 E0.02849
G1 X82.085 Y96.552 E0.02858
G1 X147.446 Y96.641 E2.04935
G1 X148.077 Y96.731 E0.02000
G1 X148.662 Y96.986 E0.02000
G1 X149.130 Y97.357 E0.01870
G1 X149.490 Y97.832 E0.01870
G1 X149.720 Y98.382 E0.01870
G1 X149.807 Y98.976 E0.01882
G1 X149.731 Y136.130 E1.16493
G1 X149.640 Y136.754 E0.01977
G1 X149.387 Y137.335 E0.01989
G1 X149.010 Y137.807 E0.01894
G1 X148.531 Y138.168 E0.01882
G1 X147.972 Y138.398 E0.01894
G1 X147.377 Y138.479 E0.01882
G1 X81.986 Y138.296 E2.05030
G1 X81.358 Y138.206 E0.01989
G1 X80.773 Y137.951 E0.02000
G1 X80.312 Y137.586 E0.01846
G1 X79.952 Y137.115 E0.01858
G1 X79.720 Y136.569 E0.01858
G1 X79.630 Y135.984 E0.01858
G1 X79.706 Y98.855 E1.16413
G1 X79.909 Y97.966 E0.02860
G1 X80.394 Y97.270 E0.02661
G1 E-3.50000 F3600.00000
G1 F7200.000
G1 X81.190 Y96.725 E-0.45810
G1 X82.085 Y96.552 E-0.43291
G1 X83.209 Y96.553 E-0.53399
G1 E-0.07500 F3600.00000
G1 X82.666 Y100.191 F9000.000
G1 E5.00000 F2400.00000
G1 F1200.000
G1 X98.399 Y100.097 E0.49330
G1 X114.793 Y100.183 E0.51403
G1 X131.137 Y100.165 E0.51246
G1 X139.919 Y100.211 E0.27534
G1 X146.840 Y100.212 E0.21702
G1 X146.770 Y134.896 E1.08752
G1 X134.474 Y134.893 E0.38553
G1 X114.721 Y134.792 E0.61934
G1 X98.325 Y134.809 E0.51409
G1 X95.593 Y134.795 E0.08565
G1 X82.596 Y134.651 E0.40753
G1 X82.666 Y100.251 E1.07859
G1 X82.290 Y99.815 F9000.000
G1 F1200.000
G1 X98.399 Y99.719 E0.50509
G1 X114.794 Y99.806 E0.51407
G1 X131.138 Y99.788 E0.51246
G1 X139.920 Y99.834 E0.27535
G1 X147.218 Y99.835 E0.22883
G1 X147.146 Y135.274 E1.11117
G1 X134.473 Y135.271 E0.39736
G1 X114.720 Y135.169 E0.61933
G1 X98.324 Y135.186 E0.51409
G1 X95.590 Y135.172 E0.08573
G1 X82.218 Y135.024 E0.41928
G1 X82.290 Y99.875 E1.10207
G1 X82.659 Y99.971 F9000.000
G1 E-3.50000 F3600.00000
G1 F7200.000
G1 X85.290 Y99.846 E-1.42500
G1 E-0.07500 F3600.00000
G1 X146.725 Y101.087 F9000.000
G1 E5.00000 F2400.00000
G1 F1200.000
G1 X146.133 Y100.494 E0.02633
G1 X145.598 Y100.494 E0.01679
G1 X146.555 Y101.451 E0.04249
G1 X146.554 Y101.984 E0.01675
G1 X145.064 Y100.494 E0.06618
G1 X144.530 Y100.494 E0.01679
G1 X146.553 Y102.517 E0.08987
G1 X146.552 Y103.050 E0.01675
G1 X143.995 Y100.494 E0.11356
G1 X143.461 Y100.494 E0.01679
G1 X146.551 Y103.583 E0.13726
G1 X146.550 Y104.117 E0.01675
G1 X142.927 Y100.494 E0.16095
G1 X142.392 Y100.494 E0.01679
G1 X146.548 Y104.650 E0.18464
G1 X146.547 Y105.183 E0.01675
G1 X141.858 Y100.494 E0.20833
G1 X141.324 Y100.494 E0.01679
G1 X146.546 Y105.716 E0.23202
G1 X146.545 Y106.249 E0.01675
G1 X140.789 Y100.494 E0.25571
G1 X140.255 Y100.494 E0.01679
G1 X146.544 Y106.783 E0.27940
G1 X146.543 Y107.316 E0.01675
G1 X139.720 Y100.492 E0.30313
G1 X139.183 Y100.490 E0.01687
G1 X146.542 Y107.849 E0.32695
G1 X146.541 Y108.382 E0.01675
G1 X138.645 Y100.487 E0.35076
G1 X138.108 Y100.484 E0.01687
G1 X146.540 Y108.915 E0.37457
G1 X146.539 Y109.449 E0.01675
G1 X137.571 Y100.481 E0.39838
G1 X137.034 Y100.478 E0.01687
G1 X146.538 Y109.982 E0.42219
G1 X146.537 Y110.515 E0.01675
G1 X136.497 Y100.476 E0.44601
G1 X135.960 Y100.473 E0.01687
G1 X146.535 Y111.048 E0.46982
G1 X146.534 Y111.581 E0.01675
G1 X135.423 Y100.470 E0.49363
G1 X134.886 Y100.467 E0.01687
G1 X146.533 Y112.115 E0.51744
G1 X146.532 Y112.648 E0.01675
G1 X134.349 Y100.464 E0.54126
G1 X133.812 Y100.462 E0.01687
G1 X146.531 Y113.181 E0.56507
G1 X146.530 Y113.714 E0.01675
G1 X133.275 Y100.459 E0.58888
G1 X132.737 Y100.456 E0.01687
G1 X146.529 Y114.247 E0.61269
G1 X146.528 Y114.781 E0.01675
G1 X132.200 Y100.453 E0.63651
G1 X131.663 Y100.450 E0.01687
G1 X146.527 Y115.314 E0.66032
G1 X146.526 Y115.847 E0.01675
G1 X131.126 Y100.448 E0.68413
G1 X130.593 Y100.448 E0.01677
G1 X146.525 Y116.380 E0.70779
G1 X146.524 Y116.913 E0.01675
G1 X130.059 Y100.449 E0.73145
G1 X129.525 Y100.449 E0.01677
G1 X146.522 Y117.447 E0.75511
G1 X146.521 Y117.980 E0.01675
G1 X128.992 Y100.450 E0.77877
G1 X128.458 Y100.450 E0.01677
G1 X146.520 Y118.513 E0.80244
G1 X146.519 Y119.046 E0.01675
G1 X127.924 Y100.451 E0.82610
G1 X127.390 Y100.452 E0.01677
G1 X146.518 Y119.579 E0.84976
G1 X146.517 Y120.113 E0.01675
G1 X126.857 Y100.452 E0.87342
G1 X126.323 Y100.453 E0.01677
G1 X146.516 Y120.646 E0.89708
G1 X146.515 Y121.179 E0.01675
G1 X125.789 Y100.453 E0.92074
G1 X125.256 Y100.454 E0.01677
G1 X146.514 Y121.712 E0.94440
G1 X146.513 Y122.245 E0.01675
G1 X124.722 Y100.455 E0.96807
G1 X124.188 Y100.455 E0.01677
G1 X146.512 Y122.779 E0.99173
G1 X146.511 Y123.312 E0.01675
G1 X123.655 Y100.456 E1.01539
G1 X123.121 Y100.456 E0.01677
G1 X146.509 Y123.845 E1.03905
G1 X146.508 Y124.378 E0.01675
G1 X122.587 Y100.457 E1.06271
G1 X122.053 Y100.458 E0.01677
G1 X146.507 Y124.911 E1.08637
G1 X146.506 Y125.444 E0.01675
G1 X121.520 Y100.458 E1.11003
G1 X120.986 Y100.459 E0.01677
G1 X146.505 Y125.978 E1.13370
G1 X146.504 Y126.511 E0.01675
G1 X120.452 Y100.459 E1.15736
G1 X119.919 Y100.460 E0.01677
G1 X146.503 Y127.044 E1.18102
G1 X146.502 Y127.577 E0.01675
G1 X119.385 Y100.460 E1.20468
G1 X118.851 Y100.461 E0.01677
G1 X146.501 Y128.110 E1.22834
G1 X146.500 Y128.644 E0.01675
G1 X118.318 Y100.462 E1.25200
G1 X117.784 Y100.462 E0.01677
G1 X146.499 Y129.177 E1.27567
G1 X146.498 Y129.710 E0.01675
G1 X117.250 Y100.463 E1.29933
G1 X116.717 Y100.463 E0.01677
G1 X146.496 Y130.243 E1.32299
G1 X146.495 Y130.776 E0.01675
G1 X116.183 Y100.464 E1.34665
G1 X115.649 Y100.465 E0.01677
G1 X146.494 Y131.310 E1.37031
G1 X146.493 Y131.843 E0.01675
G1 X115.115 Y100.465 E1.39397
G1 X114.580 Y100.464 E0.01681
G1 X146.492 Y132.376 E1.41769
G1 X146.491 Y132.909 E0.01675
G1 X114.043 Y100.462 E1.44151
G1 X113.506 Y100.459 E0.01687
G1 X146.490 Y133.442 E1.46532
G1 X146.489 Y133.976 E0.01675
G1 X112.969 Y100.456 E1.48913
G1 X112.432 Y100.453 E0.01687
G1 X146.488 Y134.509 E1.51295
G1 X146.488 Y134.613 E0.00329
G1 X146.058 Y134.613 E0.01349
G1 X111.895 Y100.450 E1.51772
G1 X111.358 Y100.447 E0.01687
G1 X145.524 Y134.613 E1.51784
G1 X144.989 Y134.613 E0.01679
G1 X110.821 Y100.445 E1.51796
G1 X110.284 Y100.442 E0.01687
G1 X144.455 Y134.613 E1.51808
G1 X143.920 Y134.613 E0.01679
G1 X109.746 Y100.439 E1.51820
G1 X109.209 Y100.436 E0.01687
G1 X143.386 Y134.613 E1.51832
G1 X142.852 Y134.613 E0.01679
G1 X108.672 Y100.433 E1.51844
G1 X108.135 Y100.430 E0.01687
G1 X142.317 Y134.613 E1.51856
G1 X141.783 Y134.612 E0.01679
G1 X107.598 Y100.428 E1.51867
G1 X107.061 Y100.425 E0.01687
G1 X141.248 Y134.612 E1.51879
G1 X140.714 Y134.612 E0.01679
G1 X106.524 Y100.422 E1.51891
G1 X105.987 Y100.419 E0.01687
G1 X140.180 Y134.612 E1.51903
G1 X139.645 Y134.612 E0.01679
G1 X105.450 Y100.416 E1.51915
G1 X104.913 Y100.414 E0.01687
G1 X139.111 Y134.612 E1.51927
G1 X138.576 Y134.612 E0.01679
G1 X104.375 Y100.411 E1.51939
G1 X103.838 Y100.408 E0.01687
G1 X138.042 Y134.611 E1.51951
G1 X137.508 Y134.611 E0.01679
G1 X103.301 Y100.405 E1.51963
G1 X102.764 Y100.402 E0.01687
G1 X136.973 Y134.611 E1.51975
G1 X136.439 Y134.611 E0.01679
G1 X102.227 Y100.399 E1.51987
G1 X101.690 Y100.397 E0.01687
G1 X135.904 Y134.611 E1.51999
G1 X135.370 Y134.611 E0.01679
G1 X101.153 Y100.394 E1.52011
G1 X100.616 Y100.391 E0.01687
G1 X134.836 Y134.611 E1.52023
G1 X134.300 Y134.610 E0.01681
G1 X100.079 Y100.388 E1.52031
G1 X99.542 Y100.385 E0.01687
G1 X133.763 Y134.607 E1.52032
G1 X133.226 Y134.604 E0.01687
G1 X99.004 Y100.383 E1.52032
G1 X98.467 Y100.380 E0.01687
G1 X132.689 Y134.601 E1.52032
G1 X132.152 Y134.599 E0.01687
G1 X97.936 Y100.382 E1.52009
G1 X97.404 Y100.385 E0.01668
G1 X131.615 Y134.596 E1.51983
G1 X131.078 Y134.593 E0.01687
G1 X96.873 Y100.389 E1.51956
G1 X96.342 Y100.392 E0.01668
G1 X130.541 Y134.590 E1.51930
G1 X130.004 Y134.588 E0.01687
G1 X95.811 Y100.395 E1.51903
G1 X95.280 Y100.398 E0.01668
G1 X129.467 Y134.585 E1.51877
G1 X128.930 Y134.582 E0.01687
G1 X94.749 Y100.401 E1.51850
G1 X94.218 Y100.405 E0.01668
G1 X128.393 Y134.579 E1.51824
G1 X127.856 Y134.577 E0.01687
G1 X93.687 Y100.408 E1.51797
G1 X93.156 Y100.411 E0.01668
G1 X127.319 Y134.574 E1.51771
G1 X126.782 Y134.571 E0.01687
G1 X92.625 Y100.414 E1.51745
G1 X92.094 Y100.417 E0.01668
G1 X126.245 Y134.568 E1.51718
G1 X125.708 Y134.566 E0.01687
G1 X91.563 Y100.421 E1.51692
G1 X91.031 Y100.424 E0.01668
G1 X125.171 Y134.563 E1.51665
G1 X124.634 Y134.560 E0.01687
G1 X90.500 Y100.427 E1.51639
G1 X89.969 Y100.430 E0.01668
G1 X124.097 Y134.557 E1.51612
G1 X123.560 Y134.555 E0.01687
G1 X89.438 Y100.433 E1.51586
G1 X88.907 Y100.437 E0.01668
G1 X123.022 Y134.552 E1.51559
G1 X122.485 Y134.549 E0.01687
G1 X88.376 Y100.440 E1.51533
G1 X87.845 Y100.443 E0.01668
G1 X121.948 Y134.546 E1.51506
G1 X121.411 Y134.544 E0.01687
G1 X87.314 Y100.446 E1.51480
G1 X86.783 Y100.449 E0.01668
G1 X120.874 Y134.541 E1.51454
G1 X120.337 Y134.538 E0.01687
G1 X86.252 Y100.453 E1.51427
G1 X85.721 Y100.456 E0.01668
G1 X119.800 Y134.535 E1.51401
G1 X119.263 Y134.533 E0.01687
G1 X85.190 Y100.459 E1.51374
G1 X84.658 Y100.462 E0.01668
G1 X118.726 Y134.530 E1.51348
G1 X118.189 Y134.527 E0.01687
G1 X84.127 Y100.465 E1.51321
G1 X83.596 Y100.469 E0.01668
G1 X117.652 Y134.524 E1.51295
G1 X117.115 Y134.522 E0.01687
G1 X83.065 Y100.472 E1.51268
G1 X82.949 Y100.472 E0.00366
G1 X82.948 Y100.889 E0.01307
G1 X116.578 Y134.519 E1.49404
G1 X116.041 Y134.516 E0.01687
G1 X82.947 Y101.422 E1.47023
G1 X82.946 Y101.955 E0.01675
G1 X115.504 Y134.513 E1.44642
G1 X114.967 Y134.511 E0.01687
G1 X82.945 Y102.488 E1.42261
G1 X82.943 Y103.021 E0.01675
G1 X114.432 Y134.510 E1.39888
G1 X113.898 Y134.510 E0.01677
G1 X82.942 Y103.555 E1.37522
G1 X82.941 Y104.088 E0.01675
G1 X113.364 Y134.511 E1.35156
G1 X112.830 Y134.511 E0.01677
G1 X82.940 Y104.621 E1.32789
G1 X82.939 Y105.154 E0.01675
G1 X112.297 Y134.512 E1.30423
G1 X111.763 Y134.512 E0.01677
G1 X82.938 Y105.687 E1.28057
G1 X82.937 Y106.220 E0.01675
G1 X111.229 Y134.513 E1.25690
G1 X110.696 Y134.513 E0.01677
G1 X82.936 Y106.754 E1.23324
G1 X82.935 Y107.287 E0.01675
G1 X110.162 Y134.514 E1.20958
G1 X109.628 Y134.514 E0.01677
G1 X82.934 Y107.820 E1.18591
G1 X82.933 Y108.353 E0.01675
G1 X109.094 Y134.515 E1.16225
G1 X108.561 Y134.516 E0.01677
G1 X82.932 Y108.886 E1.13859
G1 X82.930 Y109.420 E0.01675
G1 X108.027 Y134.516 E1.11492
G1 X107.493 Y134.517 E0.01677
G1 X82.929 Y109.953 E1.09126
G1 X82.928 Y110.486 E0.01675
G1 X106.959 Y134.517 E1.06760
G1 X106.426 Y134.518 E0.01677
G1 X82.927 Y111.019 E1.04393
G1 X82.926 Y111.552 E0.01675
G1 X105.892 Y134.518 E1.02027
G1 X105.358 Y134.519 E0.01677
G1 X82.925 Y112.086 E0.99661
G1 X82.924 Y112.619 E0.01675
G1 X104.824 Y134.519 E0.97294
G1 X104.291 Y134.520 E0.01677
G1 X82.923 Y113.152 E0.94928
G1 X82.922 Y113.685 E0.01675
G1 X103.757 Y134.520 E0.92562
G1 X103.223 Y134.521 E0.01677
G1 X82.921 Y114.218 E0.90195
G1 X82.920 Y114.752 E0.01675
G1 X102.690 Y134.522 E0.87829
G1 X102.156 Y134.522 E0.01677
G1 X82.918 Y115.285 E0.85463
G1 X82.917 Y115.818 E0.01675
G1 X101.622 Y134.523 E0.83096
G1 X101.088 Y134.523 E0.01677
G1 X82.916 Y116.351 E0.80730
G1 X82.915 Y116.884 E0.01675
G1 X100.555 Y134.524 E0.78364
G1 X100.021 Y134.524 E0.01677
G1 X82.914 Y117.418 E0.75997
G1 X82.913 Y117.951 E0.01675
G1 X99.487 Y134.525 E0.73631
G1 X98.953 Y134.525 E0.01677
G1 X82.912 Y118.484 E0.71265
G1 X82.911 Y119.017 E0.01675
G1 X98.420 Y134.526 E0.68898
G1 X97.883 Y134.524 E0.01685
G1 X82.910 Y119.550 E0.66520
G1 X82.909 Y120.084 E0.01675
G1 X97.346 Y134.521 E0.64139
G1 X96.809 Y134.518 E0.01687
G1 X82.908 Y120.617 E0.61757
G1 X82.907 Y121.150 E0.01675
G1 X96.272 Y134.515 E0.59376
G1 X95.735 Y134.512 E0.01687
G1 X82.905 Y121.683 E0.56995
G1 X82.904 Y122.216 E0.01675
G1 X95.195 Y134.507 E0.54603
G1 X94.655 Y134.501 E0.01697
G1 X82.903 Y122.750 E0.52208
G1 X82.902 Y123.283 E0.01675
G1 X94.115 Y134.495 E0.49813
G1 X93.575 Y134.490 E0.01697
G1 X82.901 Y123.816 E0.47418
G1 X82.900 Y124.349 E0.01675
G1 X93.034 Y134.484 E0.45023
G1 X92.494 Y134.478 E0.01697
G1 X82.899 Y124.882 E0.42628
G1 X82.898 Y125.416 E0.01675
G1 X91.954 Y134.472 E0.40232
G1 X91.414 Y134.466 E0.01697
G1 X82.897 Y125.949 E0.37837
G1 X82.896 Y126.482 E0.01675
G1 X90.874 Y134.460 E0.35442
G1 X90.333 Y134.454 E0.01697
G1 X82.895 Y127.015 E0.33047
G1 X82.894 Y127.548 E0.01675
G1 X89.793 Y134.448 E0.30652
G1 X89.253 Y134.442 E0.01697
G1 X82.892 Y128.081 E0.28257
G1 X82.891 Y128.615 E0.01675
G1 X88.713 Y134.436 E0.25861
G1 X88.172 Y134.430 E0.01697
G1 X82.890 Y129.148 E0.23466
G1 X82.889 Y129.681 E0.01675
G1 X87.632 Y134.424 E0.21071
G1 X87.092 Y134.418 E0.01697
G1 X82.888 Y130.214 E0.18676
G1 X82.887 Y130.747 E0.01675
G1 X86.552 Y134.412 E0.16281
G1 X86.012 Y134.406 E0.01697
G1 X82.886 Y131.281 E0.13886
G1 X82.885 Y131.814 E0.01675
G1 X85.471 Y134.400 E0.11490
G1 X84.931 Y134.394 E0.01697
G1 X82.884 Y132.347 E0.09095
G1 X82.883 Y132.880 E0.01675
G1 X84.391 Y134.388 E0.06700
G1 X83.851 Y134.382 E0.01697
G1 X82.882 Y133.413 E0.04305
G1 X82.881 Y133.947 E0.01675
G1 X83.482 Y134.548 E0.02672
M106 S255
;BEFORE_LAYER_CHANGE
;0.4


G1 E-3.50000 F3600.00000
G1 F7200.000
G1 X82.881 Y133.947 E-0.40402
G1 X82.882 Y133.413 E-0.25327
G1 X83.851 Y134.382 E-0.65093
G1 X84.096 Y134.385 E-0.11678
G1 E-0.07500 F3600.00000
G1 Z0.400 F9000.000
;AFTER_LAYER_CHANGE
;0.4
G1 X81.358 Y138.206
G1 E5.00000 F2400.00000
G1 X80.773 Y137.951 E0.02000
G1 X80.312 Y137.586 E0.01846
G1 X79.952 Y137.115 E0.01858
G1 X79.720 Y136.569 E0.01858
G1 X79.630 Y135.984 E0.01858
G1 X79.706 Y98.855 E1.16413
G1 X79.909 Y97.966 E0.02860
G1 X80.429 Y97.221 E0.02849
G1 X81.190 Y96.725 E0.02849
G1 X82.085 Y96.552 E0.02858
G1 X147.446 Y96.641 E2.04935
G1 X148.077 Y96.731 E0.02000
G1 X148.662 Y96.986 E0.02000
G1 X149.130 Y97.357 E0.01870
G1 X149.490 Y97.832 E0.01870
G1 X149.720 Y98.382 E0.01870
G1 X149.807 Y98.976 E0.01882
G1 X149.731 Y136.130 E1.16493
G1 X149.640 Y136.754 E0.01977
G1 X149.387 Y137.335 E0.01989
G1 X149.010 Y137.807 E0.01894
G1 X148.531 Y138.168 E0.01882
G1 X147.972 Y138.398 E0.01894
G1 X147.377 Y138.479 E0.01882
G1 X81.986 Y138.296 E2.05030
G1 X81.418 Y138.215 E0.01800
G1 E-3.50000 F3600.00000
G1 F7200.000
G1 X80.773 Y137.951 E-0.33061
G1 X80.312 Y137.586 E-0.27972
G1 X79.952 Y137.115 E-0.28151
G1 X79.720 Y136.569 E-0.28151
G1 X79.640 Y136.046 E-0.25165
G1 E-0.07500 F3600.00000
G1 X97.075 Y135.302 F9000.000
G1 E5.00000 F2400.00000
G1 X82.640 Y135.288 E0.48861
G1 X82.713 Y99.562 E1.20928
G1 X98.398 Y99.605 E0.53095
G1 X131.139 Y99.620 E1.10823
G1 X146.796 Y99.649 E0.52998
G1 X146.724 Y135.470 E1.21251
G1 X136.817 Y135.476 E0.33531
G1 X131.067 Y135.442 E0.19465
G1 X114.721 Y135.414 E0.55329
G1 X97.135 Y135.302 E0.59527
G1 X97.132 Y135.709 F9000.000
G1 F1500.000
G1 X82.232 Y135.695 E0.50436
G1 X82.306 Y99.154 E1.23685
G1 X98.399 Y99.198 E0.54473
G1 X131.140 Y99.213 E1.10822
G1 X147.204 Y99.243 E0.54377
G1 X147.130 Y135.877 E1.24003
G1 X136.816 Y135.883 E0.34910
G1 X131.065 Y135.849 E0.19467
G1 X114.719 Y135.821 E0.55329
G1 X97.192 Y135.710 E0.59328
G1 X96.933 Y135.362 F9000.000
