;FLAVOR:Marlin
;TIME:10049
;Filament used: 4.4889m
;Layer height: 0.2
;MINX:6.821
;MINY:78.095
;MINZ:0.2
;MAXX:225.652
;MAXY:114.223
;MAXZ:48
;Generated with Cura_SteamEngine 4.7.1
M140 S50
M105
M190 S50
M104 S200
M105
M109 S200
M82 ;absolute extrusion mode
; Ender 3 Custom Start G-code
G92 E0 ; Reset Extruder
G28 ; Home all axes
G1 Z2.0 F3000 ; Move Z Axis up little to prevent scratching of Heat Bed
G1 X0.1 Y20 Z0.3 F5000.0 ; Move to start position
G1 X0.1 Y200.0 Z0.3 F1500.0 E15 ; Draw the first line
G1 X0.4 Y200.0 Z0.3 F5000.0 ; Move to side a little
G1 X0.4 Y20 Z0.3 F1500.0 E30 ; Draw the second line
G92 E0 ; Reset Extruder
G1 Z2.0 F3000 ; Move Z Axis up little to prevent scratching of Heat Bed
G1 X5 Y20 Z0.3 F5000.0 ; Move over to prevent blob squish
G92 E0
G92 E0
G1 F2700 E-5
;LAYER_COUNT:239
;LAYER:0
M107
G1 F300 Z0.4
G0 F6000 X15.697 Y78.365 Z0.4
;TYPE:SKIRT
G1 F300 Z0.2
G1 F2700 E0
G1 F1200 X16.62 Y78.196 E0.03121
G1 X17.553 Y78.106 E0.06239
G1 X18.47 Y78.095 E0.09289
G1 X19.535 Y78.127 E0.12832
G1 X19.757 Y78.136 E0.13571
G1 X28.649 Y78.582 E0.43184
G1 X34.3 Y78.86 E0.62002
G1 X38.78 Y79.089 E0.76922
G1 X39.7 Y79.132 E0.79985
G1 X41.028 Y79.186 E0.84405
G1 X41.768 Y79.222 E0.8687
G1 X45.569 Y79.427 E0.9953
G1 X46.67 Y79.489 E1.03198
G1 X48.296 Y79.563 E1.08612
G1 X57.637 Y80.022 E1.39717
G1 X59.498 Y80.118 E1.45915
G1 X63.411 Y80.316 E1.58947
G1 X65.374 Y80.419 E1.65485
G1 X72.766 Y80.792 E1.90102
G1 X75.603 Y80.881 E1.99542
G1 X77.024 Y80.939 E2.04273
G1 X77.547 Y80.967 E2.06015
G1 X78.851 Y81.053 E2.10361
G1 X78.978 Y81.063 E2.10785
G1 X81.552 Y81.228 E2.19364
G1 X90.919 Y81.696 E2.50557
G1 X93.296 Y81.808 E2.58472
G1 X98.765 Y82.089 E2.76686
G1 X108.998 Y82.599 E3.10763
G1 X110.276 Y82.654 E3.15018
G1 X111.875 Y82.714 E3.2034
G1 X112.073 Y82.723 E3.20999
G1 X117.779 Y83.039 E3.40006
G1 X121.912 Y83.246 E3.5377
G1 X123.088 Y83.32 E3.57689
G1 X125.643 Y83.431 E3.66195
G1 X125.877 Y83.451 E3.66976
G1 X126.891 Y83.495 E3.70352
G1 X153.425 Y84.821 E4.58715
G1 X179.138 Y86.109 E5.44344
G1 X179.47 Y86.13 E5.4545
G1 X181.558 Y86.229 E5.52402
G1 X183.619 Y86.33 E5.59266
G1 X185.275 Y86.414 E5.64781
G1 X186.376 Y86.463 E5.68446
G1 X186.955 Y86.486 E5.70373
G1 X187.146 Y86.495 E5.71009
G1 X189.567 Y86.633 E5.79075
G1 X191.668 Y86.731 E5.8607
G1 X198.322 Y87.065 E6.08229
G1 X200.564 Y87.172 E6.15695
G1 X201.23 Y87.201 E6.17912
G1 X209.496 Y87.627 E6.45441
G1 X210.506 Y87.682 E6.48806
G1 X211.452 Y87.727 E6.51956
G1 X213.93 Y87.836 E6.60205
G1 X214.6 Y87.872 E6.62437
G1 X215.282 Y87.918 E6.64711
G1 X216.214 Y88.021 E6.67829
G1 X217.135 Y88.203 E6.70952
G1 X218.036 Y88.463 E6.74071
G1 X218.912 Y88.798 E6.7719
G1 X219.756 Y89.207 E6.8031
G1 X220.562 Y89.686 E6.83428
G1 X221.324 Y90.233 E6.86548
G1 X222.037 Y90.842 E6.89667
G1 X222.696 Y91.509 E6.92785
G1 X223.295 Y92.231 E6.95905
G1 X223.613 Y92.67 E6.97708
G1 X223.731 Y92.842 E6.98402
G1 X224.228 Y93.637 E7.01521
G1 X224.655 Y94.472 E7.0464
G1 X225.01 Y95.34 E7.07759
G1 X225.29 Y96.235 E7.10878
G1 X225.492 Y97.151 E7.13998
G1 X225.616 Y98.081 E7.17118
G1 X225.652 Y99.479 E7.2177
G1 X225.625 Y100.183 E7.24113
G1 X225.483 Y102.962 E7.33368
G1 X225.427 Y103.822 E7.36234
G1 X225.326 Y104.755 E7.39356
G1 X225.146 Y105.675 E7.42474
G1 X224.888 Y106.577 E7.45594
G1 X224.554 Y107.453 E7.48712
G1 X224.147 Y108.298 E7.51832
G1 X223.669 Y109.105 E7.54951
G1 X223.124 Y109.868 E7.5807
G1 X222.198 Y110.913 E7.62714
G1 X222.074 Y111.036 E7.63295
G1 X221.38 Y111.667 E7.66414
G1 X220.636 Y112.237 E7.69532
G1 X219.845 Y112.742 E7.72653
G1 X219.014 Y113.177 E7.75773
G1 X218.15 Y113.54 E7.7889
G1 X217.257 Y113.829 E7.82012
G1 X216.343 Y114.04 E7.85132
G1 X215.415 Y114.172 E7.88249
G1 X214.065 Y114.223 E7.92742
G1 X213.897 Y114.219 E7.93301
G1 X213.671 Y114.211 E7.94054
G1 X212.518 Y114.16 E7.97892
G1 X208.97 Y113.977 E8.09709
G1 X208.223 Y113.946 E8.12195
G1 X205.711 Y113.817 E8.20561
G1 X205.294 Y113.792 E8.21951
G1 X203.566 Y113.716 E8.27704
G1 X203.475 Y113.708 E8.28007
G1 X202.709 Y113.674 E8.30558
G1 X202.112 Y113.644 E8.32546
G1 X201.2 Y113.595 E8.35583
G1 X196.72 Y113.364 E8.50504
G1 X195.38 Y113.306 E8.54965
G1 X194.803 Y113.285 E8.56885
G1 X194.55 Y113.273 E8.57728
G1 X193.221 Y113.194 E8.62156
G1 X191.638 Y113.115 E8.67427
G1 X191.274 Y113.1 E8.68639
G1 X187.504 Y112.909 E8.81194
G1 X187.172 Y112.89 E8.823
G1 X185.084 Y112.786 E8.89254
G1 X184.143 Y112.742 E8.92387
G1 X181.23 Y112.595 E9.02088
G1 X180.848 Y112.57 E9.03361
G1 X180.338 Y112.541 E9.0506
G1 X178.868 Y112.469 E9.09955
G1 X177.91 Y112.428 E9.13144
G1 X123.241 Y109.696 E10.95201
G1 X122.816 Y109.684 E10.96615
G1 X120.534 Y109.604 E11.0421
G1 X119.53 Y109.553 E11.07553
G1 X117.83 Y109.444 E11.13219
G1 X117.735 Y109.446 E11.13535
G1 X117.22 Y109.422 E11.1525
G1 X115.794 Y109.322 E11.20005
G1 X109.304 Y108.998 E11.41617
G1 X107.971 Y108.941 E11.46055
G1 X106.145 Y108.873 E11.52132
G1 X105.297 Y108.83 E11.54957
G1 X103.622 Y108.722 E11.60539
G1 X102.42 Y108.655 E11.64543
G1 X100.792 Y108.571 E11.69965
G1 X92.547 Y108.162 E11.97422
G1 X92.055 Y108.143 E11.9906
G1 X91.945 Y108.134 E11.99427
G1 X90.322 Y108.063 E12.0483
G1 X88.619 Y107.982 E12.10501
G1 X88.296 Y107.969 E12.11576
G1 X87.607 Y107.937 E12.1387
G1 X85.309 Y107.817 E12.21523
G1 X83.697 Y107.735 E12.26892
G1 X81.964 Y107.633 E12.32666
G1 X75.198 Y107.292 E12.55198
G1 X73.091 Y107.217 E12.62211
G1 X72.4 Y107.183 E12.64512
G1 X65.249 Y106.789 E12.88332
G1 X63.276 Y106.699 E12.94901
G1 X61.812 Y106.624 E12.99777
G1 X50.077 Y106.032 E13.38857
G1 X48.729 Y105.974 E13.43345
G1 X47.746 Y105.938 E13.46616
G1 X47.46 Y105.924 E13.47569
G1 X45.904 Y105.827 E13.52754
G1 X33.766 Y105.22 E13.93176
G1 X33.661 Y105.219 E13.93525
G1 X32.194 Y105.139 E13.98411
G1 X31.976 Y105.131 E13.99137
G1 X30.965 Y105.084 E14.02503
G1 X29.386 Y104.997 E14.07763
G1 X28.597 Y104.96 E14.1039
G1 X28.518 Y104.953 E14.10654
G1 X26.513 Y104.858 E14.1733
G1 X20.094 Y104.541 E14.38706
G1 X19.187 Y104.498 E14.41726
G1 X17.997 Y104.435 E14.45689
G1 X17.186 Y104.381 E14.48393
G1 X16.254 Y104.277 E14.51512
G1 X15.334 Y104.095 E14.54631
G1 X14.433 Y103.835 E14.5775
G1 X13.557 Y103.499 E14.60871
G1 X12.713 Y103.09 E14.6399
G1 X11.907 Y102.61 E14.6711
G1 X11.145 Y102.063 E14.7023
G1 X10.432 Y101.454 E14.73349
G1 X9.491 Y100.46 E14.77901
G1 X9.379 Y100.326 E14.78482
G1 X8.809 Y99.582 E14.81599
G1 X8.304 Y98.791 E14.84721
G1 X7.868 Y97.961 E14.87839
G1 X7.505 Y97.096 E14.90959
G1 X7.217 Y96.204 E14.94077
G1 X7.006 Y95.29 E14.97197
G1 X6.873 Y94.361 E15.00318
G1 X6.821 Y93.075 E15.04599
G1 X6.831 Y92.618 E15.06119
G1 X6.845 Y92.292 E15.07204
G1 X7.001 Y89.207 E15.17478
G1 X7.046 Y88.498 E15.19841
G1 X7.145 Y87.566 E15.22958
G1 X7.324 Y86.645 E15.26079
G1 X7.58 Y85.743 E15.29197
G1 X7.912 Y84.866 E15.32316
G1 X8.317 Y84.02 E15.35436
G1 X8.794 Y83.212 E15.38557
G1 X9.337 Y82.447 E15.41677
G1 X9.943 Y81.732 E15.44794
G1 X10.642 Y81.04 E15.48066
G1 X10.758 Y80.935 E15.48586
G1 X11.48 Y80.336 E15.51706
G1 X12.25 Y79.8 E15.54827
G1 X13.062 Y79.332 E15.57944
G1 X13.912 Y78.935 E15.61064
G1 X14.792 Y78.612 E15.64182
G1 X15.697 Y78.365 E15.67302
G0 F6000 X15.885 Y78.733
G1 F1200 X16.792 Y78.576 E15.70364
G1 X17.71 Y78.499 E15.73428
G1 X18.458 Y78.495 E15.75916
G1 X19.523 Y78.527 E15.7946
G1 X19.737 Y78.535 E15.80172
G1 X28.64 Y78.983 E16.09821
G1 X34.279 Y79.26 E16.28599
G1 X38.71 Y79.486 E16.43356
G1 X39.744 Y79.534 E16.46798
G1 X41.009 Y79.586 E16.51009
G1 X41.747 Y79.621 E16.53467
G1 X45.546 Y79.827 E16.66121
G1 X46.626 Y79.888 E16.69719
G1 X48.277 Y79.963 E16.75215
G1 X57.616 Y80.421 E17.06314
G1 X59.49 Y80.519 E17.12556
G1 X63.39 Y80.716 E17.25544
G1 X65.332 Y80.817 E17.32012
G1 X72.785 Y81.193 E17.56832
G1 X75.492 Y81.277 E17.6584
G1 X77.004 Y81.338 E17.70873
G1 X77.521 Y81.366 E17.72595
G1 X78.914 Y81.459 E17.77238
G1 X81.509 Y81.626 E17.85887
G1 X90.931 Y82.097 E18.17264
G1 X93.276 Y82.208 E18.25072
G1 X98.731 Y82.487 E18.43239
G1 X109.053 Y83.002 E18.77613
G1 X110.198 Y83.051 E18.81425
G1 X111.86 Y83.113 E18.86957
G1 X112.051 Y83.122 E18.87593
G1 X117.738 Y83.437 E19.06537
G1 X121.892 Y83.645 E19.2037
G1 X123.091 Y83.721 E19.24366
G1 X125.626 Y83.831 E19.32806
G1 X125.857 Y83.851 E19.33577
G1 X126.871 Y83.894 E19.36952
G1 X153.405 Y85.22 E20.25315
G1 X179.113 Y86.508 E21.10927
G1 X179.495 Y86.532 E21.122
G1 X181.538 Y86.629 E21.19003
G1 X183.599 Y86.73 E21.25866
G1 X185.189 Y86.81 E21.31161
G1 X186.359 Y86.862 E21.35057
G1 X186.939 Y86.885 E21.36987
G1 X187.123 Y86.894 E21.376
G1 X189.62 Y87.036 E21.45918
G1 X191.648 Y87.13 E21.52671
G1 X198.298 Y87.464 E21.74817
G1 X198.846 Y87.489 E21.76641
G1 X200.585 Y87.574 E21.82432
G1 X201.209 Y87.6 E21.84509
G1 X209.474 Y88.026 E22.12035
G1 X210.467 Y88.08 E22.15343
G1 X211.488 Y88.129 E22.18743
G1 X213.546 Y88.218 E22.25594
G1 X213.969 Y88.238 E22.27002
G1 X214.411 Y88.261 E22.28475
G1 X215.255 Y88.317 E22.31288
G1 X216.17 Y88.419 E22.3435
G1 X217.073 Y88.6 E22.37413
G1 X217.957 Y88.858 E22.40476
G1 X218.815 Y89.192 E22.43538
G1 X219.64 Y89.6 E22.46599
G1 X220.427 Y90.077 E22.4966
G1 X221.17 Y90.621 E22.52723
G1 X221.863 Y91.227 E22.55785
G1 X222.501 Y91.891 E22.58848
G1 X223.283 Y92.896 E22.63083
G1 X223.401 Y93.068 E22.63777
G1 X223.888 Y93.849 E22.66838
G1 X224.306 Y94.67 E22.69902
G1 X224.651 Y95.523 E22.72963
G1 X224.92 Y96.404 E22.76026
G1 X225.113 Y97.304 E22.79088
G1 X225.226 Y98.218 E22.82151
G1 X225.252 Y99.464 E22.86296
G1 X225.225 Y100.163 E22.88623
G1 X225.083 Y102.942 E22.97878
G1 X225.028 Y103.796 E23.00724
G1 X224.928 Y104.711 E23.03785
G1 X224.749 Y105.614 E23.06847
G1 X224.492 Y106.498 E23.09909
G1 X224.16 Y107.357 E23.12972
G1 X223.754 Y108.183 E23.16033
G1 X223.278 Y108.972 E23.19098
G1 X222.736 Y109.715 E23.22157
G1 X221.916 Y110.629 E23.26241
G1 X221.792 Y110.752 E23.26822
G1 X221.111 Y111.371 E23.29883
G1 X220.378 Y111.929 E23.32947
G1 X219.6 Y112.421 E23.36009
G1 X218.783 Y112.844 E23.39069
G1 X217.931 Y113.194 E23.42132
G1 X217.053 Y113.47 E23.45193
G1 X216.154 Y113.667 E23.48254
G1 X215.241 Y113.787 E23.51317
G1 X214.075 Y113.823 E23.55197
G1 X213.689 Y113.812 E23.56481
G1 X212.538 Y113.76 E23.60314
G1 X210.583 Y113.661 E23.66824
G1 X208.922 Y113.574 E23.72356
G1 X208.243 Y113.546 E23.74617
G1 X205.66 Y113.413 E23.83219
G1 X205.332 Y113.394 E23.84312
G1 X203.584 Y113.317 E23.90131
G1 X203.496 Y113.309 E23.90425
G1 X202.729 Y113.275 E23.92979
G1 X202.133 Y113.245 E23.94964
G1 X201.221 Y113.196 E23.98001
G1 X196.752 Y112.966 E24.12885
G1 X195.344 Y112.904 E24.17573
G1 X194.817 Y112.885 E24.19327
G1 X194.574 Y112.873 E24.20136
G1 X193.335 Y112.799 E24.24264
G1 X191.673 Y112.717 E24.29799
G1 X191.295 Y112.7 E24.31057
G1 X187.526 Y112.51 E24.43609
G1 X187.209 Y112.492 E24.44665
G1 X185.102 Y112.387 E24.51681
G1 X184.163 Y112.343 E24.54808
G1 X181.416 Y112.205 E24.63956
G1 X180.951 Y112.175 E24.65506
G1 X180.295 Y112.138 E24.67691
G1 X178.959 Y112.073 E24.7214
G1 X177.93 Y112.029 E24.75566
G1 X123.225 Y109.295 E26.57742
G1 X122.83 Y109.285 E26.59056
G1 X120.725 Y109.212 E26.66062
G1 X119.407 Y109.145 E26.70451
G1 X117.606 Y109.029 E26.76454
G1 X117.248 Y109.023 E26.77645
G1 X115.842 Y108.924 E26.82333
G1 X109.245 Y108.595 E27.04302
G1 X108.048 Y108.544 E27.08286
G1 X106.294 Y108.479 E27.14124
G1 X105.476 Y108.439 E27.16848
G1 X103.724 Y108.328 E27.22687
G1 X102.381 Y108.252 E27.27161
G1 X100.826 Y108.173 E27.3234
G1 X92.498 Y107.759 E27.60073
G1 X92.07 Y107.743 E27.61497
G1 X91.987 Y107.736 E27.61774
G1 X90.341 Y107.663 E27.67254
G1 X88.638 Y107.582 E27.72925
G1 X88.314 Y107.569 E27.74004
G1 X87.628 Y107.538 E27.76288
G1 X85.313 Y107.416 E27.83998
G1 X83.721 Y107.335 E27.893
G1 X82.074 Y107.238 E27.94787
G1 X75.164 Y106.891 E28.17799
G1 X73.11 Y106.817 E28.24635
G1 X72.422 Y106.784 E28.26926
G1 X65.292 Y106.391 E28.50676
G1 X63.297 Y106.3 E28.57319
G1 X50.018 Y105.629 E29.01541
G1 X48.756 Y105.574 E29.05743
G1 X47.761 Y105.538 E29.09054
G1 X47.485 Y105.524 E29.09973
G1 X46.029 Y105.433 E29.14825
G1 X33.811 Y104.822 E29.55513
G1 X33.682 Y104.819 E29.55943
G1 X32.286 Y104.743 E29.60593
G1 X31.994 Y104.732 E29.61565
G1 X30.987 Y104.685 E29.64917
G1 X29.423 Y104.598 E29.70127
G1 X28.616 Y104.561 E29.72814
G1 X28.54 Y104.554 E29.73068
G1 X26.533 Y104.458 E29.79751
G1 X20.114 Y104.141 E30.01127
G1 X19.209 Y104.098 E30.0414
G1 X17.861 Y104.026 E30.0863
G1 X17.213 Y103.982 E30.1079
G1 X16.298 Y103.879 E30.13853
G1 X15.395 Y103.698 E30.16916
G1 X14.512 Y103.439 E30.19977
G1 X13.654 Y103.105 E30.23039
G1 X12.829 Y102.697 E30.261
G1 X12.042 Y102.219 E30.29163
G1 X11.299 Y101.675 E30.32225
G1 X10.607 Y101.068 E30.35287
G1 X9.798 Y100.204 E30.39224
G1 X9.686 Y100.07 E30.39805
G1 X9.127 Y99.339 E30.42865
G1 X8.633 Y98.561 E30.45931
G1 X8.209 Y97.744 E30.48992
G1 X7.857 Y96.894 E30.52052
G1 X7.58 Y96.015 E30.55117
G1 X7.381 Y95.117 E30.58177
G1 X7.26 Y94.204 E30.6124
G1 X7.221 Y93.082 E30.64974
G1 X7.231 Y92.634 E30.66464
G1 X7.244 Y92.312 E30.67536
G1 X7.392 Y89.371 E30.7733
G1 X7.445 Y88.524 E30.80153
G1 X7.543 Y87.608 E30.83217
G1 X7.721 Y86.705 E30.86278
G1 X7.976 Y85.82 E30.89341
G1 X8.306 Y84.961 E30.92402
G1 X8.71 Y84.134 E30.95463
G1 X9.185 Y83.345 E30.98526
G1 X9.726 Y82.6 E31.01589
G1 X10.329 Y81.904 E31.04651
G1 X10.911 Y81.336 E31.07356
G1 X11.027 Y81.231 E31.07877
G1 X11.735 Y80.644 E31.10936
G1 X12.492 Y80.12 E31.13998
G1 X13.292 Y79.664 E31.1706
G1 X14.128 Y79.278 E31.20123
G1 X14.995 Y78.967 E31.23187
G1 X15.885 Y78.733 E31.26247
G0 F6000 X16.071 Y79.102
G1 F1200 X16.963 Y78.958 E31.29253
G1 X17.863 Y78.894 E31.32254
G1 X18.446 Y78.895 E31.34193
G1 X19.511 Y78.927 E31.37736
G1 X19.716 Y78.935 E31.38419
G1 X28.609 Y79.381 E31.68034
G1 X34.259 Y79.659 E31.86849
G1 X38.739 Y79.888 E32.01769
G1 X39.667 Y79.931 E32.04859
G1 X40.919 Y79.982 E32.09026
G1 X41.725 Y80.021 E32.1171
G1 X45.524 Y80.226 E32.24364
G1 X46.68 Y80.291 E32.28215
G1 X48.257 Y80.362 E32.33466
G1 X57.595 Y80.821 E32.64561
G1 X59.457 Y80.917 E32.70763
G1 X63.369 Y81.115 E32.83791
G1 X65.336 Y81.218 E32.90342
G1 X72.753 Y81.592 E33.15042
G1 X75.571 Y81.68 E33.2442
G1 X76.866 Y81.732 E33.2873
G1 X77.495 Y81.765 E33.30825
G1 X78.788 Y81.851 E33.35135
G1 X78.86 Y81.857 E33.35376
G1 X81.533 Y82.028 E33.44284
G1 X90.881 Y82.495 E33.75414
G1 X93.256 Y82.607 E33.83323
G1 X98.725 Y82.888 E34.01537
G1 X108.964 Y83.398 E34.35634
G1 X110.242 Y83.453 E34.39888
G1 X111.845 Y83.513 E34.45224
G1 X112.029 Y83.522 E34.45836
G1 X117.699 Y83.836 E34.64724
G1 X122.015 Y84.053 E34.79097
G1 X123.097 Y84.122 E34.82703
G1 X125.609 Y84.231 E34.91066
G1 X125.819 Y84.249 E34.91767
G1 X126.851 Y84.294 E34.95203
G1 X153.384 Y85.62 E35.83562
G1 X179.088 Y86.908 E36.69161
G1 X179.381 Y86.926 E36.70137
G1 X181.519 Y87.028 E36.77256
G1 X183.579 Y87.129 E36.84116
G1 X185.21 Y87.212 E36.89548
G1 X186.336 Y87.262 E36.93297
G1 X187.1 Y87.293 E36.9584
G1 X189.578 Y87.434 E37.04095
G1 X191.628 Y87.53 E37.10921
G1 X198.255 Y87.863 E37.3299
G1 X198.827 Y87.889 E37.34895
G1 X200.507 Y87.97 E37.40489
G1 X201.188 Y88 E37.42756
G1 X209.453 Y88.426 E37.70282
G1 X210.429 Y88.479 E37.73533
G1 X211.469 Y88.529 E37.76996
G1 X213.528 Y88.618 E37.83851
G1 X214.39 Y88.661 E37.86721
G1 X214.546 Y88.67 E37.87241
G1 X215.228 Y88.716 E37.89515
G1 X216.126 Y88.817 E37.9252
G1 X217.011 Y88.996 E37.95523
G1 X217.877 Y89.254 E37.98529
G1 X218.716 Y89.586 E38.0153
G1 X219.523 Y89.992 E38.04534
G1 X220.291 Y90.467 E38.07538
G1 X221.014 Y91.009 E38.10543
G1 X221.686 Y91.612 E38.13546
G1 X222.302 Y92.273 E38.16551
G1 X222.953 Y93.123 E38.20112
G1 X223.071 Y93.295 E38.20806
G1 X223.548 Y94.061 E38.23808
G1 X223.956 Y94.867 E38.26812
G1 X224.291 Y95.706 E38.29817
G1 X224.55 Y96.571 E38.3282
G1 X224.732 Y97.456 E38.35825
G1 X224.835 Y98.353 E38.38828
G1 X224.853 Y99.449 E38.42474
G1 X224.826 Y100.143 E38.44784
G1 X224.684 Y102.922 E38.54039
G1 X224.629 Y103.77 E38.56866
G1 X224.53 Y104.668 E38.5987
G1 X224.352 Y105.553 E38.62873
G1 X224.097 Y106.419 E38.65875
G1 X223.766 Y107.259 E38.68878
G1 X223.362 Y108.067 E38.71883
G1 X222.888 Y108.836 E38.74888
G1 X222.347 Y109.56 E38.77894
G1 X221.634 Y110.345 E38.81421
