; generated by PrusaSlicer 2.2.0+ on 2020-11-20 at 19:11:23 UTC

; 

; external perimeters extrusion width = 0.45mm
; perimeters extrusion width = 0.45mm
; infill extrusion width = 0.45mm
; solid infill extrusion width = 0.45mm
; top infill extrusion width = 0.40mm
; first layer extrusion width = 0.42mm

M201 X500 Y500 Z100 E5000 ; sets maximum accelerations, mm/sec^2
M203 X500 Y500 Z10 E60 ; sets maximum feedrates, mm/sec
M204 P500 R1000 T500 ; sets acceleration (P, T) and retract acceleration (R), mm/sec^2
M205 X8.00 Y8.00 Z0.40 E5.00 ; sets the jerk limits, mm/sec
M205 S0 T0 ; sets the minimum extruding and travel feed rate, mm/sec
M107
G90 ; use absolute coordinates
M83 ; extruder relative mode
M104 S200 ; set extruder temp
M140 S60 ; set bed temp
M190 S60 ; wait for bed temp
M109 S200 ; wait for extruder temp
G28 ; home all
G1 Z2 F240
G1 X2 Y10 F3000
G1 Z0.28 F240
G92 E0.0
G1 Y190 E15.0 F1500.0 ; intro line
G1 X2.3 F5000
G1 Y10 E30 F1200.0 ; intro line
G92 E0.0
G21 ; set units to millimeters
G90 ; use absolute coordinates
M83 ; use relative distances for extrusion
; Filament gcode
;BEFORE_LAYER_CHANGE
;0.2


G1 E-1.00000 F3600.00000
G1 Z0.200 F9000.000
;AFTER_LAYER_CHANGE
;0.2
G1 X63.000 Y43.391
G1 E1.00000 F2400.00000
G1 F1200.000
G1 X63.717 Y43.047 E0.02496
G1 X77.423 Y39.663 E0.44264
G1 X157.379 Y39.661 E2.50697
G1 X157.942 Y39.729 E0.01775
G1 X171.144 Y43.034 E0.42672
G1 X171.680 Y43.249 E0.01811
G1 X172.145 Y43.585 E0.01799
G1 X172.654 Y44.259 E0.02649
G1 X181.108 Y61.060 E0.58972
G1 X181.326 Y61.743 E0.02249
G1 X187.185 Y104.308 E1.34717
G1 X187.478 Y108.016 E0.11662
G1 X187.574 Y111.730 E0.11650
G1 X187.479 Y115.360 E0.11387
G1 X187.191 Y119.019 E0.11506
G1 X181.148 Y173.936 E1.73227
G1 X180.720 Y175.909 E0.06331
G1 X180.018 Y177.455 E0.05325
G1 X179.377 Y178.437 E0.03675
G1 X178.283 Y179.657 E0.05138
G1 X176.988 Y180.627 E0.05072
G1 X176.394 Y180.861 E0.02002
G1 X174.955 Y181.203 E0.04638
G1 X173.503 Y181.369 E0.04583
G1 X117.385 Y181.858 E1.75960
G1 X61.480 Y181.368 E1.75293
G1 X60.146 Y181.222 E0.04209
G1 X58.872 Y180.931 E0.04097
G1 X58.156 Y180.693 E0.02367
G1 X57.700 Y180.440 E0.01633
G1 X56.761 Y179.696 E0.03757
G1 X56.254 Y179.176 E0.02276
G1 X55.662 Y178.489 E0.02844
G1 X55.039 Y177.557 E0.03516
G1 X54.235 Y175.785 E0.06099
G1 X53.858 Y173.980 E0.05785
G1 X47.714 Y119.005 E1.73441
G1 X47.425 Y115.300 E0.11655
G1 X47.331 Y111.691 E0.11319
G1 X47.426 Y108.060 E0.11387
G1 X47.716 Y104.356 E0.11650
G1 X48.187 Y100.770 E0.11339
G1 X53.613 Y61.572 E1.24075
G1 X53.802 Y61.051 E0.01740
G1 X62.434 Y43.957 E0.60043
G1 X62.957 Y43.434 E0.02320
G1 E-0.70000 F3600.00000
G1 F7200.000
G1 X63.492 Y43.161 E-0.28500
G1 E-0.01500 F3600.00000
G1 X64.633 Y46.120 F9000.000
G1 E1.00000 F2400.00000
G1 F1200.000
G1 X72.460 Y50.058 E0.27471
G1 X74.315 Y47.359 E0.10268
G1 X77.523 Y43.178 E0.16522
G1 X78.042 Y44.071 E0.03238
G1 X78.145 Y44.321 E0.00848
G1 X78.217 Y44.584 E0.00855
G1 X78.255 Y44.854 E0.00855
G1 X78.260 Y45.127 E0.00855
G1 X78.230 Y45.398 E0.00855
G1 X78.166 Y45.663 E0.00855
G1 X78.070 Y45.918 E0.00855
G1 X77.944 Y46.154 E0.00839
G1 X75.794 Y49.101 E0.11437
G1 X74.042 Y51.650 E0.09700
G1 X81.119 Y55.212 E0.24843
G1 X73.377 Y70.599 E0.54008
G1 X65.161 Y66.465 E0.28836
G1 X62.274 Y72.519 E0.21032
G1 X59.681 Y78.777 E0.21238
G1 X57.420 Y85.163 E0.21239
G1 X55.497 Y91.657 E0.21238
G1 X53.926 Y98.199 E0.21094
G1 X53.223 Y101.990 E0.12088
G1 X53.364 Y102.036 E0.00465
G1 X53.059 Y104.353 E0.07327
G1 X52.911 Y104.355 E0.00465
G1 X52.564 Y108.761 E0.13856
G1 X52.709 Y108.792 E0.00464
G1 X52.648 Y111.128 E0.07328
G1 X52.501 Y111.146 E0.00465
G1 X52.616 Y115.563 E0.13855
G1 X52.763 Y115.579 E0.00463
G1 X52.947 Y117.909 E0.07329
G1 X52.802 Y117.942 E0.00464
G1 X53.379 Y122.323 E0.13855
G1 X53.527 Y122.324 E0.00462
G1 X53.953 Y124.623 E0.07330
G1 X53.813 Y124.670 E0.00463
G1 X54.844 Y128.966 E0.13854
G1 X54.991 Y128.952 E0.00461
G1 X55.655 Y131.194 E0.07331
G1 X55.521 Y131.256 E0.00462
G1 X56.996 Y135.420 E0.13853
G1 X57.140 Y135.391 E0.00460
G1 X58.035 Y137.552 E0.07333
G1 X57.908 Y137.627 E0.00461
G1 X59.810 Y141.614 E0.13852
G1 X59.950 Y141.570 E0.00459
G1 X61.066 Y143.626 E0.07334
G1 X60.948 Y143.713 E0.00460
G1 X63.257 Y147.480 E0.13851
G1 X63.391 Y147.422 E0.00458
G1 X64.716 Y149.350 E0.07335
G1 X64.608 Y149.449 E0.00459
G1 X67.297 Y152.953 E0.13850
G1 X67.425 Y152.882 E0.00457
G1 X68.944 Y154.661 E0.07337
G1 X68.848 Y154.771 E0.00458
G1 X71.888 Y157.975 E0.13849
G1 X72.007 Y157.890 E0.00457
G1 X73.705 Y159.501 E0.07338
G1 X73.621 Y159.620 E0.00457
G1 X76.979 Y162.489 E0.13848
G1 X77.088 Y162.393 E0.00456
G1 X78.945 Y163.818 E0.07339
G1 X78.874 Y163.945 E0.00456
G1 X82.514 Y166.446 E0.13847
G1 X82.612 Y166.339 E0.00455
G1 X84.608 Y167.562 E0.07341
G1 X84.551 Y167.696 E0.00455
G1 X88.432 Y169.803 E0.13846
G1 X88.518 Y169.687 E0.00454
G1 X90.631 Y170.695 E0.07342
G1 X90.589 Y170.833 E0.00454
G1 X94.669 Y172.523 E0.13845
G1 X94.742 Y172.398 E0.00453
G1 X96.950 Y173.180 E0.07344
G1 X96.922 Y173.322 E0.00453
G1 X101.156 Y174.576 E0.13844
G1 X101.215 Y174.445 E0.00452
G1 X103.493 Y174.992 E0.07345
G1 X103.481 Y175.136 E0.00452
G1 X107.822 Y175.940 E0.13843
G1 X107.867 Y175.803 E0.00452
G1 X110.190 Y176.109 E0.07346
G1 X110.194 Y176.253 E0.00452
G1 X114.596 Y176.600 E0.13845
G1 X114.626 Y176.459 E0.00451
G1 X116.920 Y176.519 E0.07197
G1 X116.939 Y176.662 E0.00451
G1 X121.306 Y176.548 E0.13700
G1 X121.322 Y176.405 E0.00450
G1 X123.658 Y176.221 E0.07348
G1 X123.692 Y176.360 E0.00451
G1 X128.068 Y175.784 E0.13841
G1 X128.068 Y175.641 E0.00450
G1 X130.373 Y175.214 E0.07348
G1 X130.421 Y175.349 E0.00450
G1 X134.713 Y174.318 E0.13840
G1 X134.698 Y174.176 E0.00449
G1 X136.945 Y173.510 E0.07349
G1 X137.008 Y173.639 E0.00450
G1 X141.169 Y172.166 E0.13840
G1 X141.138 Y172.026 E0.00449
G1 X143.304 Y171.129 E0.07349
G1 X143.380 Y171.250 E0.00449
G1 X147.364 Y169.350 E0.13840
G1 X147.319 Y169.214 E0.00449
G1 X149.379 Y168.096 E0.07350
G1 X149.467 Y168.208 E0.00449
G1 X153.231 Y165.902 E0.13840
G1 X153.171 Y165.772 E0.00449
G1 X155.103 Y164.444 E0.07350
G1 X155.203 Y164.546 E0.00449
G1 X158.705 Y161.859 E0.13839
G1 X158.632 Y161.736 E0.00449
G1 X160.414 Y160.214 E0.07350
G1 X160.525 Y160.305 E0.00449
G1 X163.727 Y157.266 E0.13840
G1 X163.641 Y157.152 E0.00449
G1 X165.254 Y155.452 E0.07350
G1 X165.374 Y155.530 E0.00449
G1 X168.240 Y152.174 E0.13840
G1 X168.142 Y152.069 E0.00450
G1 X169.569 Y150.210 E0.07349
G1 X169.697 Y150.275 E0.00449
G1 X172.197 Y146.637 E0.13840
G1 X172.088 Y146.543 E0.00450
G1 X173.313 Y144.545 E0.07349
G1 X173.447 Y144.597 E0.00450
G1 X175.553 Y140.717 E0.13841
G1 X175.435 Y140.636 E0.00450
G1 X176.444 Y138.520 E0.07348
G1 X176.583 Y138.557 E0.00450
G1 X178.272 Y134.479 E0.13841
G1 X178.146 Y134.410 E0.00451
G1 X178.928 Y132.202 E0.07347
G1 X179.070 Y132.224 E0.00451
G1 X180.324 Y127.991 E0.13842
G1 X180.190 Y127.936 E0.00452
G1 X180.737 Y125.658 E0.07346
G1 X180.881 Y125.665 E0.00451
G1 X181.686 Y121.323 E0.13843
G1 X181.547 Y121.283 E0.00453
G1 X181.853 Y118.961 E0.07345
G1 X181.997 Y118.952 E0.00452
G1 X182.343 Y114.550 E0.13844
G1 X182.201 Y114.525 E0.00453
G1 X182.262 Y112.184 E0.07343
G1 X182.405 Y112.160 E0.00453
G1 X182.289 Y107.746 E0.13845
G1 X182.145 Y107.736 E0.00454
G1 X181.961 Y105.401 E0.07342
G1 X182.100 Y105.363 E0.00454
G1 X181.524 Y100.984 E0.13849
G1 X181.379 Y100.989 E0.00455
G1 X180.961 Y98.734 E0.07191
G1 X181.096 Y98.681 E0.00455
G1 X179.410 Y91.657 E0.22648
G1 X177.486 Y85.163 E0.21238
G1 X175.225 Y78.777 E0.21239
G1 X172.632 Y72.519 E0.21238
G1 X169.745 Y66.465 E0.21032
G1 X161.529 Y70.599 E0.28836
G1 X153.787 Y55.212 E0.54008
G1 X160.865 Y51.650 E0.24843
G1 X159.112 Y49.101 E0.09700
G1 X156.962 Y46.154 E0.11437
G1 X156.837 Y45.918 E0.00839
G1 X156.740 Y45.663 E0.00855
G1 X156.676 Y45.398 E0.00855
G1 X156.646 Y45.127 E0.00855
G1 X156.651 Y44.857 E0.00845
G1 X156.689 Y44.584 E0.00867
G1 X156.761 Y44.321 E0.00854
G1 X156.864 Y44.071 E0.00848
G1 X157.383 Y43.178 E0.03238
G1 X160.591 Y47.359 E0.16523
G1 X162.446 Y50.058 E0.10268
G1 X170.273 Y46.120 E0.27471
G1 X178.190 Y61.854 E0.55228
G1 X171.520 Y65.210 E0.23410
G1 X174.479 Y71.413 E0.21548
G1 X177.141 Y77.840 E0.21810
G1 X179.463 Y84.397 E0.21810
G1 X181.438 Y91.066 E0.21809
G1 X183.062 Y97.830 E0.21809
G1 X183.683 Y101.192 E0.10721
G1 X184.141 Y104.675 E0.11016
G1 X184.417 Y108.177 E0.11015
G1 X184.509 Y111.689 E0.11015
G1 X184.417 Y115.201 E0.11015
G1 X184.141 Y118.704 E0.11015
G1 X183.683 Y122.187 E0.11015
G1 X183.043 Y125.641 E0.11015
G1 X182.223 Y129.057 E0.11015
G1 X181.225 Y132.425 E0.11015
G1 X180.052 Y135.737 E0.11015
G1 X178.708 Y138.983 E0.11015
G1 X177.195 Y142.153 E0.11015
G1 X175.519 Y145.241 E0.11015
G1 X173.683 Y148.236 E0.11015
G1 X171.693 Y151.131 E0.11015
G1 X169.555 Y153.919 E0.11015
G1 X167.273 Y156.590 E0.11015
G1 X164.855 Y159.138 E0.11015
G1 X162.307 Y161.557 E0.11015
G1 X159.635 Y163.838 E0.11015
G1 X156.848 Y165.977 E0.11015
G1 X153.953 Y167.967 E0.11015
G1 X150.958 Y169.802 E0.11015
G1 X147.870 Y171.479 E0.11015
G1 X144.699 Y172.991 E0.11015
G1 X141.454 Y174.335 E0.11015
G1 X138.142 Y175.508 E0.11015
G1 X134.774 Y176.506 E0.11015
G1 X131.358 Y177.326 E0.11015
G1 X127.903 Y177.966 E0.11015
G1 X124.420 Y178.425 E0.11015
G1 X120.918 Y178.700 E0.11016
G1 X117.500 Y178.792 E0.10721
G1 X113.988 Y178.700 E0.11014
G1 X110.486 Y178.425 E0.11015
G1 X107.003 Y177.966 E0.11015
G1 X103.549 Y177.326 E0.11015
G1 X100.132 Y176.506 E0.11015
G1 X96.764 Y175.508 E0.11015
G1 X93.452 Y174.335 E0.11015
G1 X90.207 Y172.991 E0.11015
G1 X87.036 Y171.479 E0.11015
G1 X83.949 Y169.802 E0.11015
G1 X80.953 Y167.967 E0.11015
G1 X78.058 Y165.977 E0.11015
G1 X75.271 Y163.838 E0.11015
G1 X72.599 Y161.557 E0.11015
G1 X70.051 Y159.138 E0.11015
G1 X67.633 Y156.590 E0.11015
G1 X65.351 Y153.919 E0.11015
G1 X63.213 Y151.131 E0.11015
G1 X61.223 Y148.236 E0.11015
G1 X59.387 Y145.241 E0.11015
G1 X57.711 Y142.153 E0.11015
G1 X56.198 Y138.983 E0.11015
G1 X54.854 Y135.737 E0.11015
G1 X53.681 Y132.425 E0.11015
G1 X52.684 Y129.057 E0.11015
G1 X51.863 Y125.641 E0.11015
G1 X51.223 Y122.187 E0.11015
G1 X50.765 Y118.704 E0.11015
G1 X50.489 Y115.201 E0.11015
G1 X50.397 Y111.689 E0.11015
G1 X50.489 Y108.177 E0.11015
G1 X50.765 Y104.675 E0.11015
G1 X51.223 Y101.192 E0.11016
G1 X51.844 Y97.830 E0.10721
G1 X53.468 Y91.066 E0.21809
G1 X55.443 Y84.397 E0.21809
G1 X57.765 Y77.840 E0.21810
G1 X60.427 Y71.413 E0.21810
G1 X63.386 Y65.210 E0.21548
G1 X56.716 Y61.854 E0.23410
G1 X64.606 Y46.173 E0.55040
G1 E-0.70000 F3600.00000
G1 F7200.000
G1 X65.144 Y46.440 E-0.28500
G1 E-0.01500 F3600.00000
G1 X162.571 Y49.573 F9000.000
G1 E1.00000 F2400.00000
G1 F1200.000
G1 X170.440 Y45.614 E0.27622
G1 X178.696 Y62.022 E0.57592
G1 X172.020 Y65.381 E0.23435
G1 X174.824 Y71.260 E0.20422
G1 X177.493 Y77.705 E0.21871
G1 X179.822 Y84.280 E0.21872
G1 X181.803 Y90.968 E0.21871
G1 X183.431 Y97.751 E0.21871
G1 X184.055 Y101.133 E0.10783
G1 X184.517 Y104.636 E0.11077
G1 X184.794 Y108.158 E0.11077
G1 X184.886 Y111.689 E0.11077
G1 X184.794 Y115.221 E0.11077
G1 X184.517 Y118.743 E0.11077
G1 X184.055 Y122.246 E0.11077
G1 X183.412 Y125.719 E0.11077
G1 X182.587 Y129.155 E0.11077
G1 X181.583 Y132.542 E0.11077
G1 X180.404 Y135.872 E0.11077
G1 X179.052 Y139.136 E0.11077
G1 X177.531 Y142.325 E0.11077
G1 X175.846 Y145.429 E0.11077
G1 X174.000 Y148.442 E0.11077
G1 X171.999 Y151.353 E0.11077
G1 X169.848 Y154.156 E0.11077
G1 X167.554 Y156.842 E0.11077
G1 X165.122 Y159.405 E0.11077
G1 X163.149 Y161.277 E0.08528
G1 X162.559 Y161.837 E0.02549
G1 X159.873 Y164.131 E0.11077
G1 X157.070 Y166.282 E0.11077
G1 X154.158 Y168.283 E0.11077
G1 X151.146 Y170.129 E0.11077
G1 X148.041 Y171.815 E0.11077
G1 X144.853 Y173.336 E0.11077
G1 X141.589 Y174.687 E0.11077
G1 X138.259 Y175.867 E0.11077
G1 X134.871 Y176.870 E0.11077
G1 X131.436 Y177.695 E0.11077
G1 X127.962 Y178.339 E0.11077
G1 X124.460 Y178.800 E0.11077
G1 X120.938 Y179.077 E0.11077
G1 X117.500 Y179.169 E0.10783
G1 X113.968 Y179.077 E0.11076
G1 X110.446 Y178.800 E0.11077
G1 X106.944 Y178.339 E0.11077
G1 X103.470 Y177.695 E0.11077
G1 X100.035 Y176.870 E0.11077
G1 X96.647 Y175.867 E0.11077
G1 X93.317 Y174.687 E0.11077
G1 X90.053 Y173.336 E0.11077
G1 X89.319 Y172.986 E0.02549
G1 X86.865 Y171.815 E0.08528
G1 X83.760 Y170.129 E0.11077
G1 X80.748 Y168.283 E0.11077
G1 X77.836 Y166.282 E0.11077
G1 X75.033 Y164.131 E0.11077
G1 X72.347 Y161.837 E0.11077
G1 X69.784 Y159.405 E0.11077
G1 X67.352 Y156.842 E0.11077
G1 X65.058 Y154.156 E0.11077
G1 X62.907 Y151.353 E0.11077
G1 X60.906 Y148.442 E0.11077
G1 X59.061 Y145.429 E0.11077
G1 X57.375 Y142.325 E0.11077
G1 X55.854 Y139.136 E0.11077
G1 X54.502 Y135.872 E0.11077
G1 X53.323 Y132.542 E0.11077
G1 X52.319 Y129.155 E0.11077
G1 X51.494 Y125.719 E0.11077
G1 X50.851 Y122.246 E0.11077
G1 X50.389 Y118.743 E0.11077
G1 X50.112 Y115.221 E0.11077
G1 X50.020 Y111.689 E0.11077
G1 X50.112 Y108.158 E0.11077
G1 X50.389 Y104.636 E0.11077
G1 X50.851 Y101.133 E0.11077
G1 X51.475 Y97.751 E0.10783
G1 X53.103 Y90.968 E0.21871
G1 X55.085 Y84.280 E0.21871
G1 X57.413 Y77.705 E0.21872
G1 X60.082 Y71.260 E0.21871
G1 X62.886 Y65.381 E0.20422
G1 X56.210 Y62.022 E0.23435
G1 X64.466 Y45.614 E0.57592
G1 X72.336 Y49.573 E0.27622
G1 X74.010 Y47.137 E0.09268
G1 X77.566 Y42.503 E0.18317
G1 X78.380 Y43.904 E0.05081
G1 X78.503 Y44.199 E0.01001
G1 X78.587 Y44.508 E0.01004
G1 X78.632 Y44.825 E0.01004
G1 X78.637 Y45.145 E0.01004
G1 X78.602 Y45.463 E0.01004
G1 X78.527 Y45.774 E0.01004
G1 X78.414 Y46.074 E0.01004
G1 X78.265 Y46.355 E0.00998
G1 X76.102 Y49.319 E0.11505
G1 X74.597 Y51.508 E0.08328
G1 X81.626 Y55.044 E0.24671
G1 X73.544 Y71.105 E0.56373
G1 X65.336 Y66.975 E0.28811
G1 X62.618 Y72.673 E0.19794
G1 X60.034 Y78.913 E0.21176
G1 X57.779 Y85.279 E0.21177
G1 X55.861 Y91.755 E0.21176
G1 X54.295 Y98.278 E0.21032
G1 X53.654 Y101.734 E0.11021
G1 X53.779 Y101.774 E0.00411
G1 X53.391 Y104.725 E0.09330
G1 X53.260 Y104.727 E0.00410
G1 X52.966 Y108.461 E0.11746
G1 X53.094 Y108.489 E0.00411
G1 X53.016 Y111.464 E0.09331
G1 X52.887 Y111.479 E0.00409
G1 X52.985 Y115.224 E0.11746
G1 X53.115 Y115.238 E0.00410
G1 X53.348 Y118.205 E0.09331
G1 X53.221 Y118.234 E0.00408
G1 X53.710 Y121.948 E0.11745
G1 X53.841 Y121.949 E0.00409
G1 X54.383 Y124.875 E0.09331
G1 X54.260 Y124.917 E0.00407
G1 X55.134 Y128.559 E0.11745
G1 X55.264 Y128.546 E0.00408
G1 X56.109 Y131.400 E0.09332
G1 X55.991 Y131.454 E0.00406
G1 X57.242 Y134.985 E0.11745
G1 X57.369 Y134.959 E0.00407
G1 X58.508 Y137.709 E0.09332
G1 X58.397 Y137.775 E0.00406
G1 X60.009 Y141.156 E0.11744
G1 X60.133 Y141.117 E0.00406
G1 X61.553 Y143.733 E0.09333
G1 X61.450 Y143.810 E0.00405
G1 X63.407 Y147.003 E0.11744
G1 X63.526 Y146.952 E0.00405
G1 X65.212 Y149.405 E0.09333
G1 X65.117 Y149.493 E0.00404
G1 X67.397 Y152.464 E0.11744
G1 X67.510 Y152.401 E0.00404
G1 X69.443 Y154.664 E0.09334
G1 X69.358 Y154.761 E0.00403
G1 X71.936 Y157.478 E0.11744
G1 X72.041 Y157.403 E0.00403
G1 X74.201 Y159.452 E0.09334
G1 X74.127 Y159.557 E0.00402
G1 X76.975 Y161.989 E0.11743
G1 X77.071 Y161.904 E0.00402
G1 X79.433 Y163.717 E0.09335
G1 X79.371 Y163.828 E0.00401
G1 X82.457 Y165.950 E0.11743
G1 X82.544 Y165.855 E0.00401
G1 X85.082 Y167.411 E0.09335
G1 X85.032 Y167.528 E0.00400
G1 X88.324 Y169.315 E0.11743
G1 X88.399 Y169.212 E0.00401
G1 X91.087 Y170.494 E0.09335
G1 X91.050 Y170.616 E0.00399
G1 X94.510 Y172.049 E0.11742
G1 X94.574 Y171.939 E0.00400
G1 X97.381 Y172.933 E0.09336
G1 X97.357 Y173.058 E0.00398
G1 X100.948 Y174.121 E0.11742
G1 X101.000 Y174.005 E0.00399
G1 X103.896 Y174.701 E0.09336
G1 X103.885 Y174.827 E0.00398
G1 X107.567 Y175.509 E0.11741
G1 X107.607 Y175.389 E0.00398
G1 X110.559 Y175.777 E0.09337
G1 X110.562 Y175.904 E0.00397
G1 X114.296 Y176.198 E0.11742
G1 X114.322 Y176.074 E0.00397
G1 X117.253 Y176.151 E0.09192
G1 X117.269 Y176.276 E0.00396
G1 X120.967 Y176.179 E0.11597
G1 X120.980 Y176.053 E0.00397
G1 X123.949 Y175.820 E0.09338
G1 X123.979 Y175.942 E0.00396
G1 X127.691 Y175.454 E0.11741
G1 X127.691 Y175.327 E0.00396
G1 X130.619 Y174.784 E0.09338
G1 X130.662 Y174.903 E0.00395
G1 X134.303 Y174.029 E0.11740
G1 X134.289 Y173.904 E0.00396
