; generated by PrusaSlicer 2.2.0+ on 2020-11-21 at 17:04:15 UTC

; 

; external perimeters extrusion width = 0.45mm
; perimeters extrusion width = 0.45mm
; infill extrusion width = 0.45mm
; solid infill extrusion width = 0.45mm
; top infill extrusion width = 0.40mm
; support material extrusion width = 0.38mm
; first layer extrusion width = 0.42mm

M201 X500 Y500 Z100 E5000 ; sets maximum accelerations, mm/sec^2
M203 X500 Y500 Z10 E60 ; sets maximum feedrates, mm/sec
M204 P500 R1000 T500 ; sets acceleration (P, T) and retract acceleration (R), mm/sec^2
M205 X8.00 Y8.00 Z0.40 E5.00 ; sets the jerk limits, mm/sec
M205 S0 T0 ; sets the minimum extruding and travel feed rate, mm/sec
M107
G90 ; use absolute coordinates
M83 ; extruder relative mode
M104 S200 ; set extruder temp
M140 S60 ; set bed temp
M190 S60 ; wait for bed temp
M109 S200 ; wait for extruder temp
G28 ; home all
G1 Z2 F240
G1 X2 Y10 F3000
G1 Z0.28 F240
G92 E0.0
G1 Y190 E15.0 F1500.0 ; intro line
G1 X2.3 F5000
G1 Y10 E30 F1200.0 ; intro line
G92 E0.0
G21 ; set units to millimeters
G90 ; use absolute coordinates
M83 ; use relative distances for extrusion
; Filament gcode
;BEFORE_LAYER_CHANGE
;0.2


G1 E-1.00000 F3600.00000
G1 Z0.200 F9000.000
;AFTER_LAYER_CHANGE
;0.2
G1 X60.653 Y101.528
G1 E1.00000 F2400.00000
G1 F1200.000
G1 X61.366 Y100.936 E0.02907
G1 X69.304 Y96.666 E0.28261
G1 X70.047 Y96.424 E0.02449
G1 X94.804 Y96.398 E0.77623
G1 X172.670 Y101.854 E2.44743
G1 X173.585 Y102.110 E0.02977
G1 X174.103 Y102.469 E0.01977
G1 X174.510 Y102.956 E0.01989
G1 X174.773 Y103.528 E0.01977
G1 X174.876 Y104.154 E0.01989
G1 X174.877 Y136.244 E1.00615
G1 X174.809 Y136.791 E0.01728
G1 X174.615 Y137.311 E0.01740
G1 X174.245 Y137.840 E0.02024
G1 X173.746 Y138.249 E0.02024
G1 X173.155 Y138.510 E0.02024
G1 X172.516 Y138.602 E0.02024
G1 X62.489 Y138.602 E3.44984
G1 X61.701 Y138.464 E0.02508
G1 X61.003 Y138.072 E0.02508
G1 X60.635 Y137.699 E0.01645
G1 X60.359 Y137.257 E0.01633
G1 X60.185 Y136.766 E0.01633
G1 X60.123 Y136.249 E0.01633
G1 X60.123 Y102.987 E1.04291
G1 X60.265 Y102.215 E0.02461
G1 X60.624 Y101.581 E0.02285
G1 E-0.70000 F3600.00000
G1 F7200.000
G1 X61.077 Y101.187 E-0.28500
G1 E-0.01500 F3600.00000
G1 X82.600 Y92.463 F9000.000
G1 E1.00000 F2400.00000
G1 F1200.000
G1 X83.389 Y91.746 E0.03341
G1 X87.035 Y89.723 E0.13074
G1 X89.353 Y89.148 E0.07489
G1 X91.394 Y89.143 E0.06399
G1 X92.603 Y89.401 E0.03877
G1 X93.837 Y89.140 E0.03953
G1 X96.070 Y89.176 E0.07002
G1 X98.751 Y89.969 E0.08767
G1 X101.995 Y91.882 E0.11809
G1 X103.627 Y93.441 E0.07077
G1 X103.777 Y93.648 E0.00800
G1 X104.271 Y93.716 E0.01564
G1 X105.726 Y94.274 E0.04885
G1 X106.321 Y94.609 E0.02141
G1 X173.384 Y94.609 E2.10274
G1 X177.005 Y95.686 E0.11844
G1 X178.980 Y97.100 E0.07614
G1 X180.559 Y98.919 E0.07554
G1 X181.616 Y101.080 E0.07541
G1 X182.115 Y103.441 E0.07566
G1 X182.115 Y137.109 E1.05566
G1 X181.039 Y140.730 E0.11844
G1 X179.625 Y142.705 E0.07614
G1 X177.806 Y144.284 E0.07554
G1 X175.645 Y145.341 E0.07541
G1 X173.284 Y145.841 E0.07566
G1 X61.702 Y145.841 E3.49860
G1 X58.899 Y145.178 E0.09028
G1 X56.790 Y143.988 E0.07594
G1 X55.086 Y142.377 E0.07352
G1 X53.908 Y140.619 E0.06634
G1 X52.884 Y137.123 E0.11423
G1 X52.919 Y101.941 E1.10310
G1 X53.498 Y99.549 E0.07717
G1 X54.690 Y97.378 E0.07765
G1 X56.226 Y95.718 E0.07092
G1 X57.981 Y94.497 E0.06704
G1 X60.649 Y93.564 E0.08860
G1 X61.545 Y93.494 E0.02817
G1 X63.271 Y91.832 E0.07516
G1 X66.564 Y89.919 E0.11938
G1 X69.004 Y89.194 E0.07984
G1 X71.350 Y89.141 E0.07355
G1 X72.623 Y89.400 E0.04074
G1 X73.883 Y89.139 E0.04037
G1 X76.374 Y89.223 E0.07814
G1 X78.851 Y90.014 E0.08152
G1 X81.818 Y91.749 E0.10776
G1 X82.556 Y92.422 E0.03132
G1 X82.600 Y92.976 F9000.000
G1 F1200.000
G1 X83.592 Y92.065 E0.04224
G1 X87.196 Y90.065 E0.12923
G1 X89.420 Y89.520 E0.07182
G1 X91.373 Y89.520 E0.06123
G1 X92.603 Y89.787 E0.03946
G1 X93.854 Y89.517 E0.04012
G1 X95.989 Y89.545 E0.06694
G1 X98.579 Y90.306 E0.08467
G1 X101.784 Y92.196 E0.11666
G1 X103.351 Y93.699 E0.06808
G1 X103.562 Y94.002 E0.01157
G1 X104.158 Y94.077 E0.01884
G1 X105.577 Y94.621 E0.04764
G1 X106.221 Y94.987 E0.02320
G1 X173.357 Y94.987 E2.10502
G1 X176.812 Y96.011 E0.11297
G1 X178.742 Y97.393 E0.07445
G1 X180.258 Y99.147 E0.07267
G1 X181.266 Y101.224 E0.07239
G1 X181.738 Y103.460 E0.07167
G1 X181.738 Y137.082 E1.05420
G1 X180.714 Y140.537 E0.11297
G1 X179.332 Y142.467 E0.07445
G1 X177.578 Y143.983 E0.07267
G1 X175.501 Y144.991 E0.07239
G1 X173.265 Y145.463 E0.07167
G1 X61.723 Y145.463 E3.49731
G1 X59.061 Y144.836 E0.08577
G1 X57.031 Y143.697 E0.07296
G1 X55.386 Y142.148 E0.07085
G1 X54.262 Y140.484 E0.06298
G1 X53.261 Y137.096 E0.11077
G1 X53.296 Y101.964 E1.10152
G1 X53.858 Y99.663 E0.07427
G1 X55.009 Y97.581 E0.07460
G1 X56.459 Y96.015 E0.06692
G1 X58.131 Y94.844 E0.06399
G1 X60.749 Y93.928 E0.08697
G1 X61.708 Y93.861 E0.03014
G1 X63.481 Y92.146 E0.07735
G1 X66.734 Y90.257 E0.11795
G1 X69.038 Y89.570 E0.07539
G1 X71.336 Y89.518 E0.07208
G1 X72.624 Y89.786 E0.04122
G1 X73.894 Y89.516 E0.04072
G1 X76.335 Y89.599 E0.07659
G1 X78.678 Y90.350 E0.07715
G1 X81.609 Y92.064 E0.10646
G1 X82.556 Y92.935 E0.04033
G1 X82.600 Y93.491 F9000.000
G1 F1200.000
G1 X83.796 Y92.383 E0.05112
G1 X87.311 Y90.425 E0.12617
G1 X89.444 Y89.897 E0.06888
G1 X91.352 Y89.897 E0.05985
G1 X92.603 Y90.173 E0.04016
G1 X93.872 Y89.895 E0.04075
G1 X95.908 Y89.914 E0.06385
G1 X98.408 Y90.643 E0.08165
G1 X101.574 Y92.509 E0.11521
G1 X103.074 Y93.956 E0.06535
G1 X103.347 Y94.357 E0.01521
G1 X104.046 Y94.438 E0.02208
G1 X105.428 Y94.968 E0.04640
G1 X106.120 Y95.364 E0.02499
G1 X173.330 Y95.364 E2.10733
G1 X176.618 Y96.336 E0.10752
G1 X178.472 Y97.658 E0.07139
G1 X179.930 Y99.335 E0.06967
G1 X180.903 Y101.325 E0.06945
G1 X181.361 Y103.480 E0.06909
G1 X181.361 Y137.055 E1.05272
G1 X180.389 Y140.343 E0.10752
G1 X179.067 Y142.197 E0.07139
G1 X177.390 Y143.655 E0.06967
G1 X175.400 Y144.628 E0.06945
G1 X173.245 Y145.086 E0.06909
G1 X61.745 Y145.086 E3.49600
G1 X59.222 Y144.494 E0.08126
G1 X57.236 Y143.380 E0.07140
G1 X55.686 Y141.919 E0.06679
G1 X54.614 Y140.348 E0.05962
G1 X53.638 Y137.068 E0.10728
G1 X53.673 Y101.988 E1.09994
G1 X54.218 Y99.778 E0.07135
G1 X55.327 Y97.784 E0.07154
G1 X56.693 Y96.311 E0.06297
G1 X58.280 Y95.191 E0.06092
G1 X60.848 Y94.293 E0.08530
G1 X61.933 Y94.226 E0.03408
G1 X62.091 Y94.000 E0.00865
G1 X63.689 Y92.461 E0.06957
G1 X66.904 Y90.594 E0.11655
G1 X69.072 Y89.946 E0.07095
G1 X71.323 Y89.896 E0.07059
G1 X72.624 Y90.171 E0.04172
G1 X73.905 Y89.894 E0.04108
G1 X76.296 Y89.975 E0.07502
G1 X78.506 Y90.686 E0.07277
G1 X81.401 Y92.379 E0.10516
G1 X82.556 Y93.450 E0.04939
G1 E-0.70000 F3600.00000
G1 F7200.000
G1 X83.010 Y93.059 E-0.28500
G1 E-0.01500 F3600.00000
G1 X103.130 Y94.714 F9000.000
G1 E1.00000 F2400.00000
G1 F1200.000
G1 X103.935 Y94.799 E0.02538
G1 X105.279 Y95.315 E0.04513
G1 X106.019 Y95.741 E0.02676
G1 X173.303 Y95.741 E2.10965
G1 X176.426 Y96.662 E0.10208
G1 X178.203 Y97.923 E0.06833
G1 X179.603 Y99.524 E0.06667
G1 X180.539 Y101.427 E0.06651
G1 X180.984 Y103.500 E0.06648
G1 X180.984 Y137.028 E1.05124
G1 X180.063 Y140.151 E0.10208
G1 X178.802 Y141.928 E0.06833
G1 X177.201 Y143.328 E0.06667
G1 X175.298 Y144.264 E0.06651
G1 X173.225 Y144.709 E0.06648
G1 X61.767 Y144.709 E3.49469
G1 X59.383 Y144.152 E0.07674
G1 X57.441 Y143.062 E0.06984
G1 X55.985 Y141.688 E0.06277
G1 X54.967 Y140.210 E0.05626
G1 X54.015 Y137.041 E0.10376
G1 X54.050 Y102.011 E1.09834
G1 X54.577 Y99.894 E0.06841
G1 X55.645 Y97.988 E0.06849
G1 X56.927 Y96.607 E0.05909
G1 X58.430 Y95.538 E0.05783
G1 X60.947 Y94.658 E0.08359
G1 X62.144 Y94.593 E0.03758
G1 X62.369 Y94.255 E0.01273
G1 X63.899 Y92.775 E0.06674
G1 X67.074 Y90.931 E0.11513
G1 X69.106 Y90.323 E0.06650
G1 X71.309 Y90.273 E0.06908
G1 X72.625 Y90.558 E0.04225
G1 X73.916 Y90.272 E0.04146
G1 X76.257 Y90.351 E0.07343
G1 X78.333 Y91.022 E0.06840
G1 X81.192 Y92.694 E0.10386
G1 X82.600 Y94.008 E0.06038
G1 X84.000 Y92.701 E0.06006
G1 X87.427 Y90.784 E0.12312
G1 X89.467 Y90.274 E0.06593
G1 X91.331 Y90.274 E0.05845
G1 X92.603 Y90.560 E0.04087
G1 X93.892 Y90.272 E0.04142
G1 X95.829 Y90.284 E0.06074
G1 X98.237 Y90.980 E0.07860
G1 X101.363 Y92.822 E0.11375
G1 X102.796 Y94.212 E0.06259
G1 X103.097 Y94.664 E0.01704
G1 X102.913 Y95.073 F9000.000
G1 F1200.000
G1 X103.825 Y95.161 E0.02872
G1 X105.130 Y95.661 E0.04382
G1 X105.917 Y96.118 E0.02853
G1 X173.276 Y96.118 E2.11198
G1 X176.288 Y97.014 E0.09853
G1 X177.965 Y98.216 E0.06472
G1 X179.302 Y99.753 E0.06385
G1 X180.175 Y101.530 E0.06208
G1 X180.607 Y103.521 E0.06387
G1 X180.607 Y137.001 E1.04974
G1 X179.711 Y140.013 E0.09853
G1 X178.509 Y141.690 E0.06472
G1 X176.972 Y143.027 E0.06385
G1 X175.195 Y143.900 E0.06208
G1 X173.204 Y144.332 E0.06387
G1 X61.788 Y144.332 E3.49338
G1 X59.544 Y143.810 E0.07222
G1 X57.646 Y142.745 E0.06827
G1 X56.283 Y141.456 E0.05880
G1 X55.319 Y140.072 E0.05289
G1 X54.393 Y137.013 E0.10021
G1 X54.427 Y102.035 E1.09672
G1 X54.937 Y100.011 E0.06544
G1 X55.962 Y98.193 E0.06544
G1 X57.162 Y96.902 E0.05526
G1 X58.581 Y95.885 E0.05472
G1 X61.045 Y95.023 E0.08186
G1 X62.356 Y94.961 E0.04115
G1 X62.648 Y94.510 E0.01686
G1 X64.108 Y93.090 E0.06386
G1 X67.244 Y91.268 E0.11371
G1 X69.140 Y90.699 E0.06205
G1 X71.294 Y90.651 E0.06756
G1 X72.627 Y90.944 E0.04279
G1 X73.928 Y90.649 E0.04185
G1 X76.218 Y90.727 E0.07183
G1 X78.160 Y91.357 E0.06402
G1 X80.983 Y93.008 E0.10255
G1 X82.600 Y94.526 E0.06952
G1 X84.205 Y93.018 E0.06905
G1 X87.544 Y91.143 E0.12007
G1 X89.491 Y90.651 E0.06295
G1 X91.309 Y90.651 E0.05703
G1 X92.602 Y90.947 E0.04159
G1 X93.913 Y90.649 E0.04214
G1 X95.751 Y90.654 E0.05763
G1 X98.067 Y91.317 E0.07553
G1 X101.152 Y93.136 E0.11228
G1 X102.518 Y94.466 E0.05980
G1 X102.880 Y95.023 E0.02082
G1 X102.695 Y95.433 F9000.000
G1 F1200.000
G1 X103.715 Y95.523 E0.03210
G1 X104.980 Y96.008 E0.04248
G1 X105.815 Y96.495 E0.03030
G1 X173.248 Y96.495 E2.11433
G1 X176.095 Y97.339 E0.09308
G1 X177.696 Y98.481 E0.06165
G1 X179.002 Y99.981 E0.06238
G1 X179.812 Y101.633 E0.05767
G1 X180.230 Y103.541 E0.06126
G1 X180.230 Y136.973 E1.04825
G1 X179.386 Y139.820 E0.09308
G1 X178.244 Y141.421 E0.06165
G1 X176.743 Y142.727 E0.06238
G1 X175.092 Y143.537 E0.05767
G1 X173.184 Y143.955 E0.06126
G1 X61.810 Y143.955 E3.49205
G1 X59.657 Y143.450 E0.06933
G1 X57.852 Y142.428 E0.06503
G1 X56.557 Y141.197 E0.05603
G1 X55.646 Y139.882 E0.05017
G1 X54.770 Y136.986 E0.09486
G1 X54.804 Y102.059 E1.09511
G1 X55.296 Y100.129 E0.06244
G1 X56.279 Y98.399 E0.06238
G1 X57.425 Y97.174 E0.05260
G1 X58.777 Y96.208 E0.05212
G1 X61.141 Y95.389 E0.07845
G1 X62.570 Y95.330 E0.04482
G1 X62.929 Y94.763 E0.02104
G1 X64.318 Y93.404 E0.06095
G1 X67.414 Y91.606 E0.11225
G1 X69.222 Y91.068 E0.05915
G1 X71.278 Y91.028 E0.06447
G1 X72.628 Y91.331 E0.04338
G1 X73.942 Y91.027 E0.04229
G1 X76.128 Y91.094 E0.06857
G1 X77.987 Y91.693 E0.06126
G1 X80.775 Y93.323 E0.10124
G1 X82.157 Y94.621 E0.05944
G1 X82.603 Y95.295 E0.02533
G1 X83.044 Y94.620 E0.02527
G1 X84.410 Y93.335 E0.05880
G1 X87.662 Y91.502 E0.11705
G1 X89.514 Y91.028 E0.05995
G1 X91.287 Y91.028 E0.05559
G1 X92.602 Y91.334 E0.04232
G1 X93.934 Y91.026 E0.04286
G1 X95.724 Y91.031 E0.05612
G1 X97.896 Y91.654 E0.07087
G1 X100.905 Y93.422 E0.10940
G1 X102.239 Y94.721 E0.05838
G1 X102.663 Y95.383 E0.02465
G1 X102.477 Y95.795 F9000.000
G1 F1200.000
G1 X103.606 Y95.885 E0.03551
G1 X104.831 Y96.354 E0.04111
G1 X105.712 Y96.872 E0.03205
G1 X173.221 Y96.872 E2.11671
G1 X175.902 Y97.665 E0.08766
G1 X177.427 Y98.746 E0.05861
G1 X178.675 Y100.171 E0.05939
G1 X179.449 Y101.737 E0.05477
G1 X179.853 Y103.562 E0.05861
G1 X179.853 Y136.946 E1.04675
G1 X179.060 Y139.627 E0.08766
G1 X177.979 Y141.152 E0.05861
G1 X176.554 Y142.400 E0.05939
G1 X174.988 Y143.174 E0.05477
G1 X173.163 Y143.578 E0.05861
G1 X61.832 Y143.578 E3.49070
G1 X59.771 Y143.089 E0.06642
G1 X58.059 Y142.113 E0.06178
G1 X56.832 Y140.938 E0.05327
G1 X55.973 Y139.692 E0.04746
G1 X55.147 Y136.958 E0.08954
G1 X55.181 Y102.083 E1.09349
G1 X55.654 Y100.248 E0.05942
G1 X56.595 Y98.606 E0.05932
G1 X57.686 Y97.446 E0.04995
G1 X58.973 Y96.531 E0.04951
G1 X61.236 Y95.754 E0.07503
G1 X62.785 Y95.701 E0.04857
G1 X63.210 Y95.015 E0.02529
G1 X64.528 Y93.718 E0.05800
G1 X67.584 Y91.943 E0.11078
G1 X69.304 Y91.437 E0.05622
G1 X71.261 Y91.405 E0.06136
G1 X72.629 Y91.718 E0.04403
G1 X73.957 Y91.405 E0.04277
G1 X76.039 Y91.461 E0.06530
G1 X77.815 Y92.029 E0.05847
G1 X80.566 Y93.638 E0.09990
G1 X81.881 Y94.879 E0.05670
G1 X82.395 Y95.672 E0.02964
G1 X82.813 Y95.672 E0.01311
G1 X83.321 Y94.877 E0.02957
G1 X84.616 Y93.652 E0.05591
G1 X87.781 Y91.861 E0.11402
G1 X89.539 Y91.405 E0.05693
G1 X91.265 Y91.405 E0.05413
G1 X92.602 Y91.722 E0.04308
G1 X93.955 Y91.403 E0.04360
G1 X95.697 Y91.408 E0.05459
G1 X97.726 Y91.991 E0.06620
G1 X100.694 Y93.735 E0.10793
G1 X101.958 Y94.974 E0.05552
G1 X102.445 Y95.744 E0.02856
G1 E-0.70000 F3600.00000
G1 F7200.000
G1 X103.041 Y95.816 E-0.28500
G1 E-0.01500 F3600.00000
G1 X105.065 Y96.928 F9000.000
G1 E1.00000 F2400.00000
G1 F1200.000
G1 X104.681 Y96.701 E0.01402
G1 X103.498 Y96.247 E0.03971
G1 X102.259 Y96.158 E0.03896
G1 X101.677 Y95.227 E0.03443
G1 X100.482 Y94.048 E0.05262
G1 X97.555 Y92.328 E0.10645
G1 X95.669 Y91.785 E0.06154
G1 X93.977 Y91.780 E0.05305
G1 X92.602 Y92.110 E0.04435
G1 X91.242 Y91.782 E0.04384
G1 X89.563 Y91.782 E0.05265
G1 X87.901 Y92.219 E0.05388
G1 X84.823 Y93.968 E0.11101
G1 X83.598 Y95.133 E0.05300
G1 X83.022 Y96.049 E0.03392
G1 X82.188 Y96.049 E0.02616
G1 X81.604 Y95.137 E0.03395
G1 X80.322 Y93.927 E0.05528
G1 X77.679 Y92.382 E0.09600
G1 X76.001 Y91.837 E0.05531
G1 X73.972 Y91.782 E0.06365
G1 X72.632 Y92.106 E0.04322
G1 X71.199 Y91.778 E0.04609
G1 X69.337 Y91.813 E0.05839
G1 X67.713 Y92.298 E0.05314
G1 X64.776 Y94.003 E0.10649
G1 X63.491 Y95.267 E0.05651
G1 X63.001 Y96.072 E0.02956
G1 X61.330 Y96.121 E0.05239
G1 X59.168 Y96.855 E0.07159
G1 X57.947 Y97.719 E0.04692
G1 X56.911 Y98.814 E0.04725
G1 X55.994 Y100.413 E0.05780
G1 X55.553 Y102.153 E0.05629
G1 X55.524 Y136.930 E1.09042
G1 X56.325 Y139.553 E0.08597
G1 X57.130 Y140.707 E0.04412
G1 X58.267 Y141.797 E0.04937
G1 X59.934 Y142.748 E0.06020
G1 X61.854 Y143.201 E0.06184
G1 X173.142 Y143.201 E3.48936
G1 X174.883 Y142.811 E0.05596
G1 X176.325 Y142.099 E0.05040
G1 X177.686 Y140.914 E0.05658
G1 X178.708 Y139.488 E0.05500
G1 X179.476 Y136.919 E0.08410
G1 X179.476 Y103.583 E1.04522
G1 X179.086 Y101.842 E0.05596
G1 X178.374 Y100.400 E0.05040
G1 X177.189 Y99.039 E0.05658
G1 X175.763 Y98.017 E0.05500
G1 X173.194 Y97.249 E0.08410
G1 X109.648 Y97.249 E1.99244
G1 X109.635 Y97.626 F9000.000
G1 F1200.000
G1 X105.505 Y97.626 E0.12948
G1 X104.953 Y97.298 E0.02013
G1 X104.032 Y96.856 F9000.000
G1 F1200.000
G1 X103.390 Y96.609 E0.02154
G1 X102.040 Y96.523 E0.04242
G1 X101.395 Y95.478 E0.03849
G1 X100.271 Y94.361 E0.04970
G1 X97.385 Y92.666 E0.10494
G1 X95.592 Y92.155 E0.05846
G1 X94.001 Y92.157 E0.04988
G1 X92.601 Y92.498 E0.04517
G1 X91.219 Y92.159 E0.04462
G1 X89.588 Y92.159 E0.05114
G1 X88.022 Y92.577 E0.05082
G1 X85.066 Y94.257 E0.10661
G1 X83.876 Y95.390 E0.05151
G1 X83.360 Y96.222 E0.03070
G1 X81.851 Y96.223 F9000.000
G1 F1200.000
G1 X81.327 Y95.394 E0.03076
G1 X80.113 Y94.241 E0.05249
G1 X77.507 Y92.718 E0.09466
G1 X75.912 Y92.205 E0.05252
G1 X73.989 Y92.160 E0.06032
G1 X72.585 Y92.506 E0.04533
G1 X72.431 Y92.441 E0.00526
G1 X71.182 Y92.155 E0.04016
G1 X69.419 Y92.182 E0.05529
G1 X67.883 Y92.636 E0.05021
G1 X64.986 Y94.317 E0.10501
G1 X63.774 Y95.518 E0.05350
G1 X63.217 Y96.445 E0.03390
G1 X61.423 Y96.487 E0.05629
G1 X59.362 Y97.179 E0.06814
G1 X58.207 Y97.992 E0.04429
G1 X57.200 Y99.057 E0.04596
G1 X56.353 Y100.532 E0.05334
G1 X55.930 Y102.177 E0.05327
G1 X55.901 Y136.903 E1.08879
G1 X56.651 Y139.362 E0.08062
G1 X57.405 Y140.448 E0.04144
G1 X58.510 Y141.508 E0.04803
G1 X60.096 Y142.407 E0.05715
G1 X61.876 Y142.824 E0.05730
G1 X173.121 Y142.824 E3.48802
G1 X174.778 Y142.448 E0.05327
G1 X176.135 Y141.773 E0.04752
G1 X177.420 Y140.645 E0.05362
G1 X178.383 Y139.295 E0.05198
G1 X179.099 Y136.891 E0.07865
G1 X179.099 Y103.604 E1.04370
G1 X178.723 Y101.947 E0.05327
G1 X178.048 Y100.590 E0.04752
