; generated by PrusaSlicer 2.2.0+ on 2020-11-20 at 17:29:33 UTC

; 

; external perimeters extrusion width = 0.45mm
; perimeters extrusion width = 0.45mm
; infill extrusion width = 0.45mm
; solid infill extrusion width = 0.45mm
; top infill extrusion width = 0.40mm
; first layer extrusion width = 0.42mm

M201 X500 Y500 Z100 E5000 ; sets maximum accelerations, mm/sec^2
M203 X500 Y500 Z10 E60 ; sets maximum feedrates, mm/sec
M204 P500 R1000 T500 ; sets acceleration (P, T) and retract acceleration (R), mm/sec^2
M205 X8.00 Y8.00 Z0.40 E5.00 ; sets the jerk limits, mm/sec
M205 S0 T0 ; sets the minimum extruding and travel feed rate, mm/sec
M107
G90 ; use absolute coordinates
M83 ; extruder relative mode
M104 S200 ; set extruder temp
M140 S60 ; set bed temp
M190 S60 ; wait for bed temp
M109 S200 ; wait for extruder temp
G28 ; home all
G1 Z2 F240
G1 X2 Y10 F3000
G1 Z0.28 F240
G92 E0.0
G1 Y190 E15.0 F1500.0 ; intro line
G1 X2.3 F5000
G1 Y10 E30 F1200.0 ; intro line
G92 E0.0
G21 ; set units to millimeters
G90 ; use absolute coordinates
M83 ; use relative distances for extrusion
; Filament gcode
;BEFORE_LAYER_CHANGE
;0.2


G1 E-1.00000 F3600.00000
G1 Z0.200 F9000.000
;AFTER_LAYER_CHANGE
;0.2
G1 X60.653 Y101.528
G1 E1.00000 F2400.00000
G1 F1200.000
G1 X61.366 Y100.936 E0.02907
G1 X69.304 Y96.666 E0.28261
G1 X70.047 Y96.424 E0.02449
G1 X94.804 Y96.398 E0.77623
G1 X172.670 Y101.854 E2.44743
G1 X173.585 Y102.110 E0.02977
G1 X174.103 Y102.469 E0.01977
G1 X174.510 Y102.956 E0.01989
G1 X174.773 Y103.528 E0.01977
G1 X174.876 Y104.154 E0.01989
G1 X174.877 Y136.244 E1.00615
G1 X174.809 Y136.791 E0.01728
G1 X174.615 Y137.311 E0.01740
G1 X174.245 Y137.840 E0.02024
G1 X173.746 Y138.249 E0.02024
G1 X173.155 Y138.510 E0.02024
G1 X172.516 Y138.602 E0.02024
G1 X62.489 Y138.602 E3.44984
G1 X61.701 Y138.464 E0.02508
G1 X61.003 Y138.072 E0.02508
G1 X60.635 Y137.699 E0.01645
G1 X60.359 Y137.257 E0.01633
G1 X60.185 Y136.766 E0.01633
G1 X60.123 Y136.249 E0.01633
G1 X60.123 Y102.987 E1.04291
G1 X60.265 Y102.215 E0.02461
G1 X60.624 Y101.581 E0.02285
G1 E-0.70000 F3600.00000
G1 F7200.000
G1 X61.077 Y101.187 E-0.28500
G1 E-0.01500 F3600.00000
G1 X63.087 Y103.612 F9000.000
G1 E1.00000 F2400.00000
G1 F1200.000
G1 X101.066 Y103.612 E1.19082
G1 X101.066 Y104.812 E0.03763
G1 X171.913 Y104.812 E2.22134
G1 X171.913 Y135.638 E0.96652
G1 X63.087 Y135.638 E3.41216
G1 X63.087 Y103.672 E1.00227
G1 E-0.70000 F3600.00000
G1 F7200.000
G1 X63.687 Y103.671 E-0.28500
G1 E-0.01500 F3600.00000
G1 X90.190 Y103.235 F9000.000
G1 E1.00000 F2400.00000
G1 F1200.000
G1 X95.010 Y103.235 E0.15113
G1 X95.011 Y99.139 E0.12842
G1 X95.686 Y99.529 E0.02444
G1 X95.390 Y99.706 E0.01082
G1 X95.390 Y103.235 E0.11065
G1 X101.444 Y103.235 E0.18981
G1 X101.444 Y104.435 E0.03763
G1 X172.290 Y104.435 E2.22134
G1 X172.290 Y136.015 E0.99017
G1 X62.710 Y136.015 E3.43580
G1 X62.710 Y103.235 E1.02779
G1 X69.810 Y103.235 E0.22262
G1 X69.810 Y99.706 E0.11065
G1 X69.514 Y99.529 E0.01082
G1 X70.190 Y99.139 E0.02447
G1 X70.190 Y103.235 E0.12844
G1 X75.010 Y103.235 E0.15113
G1 X75.010 Y99.139 E0.12844
G1 X75.686 Y99.529 E0.02447
G1 X75.390 Y99.706 E0.01082
G1 X75.390 Y103.235 E0.11065
G1 X89.810 Y103.235 E0.45213
G1 X89.810 Y99.706 E0.11065
G1 X89.514 Y99.529 E0.01082
G1 X90.190 Y99.139 E0.02447
G1 X90.190 Y103.175 E0.12656
G1 X90.214 Y103.634 F9000.000
G1 E-0.70000 F3600.00000
G1 F7200.000
G1 X90.790 Y103.182 E-0.28500
G1 E-0.01500 F3600.00000
G1 X100.467 Y103.725 F9000.000
G1 E1.00000 F2400.00000
G1 F1200.000
G1 X100.784 Y104.042 E0.01407
G1 X100.784 Y104.576 E0.01674
G1 X100.103 Y103.895 E0.03022
G1 X99.569 Y103.895 E0.01674
G1 X131.029 Y135.355 E1.39591
G1 X131.563 Y135.355 E0.01674
G1 X101.303 Y105.095 E1.34266
G1 X101.836 Y105.095 E0.01674
G1 X132.097 Y135.355 E1.34266
G1 X132.630 Y135.355 E0.01674
G1 X102.370 Y105.095 E1.34266
G1 X102.904 Y105.095 E0.01674
G1 X133.164 Y135.355 E1.34266
G1 X133.697 Y135.355 E0.01674
G1 X103.437 Y105.095 E1.34266
G1 X103.971 Y105.095 E0.01674
G1 X134.231 Y135.355 E1.34266
G1 X134.765 Y135.355 E0.01674
G1 X104.504 Y105.095 E1.34266
G1 X105.038 Y105.095 E0.01674
G1 X135.298 Y135.355 E1.34266
G1 X135.832 Y135.355 E0.01674
G1 X105.572 Y105.095 E1.34266
G1 X106.105 Y105.095 E0.01674
G1 X136.366 Y135.355 E1.34266
G1 X136.899 Y135.355 E0.01674
G1 X106.639 Y105.095 E1.34266
G1 X107.173 Y105.095 E0.01674
G1 X137.433 Y135.355 E1.34266
G1 X137.966 Y135.355 E0.01674
G1 X107.706 Y105.095 E1.34266
G1 X108.240 Y105.095 E0.01674
G1 X138.500 Y135.355 E1.34266
G1 X139.034 Y135.355 E0.01674
G1 X108.773 Y105.095 E1.34266
G1 X109.307 Y105.095 E0.01674
G1 X139.567 Y135.355 E1.34266
G1 X140.101 Y135.355 E0.01674
G1 X109.841 Y105.095 E1.34266
G1 X110.374 Y105.095 E0.01674
G1 X140.634 Y135.355 E1.34266
G1 X141.168 Y135.355 E0.01674
G1 X110.908 Y105.095 E1.34266
G1 X111.441 Y105.095 E0.01674
G1 X141.702 Y135.355 E1.34266
G1 X142.235 Y135.355 E0.01674
G1 X111.975 Y105.095 E1.34266
G1 X112.509 Y105.095 E0.01674
G1 X142.769 Y135.355 E1.34266
G1 X143.303 Y135.355 E0.01674
G1 X113.042 Y105.095 E1.34266
G1 X113.576 Y105.095 E0.01674
G1 X143.836 Y135.355 E1.34266
G1 X144.370 Y135.355 E0.01674
G1 X114.110 Y105.095 E1.34266
G1 X114.643 Y105.095 E0.01674
G1 X144.903 Y135.355 E1.34266
G1 X145.437 Y135.355 E0.01674
G1 X115.177 Y105.095 E1.34266
G1 X115.710 Y105.095 E0.01674
G1 X145.971 Y135.355 E1.34266
G1 X146.504 Y135.355 E0.01674
G1 X116.244 Y105.095 E1.34266
G1 X116.778 Y105.095 E0.01674
G1 X147.038 Y135.355 E1.34266
G1 X147.571 Y135.355 E0.01674
G1 X117.311 Y105.095 E1.34266
G1 X117.845 Y105.095 E0.01674
G1 X148.105 Y135.355 E1.34266
G1 X148.639 Y135.355 E0.01674
G1 X118.378 Y105.095 E1.34266
G1 X118.912 Y105.095 E0.01674
G1 X149.172 Y135.355 E1.34266
G1 X149.706 Y135.355 E0.01674
G1 X119.446 Y105.095 E1.34266
G1 X119.979 Y105.095 E0.01674
G1 X150.240 Y135.355 E1.34266
G1 X150.773 Y135.355 E0.01674
G1 X120.513 Y105.095 E1.34266
G1 X121.047 Y105.095 E0.01674
G1 X151.307 Y135.355 E1.34266
G1 X151.840 Y135.355 E0.01674
G1 X121.580 Y105.095 E1.34266
G1 X122.114 Y105.095 E0.01674
G1 X152.374 Y135.355 E1.34266
G1 X152.908 Y135.355 E0.01674
G1 X122.647 Y105.095 E1.34266
G1 X123.181 Y105.095 E0.01674
G1 X153.441 Y135.355 E1.34266
G1 X153.975 Y135.355 E0.01674
G1 X123.715 Y105.095 E1.34266
G1 X124.248 Y105.095 E0.01674
G1 X154.509 Y135.355 E1.34266
G1 X155.042 Y135.355 E0.01674
G1 X124.782 Y105.095 E1.34266
G1 X125.316 Y105.095 E0.01674
G1 X155.576 Y135.355 E1.34266
G1 X156.109 Y135.355 E0.01674
G1 X125.849 Y105.095 E1.34266
G1 X126.383 Y105.095 E0.01674
G1 X156.643 Y135.355 E1.34266
G1 X157.177 Y135.355 E0.01674
G1 X126.916 Y105.095 E1.34266
G1 X127.450 Y105.095 E0.01674
G1 X157.710 Y135.355 E1.34266
G1 X158.244 Y135.355 E0.01674
G1 X127.984 Y105.095 E1.34266
G1 X128.517 Y105.095 E0.01674
G1 X158.777 Y135.355 E1.34266
G1 X159.311 Y135.355 E0.01674
G1 X129.051 Y105.095 E1.34266
G1 X129.584 Y105.095 E0.01674
G1 X159.845 Y135.355 E1.34266
G1 X160.378 Y135.355 E0.01674
G1 X130.118 Y105.095 E1.34266
G1 X130.652 Y105.095 E0.01674
G1 X160.912 Y135.355 E1.34266
G1 X161.446 Y135.355 E0.01674
G1 X131.185 Y105.095 E1.34266
G1 X131.719 Y105.095 E0.01674
G1 X161.979 Y135.355 E1.34266
G1 X162.513 Y135.355 E0.01674
G1 X132.253 Y105.095 E1.34266
G1 X132.786 Y105.095 E0.01674
G1 X163.046 Y135.355 E1.34266
G1 X163.580 Y135.355 E0.01674
G1 X133.320 Y105.095 E1.34266
G1 X133.853 Y105.095 E0.01674
G1 X164.114 Y135.355 E1.34266
G1 X164.647 Y135.355 E0.01674
G1 X134.387 Y105.095 E1.34266
G1 X134.921 Y105.095 E0.01674
G1 X165.181 Y135.355 E1.34266
G1 X165.715 Y135.355 E0.01674
G1 X135.454 Y105.095 E1.34266
G1 X135.988 Y105.095 E0.01674
G1 X166.248 Y135.355 E1.34266
G1 X166.782 Y135.355 E0.01674
G1 X136.522 Y105.095 E1.34266
G1 X137.055 Y105.095 E0.01674
G1 X167.315 Y135.355 E1.34266
G1 X167.849 Y135.355 E0.01674
G1 X137.589 Y105.095 E1.34266
G1 X138.122 Y105.095 E0.01674
G1 X168.383 Y135.355 E1.34266
G1 X168.916 Y135.355 E0.01674
G1 X138.656 Y105.095 E1.34266
G1 X139.190 Y105.095 E0.01674
G1 X169.450 Y135.355 E1.34266
G1 X169.983 Y135.355 E0.01674
G1 X139.723 Y105.095 E1.34266
G1 X140.257 Y105.095 E0.01674
G1 X170.517 Y135.355 E1.34266
G1 X171.051 Y135.355 E0.01674
G1 X140.790 Y105.095 E1.34266
G1 X141.324 Y105.095 E0.01674
G1 X171.584 Y135.355 E1.34266
G1 X171.630 Y135.355 E0.00144
G1 X171.630 Y134.867 E0.01531
G1 X141.858 Y105.095 E1.32102
G1 X142.391 Y105.095 E0.01674
G1 X171.630 Y134.334 E1.29734
G1 X171.630 Y133.800 E0.01674
G1 X142.925 Y105.095 E1.27366
G1 X143.459 Y105.095 E0.01674
G1 X171.630 Y133.266 E1.24999
G1 X171.630 Y132.733 E0.01674
G1 X143.992 Y105.095 E1.22631
G1 X144.526 Y105.095 E0.01674
G1 X171.630 Y132.199 E1.20263
G1 X171.630 Y131.666 E0.01674
G1 X145.059 Y105.095 E1.17896
G1 X145.593 Y105.095 E0.01674
G1 X171.630 Y131.132 E1.15528
G1 X171.630 Y130.598 E0.01674
G1 X146.127 Y105.095 E1.13160
G1 X146.660 Y105.095 E0.01674
G1 X171.630 Y130.065 E1.10793
G1 X171.630 Y129.531 E0.01674
G1 X147.194 Y105.095 E1.08425
G1 X147.727 Y105.095 E0.01674
G1 X171.630 Y128.997 E1.06057
G1 X171.630 Y128.464 E0.01674
G1 X148.261 Y105.095 E1.03689
G1 X148.795 Y105.095 E0.01674
G1 X171.630 Y127.930 E1.01322
G1 X171.630 Y127.397 E0.01674
G1 X149.328 Y105.095 E0.98954
G1 X149.862 Y105.095 E0.01674
G1 X171.630 Y126.863 E0.96586
G1 X171.630 Y126.329 E0.01674
G1 X150.396 Y105.095 E0.94219
G1 X150.929 Y105.095 E0.01674
G1 X171.630 Y125.796 E0.91851
G1 X171.630 Y125.262 E0.01674
G1 X151.463 Y105.095 E0.89483
G1 X151.996 Y105.095 E0.01674
G1 X171.630 Y124.729 E0.87116
G1 X171.630 Y124.195 E0.01674
G1 X152.530 Y105.095 E0.84748
G1 X153.064 Y105.095 E0.01674
G1 X171.630 Y123.661 E0.82380
G1 X171.630 Y123.128 E0.01674
G1 X153.597 Y105.095 E0.80013
G1 X154.131 Y105.095 E0.01674
G1 X171.630 Y122.594 E0.77645
G1 X171.630 Y122.060 E0.01674
G1 X154.665 Y105.095 E0.75277
G1 X155.198 Y105.095 E0.01674
G1 X171.630 Y121.527 E0.72909
G1 X171.630 Y120.993 E0.01674
G1 X155.732 Y105.095 E0.70542
G1 X156.265 Y105.095 E0.01674
G1 X171.630 Y120.460 E0.68174
G1 X171.630 Y119.926 E0.01674
G1 X156.799 Y105.095 E0.65806
G1 X157.333 Y105.095 E0.01674
G1 X171.630 Y119.392 E0.63439
G1 X171.630 Y118.859 E0.01674
G1 X157.866 Y105.095 E0.61071
G1 X158.400 Y105.095 E0.01674
G1 X171.630 Y118.325 E0.58703
G1 X171.630 Y117.792 E0.01674
G1 X158.933 Y105.095 E0.56336
G1 X159.467 Y105.095 E0.01674
G1 X171.630 Y117.258 E0.53968
G1 X171.630 Y116.724 E0.01674
G1 X160.001 Y105.095 E0.51600
G1 X160.534 Y105.095 E0.01674
G1 X171.630 Y116.191 E0.49233
G1 X171.630 Y115.657 E0.01674
G1 X161.068 Y105.095 E0.46865
G1 X161.602 Y105.095 E0.01674
G1 X171.630 Y115.123 E0.44497
G1 X171.630 Y114.590 E0.01674
G1 X162.135 Y105.095 E0.42129
G1 X162.669 Y105.095 E0.01674
G1 X171.630 Y114.056 E0.39762
G1 X171.630 Y113.523 E0.01674
G1 X163.202 Y105.095 E0.37394
G1 X163.736 Y105.095 E0.01674
G1 X171.630 Y112.989 E0.35026
G1 X171.630 Y112.455 E0.01674
G1 X164.270 Y105.095 E0.32659
G1 X164.803 Y105.095 E0.01674
G1 X171.630 Y111.922 E0.30291
G1 X171.630 Y111.388 E0.01674
G1 X165.337 Y105.095 E0.27923
G1 X165.871 Y105.095 E0.01674
G1 X171.630 Y110.854 E0.25556
G1 X171.630 Y110.321 E0.01674
G1 X166.404 Y105.095 E0.23188
G1 X166.938 Y105.095 E0.01674
G1 X171.630 Y109.787 E0.20820
G1 X171.630 Y109.254 E0.01674
G1 X167.471 Y105.095 E0.18453
G1 X168.005 Y105.095 E0.01674
G1 X171.630 Y108.720 E0.16085
G1 X171.630 Y108.186 E0.01674
G1 X168.539 Y105.095 E0.13717
G1 X169.072 Y105.095 E0.01674
G1 X171.630 Y107.653 E0.11350
G1 X171.630 Y107.119 E0.01674
G1 X169.606 Y105.095 E0.08982
G1 X170.139 Y105.095 E0.01674
G1 X171.630 Y106.586 E0.06614
G1 X171.630 Y106.052 E0.01674
G1 X170.673 Y105.095 E0.04246
G1 X171.207 Y105.095 E0.01674
G1 X171.800 Y105.688 E0.02632
G1 E-0.70000 F3600.00000
G1 F7200.000
G1 X171.376 Y105.264 E-0.28500
G1 E-0.01500 F3600.00000
G1 X130.665 Y135.525 F9000.000
G1 E1.00000 F2400.00000
G1 F1200.000
G1 X99.035 Y103.895 E1.40344
G1 X98.502 Y103.895 E0.01674
G1 X129.962 Y135.355 E1.39591
G1 X129.428 Y135.355 E0.01674
G1 X97.968 Y103.895 E1.39591
G1 X97.435 Y103.895 E0.01674
G1 X128.895 Y135.355 E1.39591
G1 X128.361 Y135.355 E0.01674
G1 X96.901 Y103.895 E1.39591
G1 X96.367 Y103.895 E0.01674
G1 X127.828 Y135.355 E1.39591
G1 X127.294 Y135.355 E0.01674
G1 X95.834 Y103.895 E1.39591
G1 X95.300 Y103.895 E0.01674
G1 X126.760 Y135.355 E1.39591
G1 X126.227 Y135.355 E0.01674
G1 X94.767 Y103.895 E1.39591
G1 X94.233 Y103.895 E0.01674
G1 X125.693 Y135.355 E1.39591
G1 X125.160 Y135.355 E0.01674
G1 X93.699 Y103.895 E1.39591
G1 X93.166 Y103.895 E0.01674
G1 X124.626 Y135.355 E1.39591
G1 X124.092 Y135.355 E0.01674
G1 X92.632 Y103.895 E1.39591
G1 X92.098 Y103.895 E0.01674
G1 X123.559 Y135.355 E1.39591
G1 X123.025 Y135.355 E0.01674
G1 X91.565 Y103.895 E1.39591
G1 X91.031 Y103.895 E0.01674
G1 X122.491 Y135.355 E1.39591
G1 X121.958 Y135.355 E0.01674
G1 X90.498 Y103.895 E1.39591
G1 X89.964 Y103.895 E0.01674
G1 X121.424 Y135.355 E1.39591
G1 X120.891 Y135.355 E0.01674
G1 X89.430 Y103.895 E1.39591
G1 X88.897 Y103.895 E0.01674
G1 X120.357 Y135.355 E1.39591
G1 X119.823 Y135.355 E0.01674
G1 X88.363 Y103.895 E1.39591
G1 X87.829 Y103.895 E0.01674
G1 X119.290 Y135.355 E1.39591
G1 X118.756 Y135.355 E0.01674
G1 X87.296 Y103.895 E1.39591
G1 X86.762 Y103.895 E0.01674
G1 X118.222 Y135.355 E1.39591
G1 X117.689 Y135.355 E0.01674
G1 X86.229 Y103.895 E1.39591
G1 X85.695 Y103.895 E0.01674
G1 X117.155 Y135.355 E1.39591
G1 X116.622 Y135.355 E0.01674
G1 X85.161 Y103.895 E1.39591
G1 X84.628 Y103.895 E0.01674
G1 X116.088 Y135.355 E1.39591
G1 X115.554 Y135.355 E0.01674
G1 X84.094 Y103.895 E1.39591
G1 X83.561 Y103.895 E0.01674
G1 X115.021 Y135.355 E1.39591
G1 X114.487 Y135.355 E0.01674
G1 X83.027 Y103.895 E1.39591
G1 X82.493 Y103.895 E0.01674
G1 X113.954 Y135.355 E1.39591
G1 X113.420 Y135.355 E0.01674
G1 X81.960 Y103.895 E1.39591
G1 X81.426 Y103.895 E0.01674
G1 X112.886 Y135.355 E1.39591
G1 X112.353 Y135.355 E0.01674
G1 X80.892 Y103.895 E1.39591
G1 X80.359 Y103.895 E0.01674
G1 X111.819 Y135.355 E1.39591
G1 X111.285 Y135.355 E0.01674
G1 X79.825 Y103.895 E1.39591
G1 X79.292 Y103.895 E0.01674
G1 X110.752 Y135.355 E1.39591
G1 X110.218 Y135.355 E0.01674
G1 X78.758 Y103.895 E1.39591
G1 X78.224 Y103.895 E0.01674
G1 X109.685 Y135.355 E1.39591
G1 X109.151 Y135.355 E0.01674
G1 X77.691 Y103.895 E1.39591
G1 X77.157 Y103.895 E0.01674
G1 X108.617 Y135.355 E1.39591
G1 X108.084 Y135.355 E0.01674
G1 X76.624 Y103.895 E1.39591
G1 X76.090 Y103.895 E0.01674
G1 X107.550 Y135.355 E1.39591
G1 X107.017 Y135.355 E0.01674
G1 X75.556 Y103.895 E1.39591
G1 X75.023 Y103.895 E0.01674
G1 X106.483 Y135.355 E1.39591
G1 X105.949 Y135.355 E0.01674
G1 X74.489 Y103.895 E1.39591
G1 X73.955 Y103.895 E0.01674
G1 X105.416 Y135.355 E1.39591
G1 X104.882 Y135.355 E0.01674
G1 X73.422 Y103.895 E1.39591
G1 X72.888 Y103.895 E0.01674
G1 X104.348 Y135.355 E1.39591
G1 X103.815 Y135.355 E0.01674
G1 X72.355 Y103.895 E1.39591
G1 X71.821 Y103.895 E0.01674
G1 X103.281 Y135.355 E1.39591
G1 X102.748 Y135.355 E0.01674
G1 X71.287 Y103.895 E1.39591
G1 X70.754 Y103.895 E0.01674
G1 X102.214 Y135.355 E1.39591
G1 X101.680 Y135.355 E0.01674
G1 X70.220 Y103.895 E1.39591
G1 X69.686 Y103.895 E0.01674
G1 X101.147 Y135.355 E1.39591
G1 X100.613 Y135.355 E0.01674
G1 X69.153 Y103.895 E1.39591
G1 X68.619 Y103.895 E0.01674
G1 X100.079 Y135.355 E1.39591
G1 X99.546 Y135.355 E0.01674
G1 X68.086 Y103.895 E1.39591
G1 X67.552 Y103.895 E0.01674
G1 X99.012 Y135.355 E1.39591
G1 X98.479 Y135.355 E0.01674
G1 X67.018 Y103.895 E1.39591
G1 X66.485 Y103.895 E0.01674
G1 X97.945 Y135.355 E1.39591
G1 X97.411 Y135.355 E0.01674
G1 X65.951 Y103.895 E1.39591
G1 X65.418 Y103.895 E0.01674
G1 X96.878 Y135.355 E1.39591
G1 X96.344 Y135.355 E0.01674
G1 X64.884 Y103.895 E1.39591
G1 X64.350 Y103.895 E0.01674
G1 X95.811 Y135.355 E1.39591
G1 X95.277 Y135.355 E0.01674
G1 X63.817 Y103.895 E1.39591
G1 X63.370 Y103.895 E0.01402
G1 X63.370 Y103.982 E0.00272
G1 X94.743 Y135.355 E1.39205
G1 X94.210 Y135.355 E0.01674
G1 X63.370 Y104.515 E1.36838
G1 X63.370 Y105.049 E0.01674
G1 X93.676 Y135.355 E1.34470
G1 X93.142 Y135.355 E0.01674
G1 X63.370 Y105.583 E1.32102
G1 X63.370 Y106.116 E0.01674
G1 X92.609 Y135.355 E1.29735
