; generated by PrusaSlicer 2.2.0+ on 2020-11-19 at 23:50:24 UTC

; 

; external perimeters extrusion width = 0.45mm
; perimeters extrusion width = 0.45mm
; infill extrusion width = 0.45mm
; solid infill extrusion width = 0.45mm
; top infill extrusion width = 0.45mm
; first layer extrusion width = 0.42mm

M201 X500 Y500 Z100 E5000 ; sets maximum accelerations, mm/sec^2
M203 X500 Y500 Z10 E60 ; sets maximum feedrates, mm/sec
M204 P500 R1000 T500 ; sets acceleration (P, T) and retract acceleration (R), mm/sec^2
M205 X8.00 Y8.00 Z0.40 E5.00 ; sets the jerk limits, mm/sec
M205 S0 T0 ; sets the minimum extruding and travel feed rate, mm/sec
M107
; Nelson Cotrim
; This is the code I'm using.
; I did not create it (check a few days ago and you'll find the thread in which I ask about it) 
; but I did make a couple of minor changes - can't really remember what they were, 
; but things like raising the head after G28 and before increasing the temperature.
G21 ;metric
G90 ;absolute positioning
M82 ;absolute extruder mode
M107 ;fan off
M201 X500.00 Y500.00 Z100.00 E5000.00 ;Setup machine max acceleration
M203 X500.00 Y500.00 Z10.00 E50.00 ;Setup machine max feedrate
M204 P500.00 R1000.00 T500.00 ;Setup Print/Retract/Travel acceleration
M205 X8.00 Y8.00 Z0.40 E5.00 ;Setup Jerk
M220 S100 ;Reset Feedrate
M221 S100 ;Reset Flowrate
M140 S60 ; Start Heating Bed
G28 ;Home
G1 Z10 F3000
M190 S60 ; wait for bed temp
M109 S120 ;set extruder temperature to 120 for bed leveling
G29 ;Auto bed leveling
G28 ;home
M420 S1 Z0.00 ;Load bed mesh
G1 Z10 F3000
M104 S215 ; set extruder temp
M190 S60 ; wait for bed temp
M109 S215 ; wait for extruder temp
G92 E0 ;reset extruder
;Priming lines
G1 Z2.0 F3000
G1 X230 Y2 Z0.3 F5000 ; Move to start position on front right
G1 X15 Y2 Z0.3 F800 E30 ; Draw a thick line
;G1 X5 Y2 Z0.3 F800 E0 ; Keep moving, but no more extrusion
G92 E0 ; Zero extruder
G1 Z5.0 F3000 ;Move Z Axis up
G21 ; set units to millimeters
G90 ; use absolute coordinates
M83 ; use relative distances for extrusion
; Filament gcode
;BEFORE_LAYER_CHANGE
;0.2


G1 E-2.00000 F3600.00000
G1 Z0.200 F9000.000
;AFTER_LAYER_CHANGE
;0.2
G1 X97.115 Y82.619
G1 E2.00000 F2400.00000
G1 F1200.000
G1 X97.667 Y82.164 E0.02243
G1 X98.318 Y81.867 E0.02243
G1 X99.023 Y81.748 E0.02243
G1 X135.878 Y81.746 E1.15554
G1 X136.403 Y81.797 E0.01656
G1 X136.909 Y81.948 E0.01656
G1 X137.377 Y82.193 E0.01656
G1 X137.790 Y82.522 E0.01656
G1 X138.132 Y82.924 E0.01656
G1 X138.392 Y83.384 E0.01656
G1 X138.557 Y83.881 E0.01643
G1 X138.626 Y84.405 E0.01656
G1 X138.628 Y150.512 E2.07275
G1 X138.544 Y151.174 E0.02090
G1 X138.302 Y151.799 E0.02103
G1 X137.883 Y152.384 E0.02256
G1 X137.323 Y152.842 E0.02269
G1 X136.666 Y153.138 E0.02256
G1 X135.952 Y153.253 E0.02269
G1 X99.102 Y153.254 E1.15541
G1 X98.445 Y153.168 E0.02078
G1 X97.827 Y152.928 E0.02078
G1 X97.234 Y152.501 E0.02294
G1 X96.776 Y151.935 E0.02282
G1 X96.482 Y151.269 E0.02282
G1 X96.373 Y150.546 E0.02294
G1 X96.372 Y84.488 E2.07121
G1 X96.456 Y83.826 E0.02090
G1 X96.698 Y83.201 E0.02103
G1 X97.080 Y82.668 E0.02055
G1 X97.384 Y82.887 F9000.000
G1 F1200.000
G1 X97.874 Y82.480 E0.01999
G1 X98.438 Y82.225 E0.01941
G1 X99.049 Y82.124 E0.01941
G1 X135.877 Y82.123 E1.15472
G1 X136.769 Y82.298 E0.02849
G1 X137.530 Y82.795 E0.02849
G1 X138.048 Y83.541 E0.02849
G1 X138.249 Y84.427 E0.02849
G1 X138.251 Y150.511 E2.07204
G1 X138.177 Y151.088 E0.01823
G1 X137.967 Y151.626 E0.01811
G1 X137.602 Y152.131 E0.01953
G1 X137.119 Y152.524 E0.01953
G1 X136.551 Y152.779 E0.01953
G1 X135.932 Y152.876 E0.01965
G1 X99.107 Y152.877 E1.15460
G1 X98.538 Y152.803 E0.01799
G1 X98.000 Y152.593 E0.01811
G1 X97.490 Y152.224 E0.01977
G1 X97.094 Y151.733 E0.01977
G1 X96.842 Y151.155 E0.01977
G1 X96.750 Y150.532 E0.01977
G1 X96.749 Y84.489 E2.07073
G1 X96.823 Y83.912 E0.01823
G1 X97.033 Y83.374 E0.01811
G1 X97.349 Y82.936 E0.01694
G1 E-1.40000 F3600.00000
G1 F7200.000
G1 X97.874 Y82.480 E-0.33045
G1 X98.334 Y82.272 E-0.23955
G1 E-0.03000 F3600.00000
G1 X135.286 Y113.913 F9000.000
G1 E2.00000 F2400.00000
G1 F1200.000
G1 X128.212 Y113.913 E0.22183
G1 X128.212 Y85.087 E0.90381
G1 X135.286 Y85.087 E0.22183
G1 X135.286 Y113.853 E0.90193
G1 X135.663 Y114.290 F9000.000
G1 F1200.000
G1 X127.834 Y114.290 E0.24547
G1 X127.834 Y84.710 E0.92746
G1 X135.663 Y84.710 E0.24547
G1 X135.663 Y114.230 E0.92558
G1 X135.301 Y114.121 F9000.000
G1 E-1.40000 F3600.00000
G1 F7200.000
G1 X134.464 Y114.239 E-0.57000
G1 E-0.03000 F3600.00000
G1 X135.173 Y85.970 F9000.000
G1 E2.00000 F2400.00000
G1 F1200.000
G1 X134.573 Y85.370 E0.02685
G1 X134.035 Y85.370 E0.01703
G1 X135.004 Y86.338 E0.04335
G1 X135.004 Y86.877 E0.01703
G1 X133.497 Y85.370 E0.06744
G1 X132.959 Y85.370 E0.01703
G1 X135.004 Y87.415 E0.09153
G1 X135.004 Y87.953 E0.01703
G1 X132.420 Y85.370 E0.11561
G1 X131.882 Y85.370 E0.01703
G1 X135.004 Y88.491 E0.13970
G1 X135.004 Y89.030 E0.01703
G1 X131.344 Y85.370 E0.16379
G1 X130.806 Y85.370 E0.01703
G1 X135.004 Y89.568 E0.18788
G1 X135.004 Y90.106 E0.01703
G1 X130.267 Y85.370 E0.21197
G1 X129.729 Y85.370 E0.01703
G1 X135.004 Y90.644 E0.23606
G1 X135.004 Y91.183 E0.01703
G1 X129.191 Y85.370 E0.26015
G1 X128.653 Y85.370 E0.01703
G1 X135.004 Y91.721 E0.28423
G1 X135.004 Y92.259 E0.01703
G1 X128.494 Y85.750 E0.29132
G1 X128.494 Y86.288 E0.01703
G1 X135.004 Y92.797 E0.29132
G1 X135.004 Y93.336 E0.01703
G1 X128.494 Y86.826 E0.29132
G1 X128.494 Y87.365 E0.01703
G1 X135.004 Y93.874 E0.29132
G1 X135.004 Y94.412 E0.01703
G1 X128.494 Y87.903 E0.29132
G1 X128.494 Y88.441 E0.01703
G1 X135.004 Y94.950 E0.29132
G1 X135.004 Y95.488 E0.01703
G1 X128.494 Y88.979 E0.29132
G1 X128.494 Y89.517 E0.01703
G1 X135.004 Y96.027 E0.29132
G1 X135.004 Y96.565 E0.01703
G1 X128.494 Y90.056 E0.29132
G1 X128.494 Y90.594 E0.01703
G1 X135.004 Y97.103 E0.29132
G1 X135.004 Y97.641 E0.01703
G1 X128.494 Y91.132 E0.29132
G1 X128.494 Y91.670 E0.01703
G1 X135.004 Y98.180 E0.29132
G1 X135.004 Y98.718 E0.01703
G1 X128.494 Y92.209 E0.29132
G1 X128.494 Y92.747 E0.01703
G1 X135.004 Y99.256 E0.29132
G1 X135.004 Y99.794 E0.01703
G1 X128.494 Y93.285 E0.29132
G1 X128.494 Y93.823 E0.01703
G1 X135.004 Y100.333 E0.29132
G1 X135.004 Y100.871 E0.01703
G1 X128.494 Y94.362 E0.29132
G1 X128.494 Y94.900 E0.01703
G1 X135.004 Y101.409 E0.29132
G1 X135.004 Y101.947 E0.01703
G1 X128.494 Y95.438 E0.29132
G1 X128.494 Y95.976 E0.01703
G1 X135.004 Y102.486 E0.29132
G1 X135.004 Y103.024 E0.01703
G1 X128.494 Y96.515 E0.29132
G1 X128.494 Y97.053 E0.01703
G1 X135.004 Y103.562 E0.29132
G1 X135.004 Y104.100 E0.01703
G1 X128.494 Y97.591 E0.29132
G1 X128.494 Y98.129 E0.01703
G1 X135.004 Y104.639 E0.29132
G1 X135.004 Y105.177 E0.01703
G1 X128.494 Y98.668 E0.29132
G1 X128.494 Y99.206 E0.01703
G1 X135.004 Y105.715 E0.29132
G1 X135.004 Y106.253 E0.01703
G1 X128.494 Y99.744 E0.29132
G1 X128.494 Y100.282 E0.01703
G1 X135.004 Y106.791 E0.29132
G1 X135.004 Y107.330 E0.01703
G1 X128.494 Y100.820 E0.29132
G1 X128.494 Y101.359 E0.01703
G1 X135.004 Y107.868 E0.29132
G1 X135.004 Y108.406 E0.01703
G1 X128.494 Y101.897 E0.29132
G1 X128.494 Y102.435 E0.01703
G1 X135.004 Y108.944 E0.29132
G1 X135.004 Y109.483 E0.01703
G1 X128.494 Y102.973 E0.29132
G1 X128.494 Y103.512 E0.01703
G1 X135.004 Y110.021 E0.29132
G1 X135.004 Y110.559 E0.01703
G1 X128.494 Y104.050 E0.29132
G1 X128.494 Y104.588 E0.01703
G1 X135.004 Y111.097 E0.29132
G1 X135.004 Y111.636 E0.01703
G1 X128.494 Y105.126 E0.29132
G1 X128.494 Y105.665 E0.01703
G1 X135.004 Y112.174 E0.29132
G1 X135.004 Y112.712 E0.01703
G1 X128.494 Y106.203 E0.29132
G1 X128.494 Y106.741 E0.01703
G1 X135.004 Y113.250 E0.29132
G1 X135.004 Y113.630 E0.01202
G1 X134.845 Y113.630 E0.00501
G1 X128.494 Y107.279 E0.28423
G1 X128.494 Y107.818 E0.01703
G1 X134.307 Y113.630 E0.26014
G1 X133.769 Y113.630 E0.01703
G1 X128.494 Y108.356 E0.23605
G1 X128.494 Y108.894 E0.01703
G1 X133.230 Y113.630 E0.21196
G1 X132.692 Y113.630 E0.01703
G1 X128.494 Y109.432 E0.18787
G1 X128.494 Y109.970 E0.01703
G1 X132.154 Y113.630 E0.16379
G1 X131.616 Y113.630 E0.01703
G1 X128.494 Y110.509 E0.13970
G1 X128.494 Y111.047 E0.01703
G1 X131.078 Y113.630 E0.11561
G1 X130.539 Y113.630 E0.01703
G1 X128.494 Y111.585 E0.09152
G1 X128.494 Y112.123 E0.01703
G1 X130.001 Y113.630 E0.06743
G1 X129.463 Y113.630 E0.01703
G1 X128.494 Y112.662 E0.04334
G1 X128.494 Y113.200 E0.01703
G1 X129.094 Y113.800 E0.02685
G1 E-1.40000 F3600.00000
G1 F7200.000
G1 X128.494 Y113.200 E-0.40298
G1 X128.494 Y112.848 E-0.16702
G1 E-0.03000 F3600.00000
G1 X121.037 Y113.913 F9000.000
G1 E2.00000 F2400.00000
G1 F1200.000
G1 X113.963 Y113.913 E0.22183
G1 X113.963 Y85.087 E0.90381
G1 X121.037 Y85.087 E0.22183
G1 X121.037 Y113.853 E0.90193
G1 X121.415 Y114.290 F9000.000
G1 F1200.000
G1 X113.585 Y114.290 E0.24547
G1 X113.585 Y84.710 E0.92746
G1 X121.415 Y84.710 E0.24547
G1 X121.415 Y114.230 E0.92558
G1 X121.052 Y114.121 F9000.000
G1 E-1.40000 F3600.00000
G1 F7200.000
G1 X120.215 Y114.239 E-0.57000
G1 E-0.03000 F3600.00000
G1 X120.924 Y85.970 F9000.000
G1 E2.00000 F2400.00000
G1 F1200.000
G1 X120.324 Y85.370 E0.02685
G1 X119.786 Y85.370 E0.01703
G1 X120.755 Y86.338 E0.04335
G1 X120.755 Y86.877 E0.01703
G1 X119.248 Y85.370 E0.06744
G1 X118.710 Y85.370 E0.01703
G1 X120.755 Y87.415 E0.09153
G1 X120.755 Y87.953 E0.01703
G1 X118.171 Y85.370 E0.11561
G1 X117.633 Y85.370 E0.01703
G1 X120.755 Y88.491 E0.13970
G1 X120.755 Y89.030 E0.01703
G1 X117.095 Y85.370 E0.16379
G1 X116.557 Y85.370 E0.01703
G1 X120.755 Y89.568 E0.18788
G1 X120.755 Y90.106 E0.01703
G1 X116.018 Y85.370 E0.21197
G1 X115.480 Y85.370 E0.01703
G1 X120.755 Y90.644 E0.23606
G1 X120.755 Y91.183 E0.01703
G1 X114.942 Y85.370 E0.26015
G1 X114.404 Y85.370 E0.01703
G1 X120.755 Y91.721 E0.28423
G1 X120.755 Y92.259 E0.01703
G1 X114.245 Y85.750 E0.29132
G1 X114.245 Y86.288 E0.01703
G1 X120.755 Y92.797 E0.29132
G1 X120.755 Y93.336 E0.01703
G1 X114.245 Y86.826 E0.29132
G1 X114.245 Y87.365 E0.01703
G1 X120.755 Y93.874 E0.29132
G1 X120.755 Y94.412 E0.01703
G1 X114.245 Y87.903 E0.29132
G1 X114.245 Y88.441 E0.01703
G1 X120.755 Y94.950 E0.29132
G1 X120.755 Y95.488 E0.01703
G1 X114.245 Y88.979 E0.29132
G1 X114.245 Y89.517 E0.01703
G1 X120.755 Y96.027 E0.29132
G1 X120.755 Y96.565 E0.01703
G1 X114.245 Y90.056 E0.29132
G1 X114.245 Y90.594 E0.01703
G1 X120.755 Y97.103 E0.29132
G1 X120.755 Y97.641 E0.01703
G1 X114.245 Y91.132 E0.29132
G1 X114.245 Y91.670 E0.01703
G1 X120.755 Y98.180 E0.29132
G1 X120.755 Y98.718 E0.01703
G1 X114.245 Y92.209 E0.29132
G1 X114.245 Y92.747 E0.01703
G1 X120.755 Y99.256 E0.29132
G1 X120.755 Y99.794 E0.01703
G1 X114.245 Y93.285 E0.29132
G1 X114.245 Y93.823 E0.01703
G1 X120.755 Y100.333 E0.29132
G1 X120.755 Y100.871 E0.01703
G1 X114.245 Y94.362 E0.29132
G1 X114.245 Y94.900 E0.01703
G1 X120.755 Y101.409 E0.29132
G1 X120.755 Y101.947 E0.01703
G1 X114.245 Y95.438 E0.29132
G1 X114.245 Y95.976 E0.01703
G1 X120.755 Y102.486 E0.29132
G1 X120.755 Y103.024 E0.01703
G1 X114.245 Y96.515 E0.29132
G1 X114.245 Y97.053 E0.01703
G1 X120.755 Y103.562 E0.29132
G1 X120.755 Y104.100 E0.01703
G1 X114.245 Y97.591 E0.29132
G1 X114.245 Y98.129 E0.01703
G1 X120.755 Y104.639 E0.29132
G1 X120.755 Y105.177 E0.01703
G1 X114.245 Y98.668 E0.29132
G1 X114.245 Y99.206 E0.01703
G1 X120.755 Y105.715 E0.29132
G1 X120.755 Y106.253 E0.01703
G1 X114.245 Y99.744 E0.29132
G1 X114.245 Y100.282 E0.01703
G1 X120.755 Y106.791 E0.29132
G1 X120.755 Y107.330 E0.01703
G1 X114.245 Y100.820 E0.29132
G1 X114.245 Y101.359 E0.01703
G1 X120.755 Y107.868 E0.29132
G1 X120.755 Y108.406 E0.01703
G1 X114.245 Y101.897 E0.29132
G1 X114.245 Y102.435 E0.01703
G1 X120.755 Y108.944 E0.29132
G1 X120.755 Y109.483 E0.01703
G1 X114.245 Y102.973 E0.29132
G1 X114.245 Y103.512 E0.01703
G1 X120.755 Y110.021 E0.29132
G1 X120.755 Y110.559 E0.01703
G1 X114.245 Y104.050 E0.29132
G1 X114.245 Y104.588 E0.01703
G1 X120.755 Y111.097 E0.29132
G1 X120.755 Y111.636 E0.01703
G1 X114.245 Y105.126 E0.29132
G1 X114.245 Y105.665 E0.01703
G1 X120.755 Y112.174 E0.29132
G1 X120.755 Y112.712 E0.01703
G1 X114.245 Y106.203 E0.29132
G1 X114.245 Y106.741 E0.01703
G1 X120.755 Y113.250 E0.29132
G1 X120.755 Y113.630 E0.01202
G1 X120.596 Y113.630 E0.00501
G1 X114.245 Y107.279 E0.28423
G1 X114.245 Y107.818 E0.01703
G1 X120.058 Y113.630 E0.26014
G1 X119.520 Y113.630 E0.01703
G1 X114.245 Y108.356 E0.23605
G1 X114.245 Y108.894 E0.01703
G1 X118.981 Y113.630 E0.21196
G1 X118.443 Y113.630 E0.01703
G1 X114.245 Y109.432 E0.18787
G1 X114.245 Y109.970 E0.01703
G1 X117.905 Y113.630 E0.16379
G1 X117.367 Y113.630 E0.01703
G1 X114.245 Y110.509 E0.13970
G1 X114.245 Y111.047 E0.01703
G1 X116.829 Y113.630 E0.11561
G1 X116.290 Y113.630 E0.01703
G1 X114.245 Y111.585 E0.09152
G1 X114.245 Y112.123 E0.01703
G1 X115.752 Y113.630 E0.06743
G1 X115.214 Y113.630 E0.01703
G1 X114.245 Y112.662 E0.04334
G1 X114.245 Y113.200 E0.01703
G1 X114.845 Y113.800 E0.02685
G1 E-1.40000 F3600.00000
G1 F7200.000
G1 X114.245 Y113.200 E-0.40298
G1 X114.245 Y112.848 E-0.16702
G1 E-0.03000 F3600.00000
G1 X106.788 Y113.913 F9000.000
G1 E2.00000 F2400.00000
G1 F1200.000
G1 X99.714 Y113.913 E0.22183
G1 X99.714 Y85.087 E0.90381
G1 X106.788 Y85.087 E0.22183
G1 X106.788 Y113.853 E0.90193
G1 X107.165 Y114.290 F9000.000
G1 F1200.000
G1 X99.336 Y114.290 E0.24547
G1 X99.336 Y84.710 E0.92746
G1 X107.165 Y84.710 E0.24547
G1 X107.165 Y114.230 E0.92558
G1 X106.803 Y114.121 F9000.000
G1 E-1.40000 F3600.00000
G1 F7200.000
G1 X105.966 Y114.239 E-0.57000
G1 E-0.03000 F3600.00000
G1 X106.675 Y85.970 F9000.000
G1 E2.00000 F2400.00000
G1 F1200.000
G1 X106.075 Y85.370 E0.02685
G1 X105.537 Y85.370 E0.01703
G1 X106.506 Y86.338 E0.04335
G1 X106.506 Y86.877 E0.01703
G1 X104.999 Y85.370 E0.06744
G1 X104.461 Y85.370 E0.01703
G1 X106.506 Y87.415 E0.09153
G1 X106.506 Y87.953 E0.01703
G1 X103.922 Y85.370 E0.11561
G1 X103.384 Y85.370 E0.01703
G1 X106.506 Y88.491 E0.13970
G1 X106.506 Y89.030 E0.01703
G1 X102.846 Y85.370 E0.16379
G1 X102.308 Y85.370 E0.01703
G1 X106.506 Y89.568 E0.18788
G1 X106.506 Y90.106 E0.01703
G1 X101.769 Y85.370 E0.21197
G1 X101.231 Y85.370 E0.01703
G1 X106.506 Y90.644 E0.23606
G1 X106.506 Y91.183 E0.01703
G1 X100.693 Y85.370 E0.26015
G1 X100.155 Y85.370 E0.01703
G1 X106.506 Y91.721 E0.28423
G1 X106.506 Y92.259 E0.01703
G1 X99.996 Y85.750 E0.29132
G1 X99.996 Y86.288 E0.01703
G1 X106.506 Y92.797 E0.29132
G1 X106.506 Y93.336 E0.01703
G1 X99.996 Y86.826 E0.29132
G1 X99.996 Y87.365 E0.01703
G1 X106.506 Y93.874 E0.29132
G1 X106.506 Y94.412 E0.01703
G1 X99.996 Y87.903 E0.29132
G1 X99.996 Y88.441 E0.01703
G1 X106.506 Y94.950 E0.29132
G1 X106.506 Y95.488 E0.01703
G1 X99.996 Y88.979 E0.29132
G1 X99.996 Y89.517 E0.01703
G1 X106.506 Y96.027 E0.29132
G1 X106.506 Y96.565 E0.01703
G1 X99.996 Y90.056 E0.29132
G1 X99.996 Y90.594 E0.01703
G1 X106.506 Y97.103 E0.29132
G1 X106.506 Y97.641 E0.01703
G1 X99.996 Y91.132 E0.29132
G1 X99.996 Y91.670 E0.01703
G1 X106.506 Y98.180 E0.29132
G1 X106.506 Y98.718 E0.01703
G1 X99.996 Y92.209 E0.29132
G1 X99.996 Y92.747 E0.01703
G1 X106.506 Y99.256 E0.29132
G1 X106.506 Y99.794 E0.01703
G1 X99.996 Y93.285 E0.29132
G1 X99.996 Y93.823 E0.01703
G1 X106.506 Y100.333 E0.29132
G1 X106.506 Y100.871 E0.01703
G1 X99.996 Y94.362 E0.29132
G1 X99.996 Y94.900 E0.01703
G1 X106.506 Y101.409 E0.29132
G1 X106.506 Y101.947 E0.01703
G1 X99.996 Y95.438 E0.29132
G1 X99.996 Y95.976 E0.01703
G1 X106.506 Y102.486 E0.29132
G1 X106.506 Y103.024 E0.01703
G1 X99.996 Y96.515 E0.29132
G1 X99.996 Y97.053 E0.01703
G1 X106.506 Y103.562 E0.29132
G1 X106.506 Y104.100 E0.01703
G1 X99.996 Y97.591 E0.29132
G1 X99.996 Y98.129 E0.01703
G1 X106.506 Y104.639 E0.29132
G1 X106.506 Y105.177 E0.01703
G1 X99.996 Y98.668 E0.29132
G1 X99.996 Y99.206 E0.01703
G1 X106.506 Y105.715 E0.29132
G1 X106.506 Y106.253 E0.01703
G1 X99.996 Y99.744 E0.29132
G1 X99.996 Y100.282 E0.01703
G1 X106.506 Y106.791 E0.29132
G1 X106.506 Y107.330 E0.01703
G1 X99.996 Y100.820 E0.29132
G1 X99.996 Y101.359 E0.01703
G1 X106.506 Y107.868 E0.29132
G1 X106.506 Y108.406 E0.01703
G1 X99.996 Y101.897 E0.29132
G1 X99.996 Y102.435 E0.01703
G1 X106.506 Y108.944 E0.29132
G1 X106.506 Y109.483 E0.01703
G1 X99.996 Y102.973 E0.29132
G1 X99.996 Y103.512 E0.01703
