; generated by PrusaSlicer 2.2.0+ on 2020-11-20 at 17:28:31 UTC

; 

; external perimeters extrusion width = 0.45mm
; perimeters extrusion width = 0.45mm
; infill extrusion width = 0.45mm
; solid infill extrusion width = 0.45mm
; top infill extrusion width = 0.40mm
; first layer extrusion width = 0.42mm

M201 X500 Y500 Z100 E5000 ; sets maximum accelerations, mm/sec^2
M203 X500 Y500 Z10 E60 ; sets maximum feedrates, mm/sec
M204 P500 R1000 T500 ; sets acceleration (P, T) and retract acceleration (R), mm/sec^2
M205 X8.00 Y8.00 Z0.40 E5.00 ; sets the jerk limits, mm/sec
M205 S0 T0 ; sets the minimum extruding and travel feed rate, mm/sec
M107
G90 ; use absolute coordinates
M83 ; extruder relative mode
M104 S200 ; set extruder temp
M140 S60 ; set bed temp
M190 S60 ; wait for bed temp
M109 S200 ; wait for extruder temp
G28 ; home all
G1 Z2 F240
G1 X2 Y10 F3000
G1 Z0.28 F240
G92 E0.0
G1 Y190 E15.0 F1500.0 ; intro line
G1 X2.3 F5000
G1 Y10 E30 F1200.0 ; intro line
G92 E0.0
G21 ; set units to millimeters
G90 ; use absolute coordinates
M83 ; use relative distances for extrusion
; Filament gcode
;BEFORE_LAYER_CHANGE
;0.2


G1 E-1.00000 F3600.00000
G1 Z0.200 F9000.000
;AFTER_LAYER_CHANGE
;0.2
G1 X60.520 Y50.184
G1 E1.00000 F2400.00000
G1 F1200.000
G1 X68.601 Y42.040 E0.35975
G1 X69.258 Y41.610 E0.02461
G1 X70.015 Y41.418 E0.02449
G1 X164.479 Y41.409 E2.96185
G1 X165.064 Y41.426 E0.01836
G1 X165.550 Y41.535 E0.01562
G1 X166.019 Y41.754 E0.01621
G1 X166.432 Y42.071 E0.01633
G1 X174.260 Y49.902 E0.34716
G1 X174.696 Y50.590 E0.02555
G1 X174.874 Y51.381 E0.02543
G1 X172.477 Y191.545 E4.39538
G1 X172.369 Y192.208 E0.02107
G1 X172.080 Y192.815 E0.02107
G1 X171.702 Y193.256 E0.01823
G1 X171.228 Y193.593 E0.01823
G1 X170.686 Y193.804 E0.01823
G1 X170.113 Y193.877 E0.01811
G1 X64.892 Y193.877 E3.29912
G1 X64.209 Y193.775 E0.02166
G1 X63.584 Y193.480 E0.02166
G1 X63.151 Y193.110 E0.01787
G1 X62.818 Y192.647 E0.01787
G1 X62.605 Y192.119 E0.01787
G1 X62.523 Y191.551 E0.01799
G1 X60.123 Y53.534 E4.32808
G1 X60.140 Y51.219 E0.07258
G1 X60.269 Y50.679 E0.01740
G1 X60.493 Y50.238 E0.01552
G1 E-0.70000 F3600.00000
G1 F7200.000
G1 X60.915 Y49.811 E-0.28500
G1 E-0.01500 F3600.00000
G1 X169.513 Y52.913 F9000.000
G1 E1.00000 F2400.00000
G1 F1200.000
G1 X169.513 Y190.913 E4.32689
G1 X65.487 Y190.913 E3.26166
G1 X65.487 Y52.913 E4.32689
G1 X63.087 Y52.913 E0.07525
G1 X63.087 Y51.743 E0.03668
G1 X70.171 Y44.660 E0.31409
G1 X164.830 Y44.660 E2.96797
G1 X171.913 Y51.743 E0.31409
G1 X171.913 Y52.913 E0.03668
G1 X169.573 Y52.913 E0.07337
G1 X169.890 Y53.290 F9000.000
G1 F1200.000
G1 X169.890 Y191.290 E4.32689
G1 X65.110 Y191.290 E3.28530
G1 X65.110 Y53.290 E4.32689
G1 X62.710 Y53.290 E0.07525
G1 X62.710 Y51.587 E0.05340
G1 X70.014 Y44.283 E0.32389
G1 X164.986 Y44.283 E2.97776
G1 X172.290 Y51.587 E0.32388
G1 X172.290 Y53.290 E0.05340
G1 X169.950 Y53.290 E0.07337
G1 X169.498 Y53.372 F9000.000
G1 E-0.70000 F3600.00000
G1 F7200.000
G1 X169.950 Y53.890 E-0.28500
G1 E-0.01500 F3600.00000
G1 X171.800 Y52.031 F9000.000
G1 E1.00000 F2400.00000
G1 F1200.000
G1 X164.712 Y44.943 E0.31494
G1 X164.177 Y44.943 E0.01679
G1 X171.630 Y52.395 E0.33114
G1 X171.630 Y52.630 E0.00738
G1 X171.331 Y52.630 E0.00941
G1 X163.643 Y44.943 E0.34158
G1 X163.109 Y44.943 E0.01679
G1 X170.796 Y52.630 E0.34158
G1 X170.262 Y52.630 E0.01679
G1 X162.574 Y44.943 E0.34158
G1 X162.040 Y44.943 E0.01679
G1 X169.727 Y52.630 E0.34158
G1 X169.230 Y52.630 E0.01563
G1 X169.230 Y52.667 E0.00116
G1 X161.506 Y44.943 E0.34322
G1 X160.971 Y44.943 E0.01679
G1 X169.230 Y53.201 E0.36697
G1 X169.230 Y53.736 E0.01679
G1 X160.437 Y44.943 E0.39071
G1 X159.902 Y44.943 E0.01679
G1 X169.230 Y54.270 E0.41445
G1 X169.230 Y54.805 E0.01679
G1 X159.368 Y44.943 E0.43819
G1 X158.834 Y44.943 E0.01679
G1 X169.230 Y55.339 E0.46194
G1 X169.230 Y55.873 E0.01679
G1 X158.299 Y44.943 E0.48568
G1 X157.765 Y44.943 E0.01679
G1 X169.230 Y56.408 E0.50942
G1 X169.230 Y56.942 E0.01679
G1 X157.231 Y44.943 E0.53317
G1 X156.696 Y44.943 E0.01679
G1 X169.230 Y57.476 E0.55691
G1 X169.230 Y58.011 E0.01679
G1 X156.162 Y44.943 E0.58065
G1 X155.628 Y44.943 E0.01679
G1 X169.230 Y58.545 E0.60440
G1 X169.230 Y59.080 E0.01679
G1 X155.093 Y44.943 E0.62814
G1 X154.559 Y44.943 E0.01679
G1 X169.230 Y59.614 E0.65188
G1 X169.230 Y60.148 E0.01679
G1 X154.024 Y44.943 E0.67563
G1 X153.490 Y44.943 E0.01679
G1 X169.230 Y60.683 E0.69937
G1 X169.230 Y61.217 E0.01679
G1 X152.956 Y44.943 E0.72311
G1 X152.421 Y44.943 E0.01679
G1 X169.230 Y61.751 E0.74686
G1 X169.230 Y62.286 E0.01679
G1 X151.887 Y44.943 E0.77060
G1 X151.353 Y44.943 E0.01679
G1 X169.230 Y62.820 E0.79434
G1 X169.230 Y63.354 E0.01679
G1 X150.818 Y44.943 E0.81809
G1 X150.284 Y44.943 E0.01679
G1 X169.230 Y63.889 E0.84183
G1 X169.230 Y64.423 E0.01679
G1 X149.750 Y44.943 E0.86557
G1 X149.215 Y44.943 E0.01679
G1 X169.230 Y64.958 E0.88932
G1 X169.230 Y65.492 E0.01679
G1 X148.681 Y44.943 E0.91306
G1 X148.146 Y44.943 E0.01679
G1 X169.230 Y66.026 E0.93680
G1 X169.230 Y66.561 E0.01679
G1 X147.612 Y44.943 E0.96054
G1 X147.078 Y44.943 E0.01679
G1 X169.230 Y67.095 E0.98429
G1 X169.230 Y67.629 E0.01679
G1 X146.543 Y44.943 E1.00803
G1 X146.009 Y44.943 E0.01679
G1 X169.230 Y68.164 E1.03177
G1 X169.230 Y68.698 E0.01679
G1 X145.475 Y44.943 E1.05552
G1 X144.940 Y44.943 E0.01679
G1 X169.230 Y69.232 E1.07926
G1 X169.230 Y69.767 E0.01679
G1 X144.406 Y44.943 E1.10300
G1 X143.872 Y44.943 E0.01679
G1 X169.230 Y70.301 E1.12675
G1 X169.230 Y70.836 E0.01679
G1 X143.337 Y44.943 E1.15049
G1 X142.803 Y44.943 E0.01679
G1 X169.230 Y71.370 E1.17423
G1 X169.230 Y71.904 E0.01679
G1 X142.268 Y44.943 E1.19798
G1 X141.734 Y44.943 E0.01679
G1 X169.230 Y72.439 E1.22172
G1 X169.230 Y72.973 E0.01679
G1 X141.200 Y44.943 E1.24546
G1 X140.665 Y44.943 E0.01679
G1 X169.230 Y73.507 E1.26921
G1 X169.230 Y74.042 E0.01679
G1 X140.131 Y44.943 E1.29295
G1 X139.597 Y44.943 E0.01679
G1 X169.230 Y74.576 E1.31669
G1 X169.230 Y75.110 E0.01679
G1 X139.062 Y44.943 E1.34044
G1 X138.528 Y44.943 E0.01679
G1 X169.230 Y75.645 E1.36418
G1 X169.230 Y76.179 E0.01679
G1 X137.994 Y44.943 E1.38792
G1 X137.459 Y44.943 E0.01679
G1 X169.230 Y76.714 E1.41167
G1 X169.230 Y77.248 E0.01679
G1 X136.925 Y44.943 E1.43541
G1 X136.390 Y44.943 E0.01679
G1 X169.230 Y77.782 E1.45915
G1 X169.230 Y78.317 E0.01679
G1 X135.856 Y44.943 E1.48289
G1 X135.322 Y44.943 E0.01679
G1 X169.230 Y78.851 E1.50664
G1 X169.230 Y79.385 E0.01679
G1 X134.787 Y44.943 E1.53038
G1 X134.253 Y44.943 E0.01679
G1 X169.230 Y79.920 E1.55412
G1 X169.230 Y80.454 E0.01679
G1 X133.719 Y44.943 E1.57787
G1 X133.184 Y44.943 E0.01679
G1 X169.230 Y80.988 E1.60161
G1 X169.230 Y81.523 E0.01679
G1 X132.650 Y44.943 E1.62535
G1 X132.116 Y44.943 E0.01679
G1 X169.230 Y82.057 E1.64910
G1 X169.230 Y82.592 E0.01679
G1 X131.581 Y44.943 E1.67284
G1 X131.047 Y44.943 E0.01679
G1 X169.230 Y83.126 E1.69658
G1 X169.230 Y83.660 E0.01679
G1 X130.512 Y44.943 E1.72033
G1 X129.978 Y44.943 E0.01679
G1 X169.230 Y84.195 E1.74407
G1 X169.230 Y84.729 E0.01679
G1 X129.444 Y44.943 E1.76781
G1 X128.909 Y44.943 E0.01679
G1 X169.230 Y85.263 E1.79156
G1 X169.230 Y85.798 E0.01679
G1 X128.375 Y44.943 E1.81530
G1 X127.841 Y44.943 E0.01679
G1 X169.230 Y86.332 E1.83904
G1 X169.230 Y86.866 E0.01679
G1 X127.306 Y44.943 E1.86279
G1 X126.772 Y44.943 E0.01679
G1 X169.230 Y87.401 E1.88653
G1 X169.230 Y87.935 E0.01679
G1 X126.238 Y44.943 E1.91027
G1 X125.703 Y44.943 E0.01679
G1 X169.230 Y88.470 E1.93402
G1 X169.230 Y89.004 E0.01679
G1 X125.169 Y44.943 E1.95776
G1 X124.634 Y44.943 E0.01679
G1 X169.230 Y89.538 E1.98150
G1 X169.230 Y90.073 E0.01679
G1 X124.100 Y44.943 E2.00524
G1 X123.566 Y44.943 E0.01679
G1 X169.230 Y90.607 E2.02899
G1 X169.230 Y91.141 E0.01679
G1 X123.031 Y44.943 E2.05273
G1 X122.497 Y44.943 E0.01679
G1 X169.230 Y91.676 E2.07647
G1 X169.230 Y92.210 E0.01679
G1 X121.963 Y44.943 E2.10022
G1 X121.428 Y44.943 E0.01679
G1 X169.230 Y92.744 E2.12396
G1 X169.230 Y93.279 E0.01679
G1 X120.894 Y44.943 E2.14770
G1 X120.360 Y44.943 E0.01679
G1 X169.230 Y93.813 E2.17145
G1 X169.230 Y94.348 E0.01679
G1 X119.825 Y44.943 E2.19519
G1 X119.291 Y44.943 E0.01679
G1 X169.230 Y94.882 E2.21893
G1 X169.230 Y95.416 E0.01679
G1 X118.756 Y44.943 E2.24268
G1 X118.222 Y44.943 E0.01679
G1 X169.230 Y95.951 E2.26642
G1 X169.230 Y96.485 E0.01679
G1 X117.688 Y44.943 E2.29016
G1 X117.153 Y44.943 E0.01679
G1 X169.230 Y97.019 E2.31391
G1 X169.230 Y97.554 E0.01679
G1 X116.619 Y44.943 E2.33765
G1 X116.085 Y44.943 E0.01679
G1 X169.230 Y98.088 E2.36139
G1 X169.230 Y98.623 E0.01679
G1 X115.550 Y44.943 E2.38514
G1 X115.016 Y44.943 E0.01679
G1 X169.230 Y99.157 E2.40888
G1 X169.230 Y99.691 E0.01679
G1 X114.482 Y44.943 E2.43262
G1 X113.947 Y44.943 E0.01679
G1 X169.230 Y100.226 E2.45637
G1 X169.230 Y100.760 E0.01679
G1 X113.413 Y44.943 E2.48011
G1 X112.878 Y44.943 E0.01679
G1 X169.230 Y101.294 E2.50385
G1 X169.230 Y101.829 E0.01679
G1 X112.344 Y44.943 E2.52759
G1 X111.810 Y44.943 E0.01679
G1 X169.230 Y102.363 E2.55134
G1 X169.230 Y102.897 E0.01679
G1 X111.275 Y44.943 E2.57508
G1 X110.741 Y44.943 E0.01679
G1 X169.230 Y103.432 E2.59882
G1 X169.230 Y103.966 E0.01679
G1 X110.207 Y44.943 E2.62257
G1 X109.672 Y44.943 E0.01679
G1 X169.230 Y104.501 E2.64631
G1 X169.230 Y105.035 E0.01679
G1 X109.138 Y44.943 E2.67005
G1 X108.604 Y44.943 E0.01679
G1 X169.230 Y105.569 E2.69380
G1 X169.230 Y106.104 E0.01679
G1 X108.069 Y44.943 E2.71754
G1 X107.535 Y44.943 E0.01679
G1 X169.230 Y106.638 E2.74128
G1 X169.230 Y107.172 E0.01679
G1 X107.000 Y44.943 E2.76503
G1 X106.466 Y44.943 E0.01679
G1 X169.230 Y107.707 E2.78877
G1 X169.230 Y108.241 E0.01679
G1 X105.932 Y44.943 E2.81251
G1 X105.397 Y44.943 E0.01679
G1 X169.230 Y108.775 E2.83626
G1 X169.230 Y109.310 E0.01679
G1 X104.863 Y44.943 E2.86000
G1 X104.329 Y44.943 E0.01679
G1 X169.230 Y109.844 E2.88374
G1 X169.230 Y110.379 E0.01679
G1 X103.794 Y44.943 E2.90749
G1 X103.260 Y44.943 E0.01679
G1 X169.230 Y110.913 E2.93123
G1 X169.230 Y111.447 E0.01679
G1 X102.726 Y44.943 E2.95497
G1 X102.191 Y44.943 E0.01679
G1 X169.230 Y111.982 E2.97872
G1 X169.230 Y112.516 E0.01679
G1 X101.657 Y44.943 E3.00246
G1 X101.122 Y44.943 E0.01679
G1 X169.230 Y113.050 E3.02620
G1 X169.230 Y113.585 E0.01679
G1 X100.588 Y44.943 E3.04994
G1 X100.054 Y44.943 E0.01679
G1 X169.230 Y114.119 E3.07369
G1 X169.230 Y114.653 E0.01679
G1 X99.519 Y44.943 E3.09743
G1 X98.985 Y44.943 E0.01679
G1 X169.230 Y115.188 E3.12117
G1 X169.230 Y115.722 E0.01679
G1 X98.451 Y44.943 E3.14492
G1 X97.916 Y44.943 E0.01679
G1 X169.230 Y116.257 E3.16866
G1 X169.230 Y116.791 E0.01679
G1 X97.382 Y44.943 E3.19240
G1 X96.848 Y44.943 E0.01679
G1 X169.230 Y117.325 E3.21615
G1 X169.230 Y117.860 E0.01679
G1 X96.313 Y44.943 E3.23989
G1 X95.779 Y44.943 E0.01679
G1 X169.230 Y118.394 E3.26363
G1 X169.230 Y118.928 E0.01679
G1 X95.244 Y44.943 E3.28738
G1 X94.710 Y44.943 E0.01679
G1 X169.230 Y119.463 E3.31112
G1 X169.230 Y119.997 E0.01679
G1 X94.176 Y44.943 E3.33486
G1 X93.641 Y44.943 E0.01679
G1 X169.230 Y120.531 E3.35861
G1 X169.230 Y121.066 E0.01679
G1 X93.107 Y44.943 E3.38235
G1 X92.573 Y44.943 E0.01679
G1 X169.230 Y121.600 E3.40609
G1 X169.230 Y122.135 E0.01679
G1 X92.038 Y44.943 E3.42984
G1 X91.504 Y44.943 E0.01679
G1 X169.230 Y122.669 E3.45358
G1 X169.230 Y123.203 E0.01679
G1 X90.970 Y44.943 E3.47732
G1 X90.435 Y44.943 E0.01679
G1 X169.230 Y123.738 E3.50107
G1 X169.230 Y124.272 E0.01679
G1 X89.901 Y44.943 E3.52481
G1 X89.366 Y44.943 E0.01679
G1 X169.230 Y124.806 E3.54855
G1 X169.230 Y125.341 E0.01679
G1 X88.832 Y44.943 E3.57229
G1 X88.298 Y44.943 E0.01679
G1 X169.230 Y125.875 E3.59604
G1 X169.230 Y126.409 E0.01679
G1 X87.763 Y44.943 E3.61978
G1 X87.229 Y44.943 E0.01679
G1 X169.230 Y126.944 E3.64352
G1 X169.230 Y127.478 E0.01679
G1 X86.695 Y44.943 E3.66727
G1 X86.160 Y44.943 E0.01679
G1 X169.230 Y128.013 E3.69101
G1 X169.230 Y128.547 E0.01679
G1 X85.626 Y44.943 E3.71475
G1 X85.092 Y44.943 E0.01679
G1 X169.230 Y129.081 E3.73850
G1 X169.230 Y129.616 E0.01679
G1 X84.557 Y44.943 E3.76224
G1 X84.023 Y44.943 E0.01679
G1 X169.230 Y130.150 E3.78598
G1 X169.230 Y130.684 E0.01679
G1 X83.488 Y44.943 E3.80973
G1 X82.954 Y44.943 E0.01679
G1 X169.230 Y131.219 E3.83347
G1 X169.230 Y131.753 E0.01679
G1 X82.420 Y44.943 E3.85721
G1 X81.885 Y44.943 E0.01679
G1 X169.230 Y132.287 E3.88096
G1 X169.230 Y132.822 E0.01679
G1 X81.351 Y44.943 E3.90470
G1 X80.817 Y44.943 E0.01679
G1 X169.230 Y133.356 E3.92844
G1 X169.230 Y133.891 E0.01679
G1 X80.282 Y44.943 E3.95219
G1 X79.748 Y44.943 E0.01679
G1 X169.230 Y134.425 E3.97593
G1 X169.230 Y134.959 E0.01679
G1 X79.214 Y44.943 E3.99967
G1 X78.679 Y44.943 E0.01679
G1 X169.230 Y135.494 E4.02342
G1 X169.230 Y136.028 E0.01679
G1 X78.145 Y44.943 E4.04716
G1 X77.610 Y44.943 E0.01679
G1 X169.230 Y136.562 E4.07090
G1 X169.230 Y137.097 E0.01679
G1 X77.076 Y44.943 E4.09464
G1 X76.542 Y44.943 E0.01679
G1 X169.230 Y137.631 E4.11839
G1 X169.230 Y138.165 E0.01679
G1 X76.007 Y44.943 E4.14213
G1 X75.473 Y44.943 E0.01679
G1 X169.230 Y138.700 E4.16587
G1 X169.230 Y139.234 E0.01679
G1 X74.939 Y44.943 E4.18962
G1 X74.404 Y44.943 E0.01679
G1 X169.230 Y139.769 E4.21336
G1 X169.230 Y140.303 E0.01679
G1 X73.870 Y44.943 E4.23710
G1 X73.336 Y44.943 E0.01679
G1 X169.230 Y140.837 E4.26085
G1 X169.230 Y141.372 E0.01679
G1 X72.801 Y44.943 E4.28459
G1 X72.267 Y44.943 E0.01679
G1 X169.230 Y141.906 E4.30834
G1 X169.230 Y142.440 E0.01679
G1 X71.732 Y44.943 E4.33208
G1 X71.198 Y44.943 E0.01679
G1 X169.230 Y142.975 E4.35583
G1 X169.230 Y143.509 E0.01679
G1 X70.664 Y44.943 E4.37957
G1 X70.288 Y44.943 E0.01181
G1 X70.208 Y45.022 E0.00352
G1 X169.230 Y144.044 E4.39979
G1 X169.230 Y144.578 E0.01679
G1 X69.941 Y45.289 E4.41167
G1 X69.674 Y45.556 E0.01187
G1 X169.230 Y145.112 E4.42354
G1 X169.230 Y145.647 E0.01679
G1 X69.407 Y45.823 E4.43541
G1 X69.140 Y46.091 E0.01187
G1 X169.230 Y146.181 E4.44728
G1 X169.230 Y146.715 E0.01679
G1 X68.872 Y46.358 E4.45915
G1 X68.605 Y46.625 E0.01187
G1 X169.230 Y147.250 E4.47102
G1 X169.230 Y147.784 E0.01679
G1 X68.338 Y46.892 E4.48290
G1 X68.071 Y47.159 E0.01187
G1 X169.230 Y148.318 E4.49477
G1 X169.230 Y148.853 E0.01679
G1 X67.804 Y47.426 E4.50664
G1 X67.537 Y47.694 E0.01187
G1 X169.230 Y149.387 E4.51851
G1 X169.230 Y149.922 E0.01679
G1 X67.269 Y47.961 E4.53038
G1 X67.002 Y48.228 E0.01187
G1 X169.230 Y150.456 E4.54225
G1 X169.230 Y150.990 E0.01679
G1 X66.735 Y48.495 E4.55413
G1 X66.468 Y48.762 E0.01187
G1 X169.230 Y151.525 E4.56600
G1 X169.230 Y152.059 E0.01679
G1 X66.201 Y49.030 E4.57787
G1 X65.933 Y49.297 E0.01187
G1 X169.230 Y152.593 E4.58974
G1 X169.230 Y153.128 E0.01679
G1 X65.666 Y49.564 E4.60161
G1 X65.399 Y49.831 E0.01187
G1 X169.230 Y153.662 E4.61348
G1 X169.230 Y154.196 E0.01679
G1 X65.132 Y50.098 E4.62536
G1 X64.865 Y50.365 E0.01187
G1 X169.230 Y154.731 E4.63723
G1 X169.230 Y155.265 E0.01679
G1 X64.598 Y50.633 E4.64910
G1 X64.330 Y50.900 E0.01187
G1 X169.230 Y155.800 E4.66097
G1 X169.230 Y156.334 E0.01679
G1 X64.063 Y51.167 E4.67284
G1 X63.796 Y51.434 E0.01187
G1 X64.992 Y52.630 E0.05314
G1 X64.458 Y52.630 E0.01679
G1 X63.529 Y51.701 E0.04127
G1 X63.370 Y51.860 E0.00706
G1 X63.370 Y52.077 E0.00680
G1 X63.923 Y52.630 E0.02459
G1 X63.389 Y52.630 E0.01679
G1 X63.200 Y52.441 E0.00838
G1 E-0.70000 F3600.00000
G1 F7200.000
G1 X63.389 Y52.630 E-0.12675
G1 X63.722 Y52.630 E-0.15825
G1 E-0.01500 F3600.00000
G1 X65.600 Y190.036 F9000.000
G1 E1.00000 F2400.00000
G1 F1200.000
G1 X66.195 Y190.630 E0.02641
G1 X66.729 Y190.630 E0.01679
G1 X65.770 Y189.671 E0.04261
G1 X65.770 Y189.137 E0.01679
G1 X67.263 Y190.630 E0.06636
G1 X67.798 Y190.630 E0.01679
G1 X65.770 Y188.602 E0.09010
G1 X65.770 Y188.068 E0.01679
G1 X68.332 Y190.630 E0.11384
G1 X68.866 Y190.630 E0.01679
G1 X65.770 Y187.534 E0.13759
G1 X65.770 Y186.999 E0.01679
G1 X69.401 Y190.630 E0.16133
G1 X69.935 Y190.630 E0.01679
G1 X65.770 Y186.465 E0.18507
G1 X65.770 Y185.931 E0.01679
G1 X70.469 Y190.630 E0.20882
G1 X71.004 Y190.630 E0.01679
G1 X65.770 Y185.396 E0.23256
G1 X65.770 Y184.862 E0.01679
G1 X71.538 Y190.630 E0.25630
G1 X72.073 Y190.630 E0.01679
G1 X65.770 Y184.327 E0.28005
G1 X65.770 Y183.793 E0.01679
G1 X72.607 Y190.630 E0.30379
G1 X73.141 Y190.630 E0.01679
