; generated by PrusaSlicer 2.2.0+ on 2020-11-19 at 23:46:17 UTC

; 

; external perimeters extrusion width = 0.45mm
; perimeters extrusion width = 0.45mm
; infill extrusion width = 0.45mm
; solid infill extrusion width = 0.45mm
; top infill extrusion width = 0.45mm
; first layer extrusion width = 0.42mm

M201 X500 Y500 Z100 E5000 ; sets maximum accelerations, mm/sec^2
M203 X500 Y500 Z10 E60 ; sets maximum feedrates, mm/sec
M204 P500 R1000 T500 ; sets acceleration (P, T) and retract acceleration (R), mm/sec^2
M205 X8.00 Y8.00 Z0.40 E5.00 ; sets the jerk limits, mm/sec
M205 S0 T0 ; sets the minimum extruding and travel feed rate, mm/sec
M107
; Nelson Cotrim
; This is the code I'm using.
; I did not create it (check a few days ago and you'll find the thread in which I ask about it) 
; but I did make a couple of minor changes - can't really remember what they were, 
; but things like raising the head after G28 and before increasing the temperature.
G21 ;metric
G90 ;absolute positioning
M82 ;absolute extruder mode
M107 ;fan off
M201 X500.00 Y500.00 Z100.00 E5000.00 ;Setup machine max acceleration
M203 X500.00 Y500.00 Z10.00 E50.00 ;Setup machine max feedrate
M204 P500.00 R1000.00 T500.00 ;Setup Print/Retract/Travel acceleration
M205 X8.00 Y8.00 Z0.40 E5.00 ;Setup Jerk
M220 S100 ;Reset Feedrate
M221 S100 ;Reset Flowrate
M140 S60 ; Start Heating Bed
G28 ;Home
G1 Z10 F3000
M190 S60 ; wait for bed temp
M109 S120 ;set extruder temperature to 120 for bed leveling
G29 ;Auto bed leveling
G28 ;home
M420 S1 Z0.00 ;Load bed mesh
G1 Z10 F3000
M104 S215 ; set extruder temp
M190 S60 ; wait for bed temp
M109 S215 ; wait for extruder temp
G92 E0 ;reset extruder
;Priming lines
G1 Z2.0 F3000
G1 X230 Y2 Z0.3 F5000 ; Move to start position on front right
G1 X15 Y2 Z0.3 F800 E30 ; Draw a thick line
;G1 X5 Y2 Z0.3 F800 E0 ; Keep moving, but no more extrusion
G92 E0 ; Zero extruder
G1 Z5.0 F3000 ;Move Z Axis up
G21 ; set units to millimeters
G90 ; use absolute coordinates
M83 ; use relative distances for extrusion
; Filament gcode
;BEFORE_LAYER_CHANGE
;0.2


G1 E-2.00000 F3600.00000
G1 Z0.200 F9000.000
;AFTER_LAYER_CHANGE
;0.2
G1 X69.149 Y41.220
G1 E2.00000 F2400.00000
G1 F1200.000
G1 X70.015 Y40.998 E0.02803
G1 X162.265 Y40.986 E2.89244
G1 X165.130 Y41.015 E0.08984
G1 X165.830 Y41.212 E0.02282
G1 X166.455 Y41.585 E0.02282
G1 X174.544 Y49.654 E0.35821
G1 X175.035 Y50.424 E0.02866
G1 X175.248 Y51.317 E0.02879
G1 X172.854 Y191.556 E4.39773
G1 X172.733 Y192.307 E0.02383
G1 X172.413 Y192.996 E0.02383
G1 X171.976 Y193.516 E0.02129
G1 X171.426 Y193.914 E0.02129
G1 X170.796 Y194.165 E0.02129
G1 X170.123 Y194.254 E0.02129
G1 X64.888 Y194.254 E3.29956
G1 X64.116 Y194.140 E0.02447
G1 X63.403 Y193.812 E0.02460
G1 X62.889 Y193.381 E0.02103
G1 X62.495 Y192.843 E0.02090
G1 X62.242 Y192.222 E0.02103
G1 X62.147 Y191.562 E0.02090
G1 X59.746 Y53.540 E4.32825
G1 X59.767 Y51.156 E0.07473
G1 X59.913 Y50.556 E0.01937
G1 X60.188 Y50.003 E0.01937
G1 X60.542 Y49.563 E0.01771
G1 X68.397 Y41.711 E0.34823
G1 X69.099 Y41.253 E0.02627
G1 X69.296 Y41.568 F9000.000
G1 F1200.000
G1 X70.053 Y41.373 E0.02449
G1 X162.265 Y41.364 E2.89124
G1 X165.049 Y41.384 E0.08731
G1 X165.669 Y41.552 E0.02012
G1 X166.217 Y41.878 E0.02000
G1 X174.255 Y49.896 E0.35596
G1 X174.687 Y50.569 E0.02508
G1 X174.872 Y51.347 E0.02508
G1 X172.477 Y191.545 E4.39645
G1 X172.374 Y192.194 E0.02060
G1 X172.095 Y192.793 E0.02071
G1 X171.716 Y193.243 E0.01846
G1 X171.241 Y193.585 E0.01835
G1 X170.697 Y193.801 E0.01835
G1 X170.117 Y193.877 E0.01835
G1 X64.892 Y193.877 E3.29924
G1 X64.224 Y193.779 E0.02119
G1 X63.607 Y193.494 E0.02130
G1 X63.164 Y193.124 E0.01811
G1 X62.824 Y192.657 E0.01811
G1 X62.606 Y192.122 E0.01811
G1 X62.523 Y191.551 E0.01811
G1 X60.123 Y53.534 E4.32808
G1 X60.138 Y51.230 E0.07223
G1 X60.263 Y50.697 E0.01716
G1 X60.506 Y50.207 E0.01716
G1 X60.811 Y49.828 E0.01526
G1 X68.644 Y41.997 E0.34728
G1 X69.246 Y41.601 E0.02261
G1 E-1.40000 F3600.00000
G1 F7200.000
G1 X70.053 Y41.373 E-0.39809
G1 X70.415 Y41.373 E-0.17191
G1 E-0.03000 F3600.00000
G1 X169.513 Y52.913 F9000.000
G1 E2.00000 F2400.00000
G1 F1200.000
G1 X169.513 Y190.913 E4.32689
G1 X65.487 Y190.913 E3.26166
G1 X65.487 Y52.913 E4.32689
G1 X63.087 Y52.913 E0.07525
G1 X63.087 Y51.743 E0.03668
G1 X70.171 Y44.660 E0.31409
G1 X164.830 Y44.660 E2.96797
G1 X171.913 Y51.743 E0.31409
G1 X171.913 Y52.913 E0.03668
G1 X169.573 Y52.913 E0.07337
G1 X169.890 Y53.290 F9000.000
G1 F1200.000
G1 X169.890 Y191.290 E4.32689
G1 X65.110 Y191.290 E3.28530
G1 X65.110 Y53.290 E4.32689
G1 X62.710 Y53.290 E0.07525
G1 X62.710 Y51.587 E0.05340
G1 X70.014 Y44.283 E0.32389
G1 X164.986 Y44.283 E2.97776
G1 X172.290 Y51.587 E0.32388
G1 X172.290 Y53.290 E0.05340
G1 X169.950 Y53.290 E0.07337
G1 X169.498 Y53.372 F9000.000
G1 E-1.40000 F3600.00000
G1 F7200.000
G1 X169.949 Y54.490 E-0.57000
G1 E-0.03000 F3600.00000
G1 X171.800 Y52.031 F9000.000
G1 E2.00000 F2400.00000
G1 F1200.000
G1 X164.712 Y44.943 E0.31494
G1 X164.177 Y44.943 E0.01679
G1 X171.630 Y52.395 E0.33114
G1 X171.630 Y52.630 E0.00738
G1 X171.331 Y52.630 E0.00941
G1 X163.643 Y44.943 E0.34158
G1 X163.109 Y44.943 E0.01679
G1 X170.796 Y52.630 E0.34158
G1 X170.262 Y52.630 E0.01679
G1 X162.574 Y44.943 E0.34158
G1 X162.040 Y44.943 E0.01679
G1 X169.727 Y52.630 E0.34158
G1 X169.230 Y52.630 E0.01563
G1 X169.230 Y52.667 E0.00116
G1 X161.506 Y44.943 E0.34322
G1 X160.971 Y44.943 E0.01679
G1 X169.230 Y53.201 E0.36697
G1 X169.230 Y53.736 E0.01679
G1 X160.437 Y44.943 E0.39071
G1 X159.902 Y44.943 E0.01679
G1 X169.230 Y54.270 E0.41445
G1 X169.230 Y54.805 E0.01679
G1 X159.368 Y44.943 E0.43819
G1 X158.834 Y44.943 E0.01679
G1 X169.230 Y55.339 E0.46194
G1 X169.230 Y55.873 E0.01679
G1 X158.299 Y44.943 E0.48568
G1 X157.765 Y44.943 E0.01679
G1 X169.230 Y56.408 E0.50942
G1 X169.230 Y56.942 E0.01679
G1 X157.231 Y44.943 E0.53317
G1 X156.696 Y44.943 E0.01679
G1 X169.230 Y57.476 E0.55691
G1 X169.230 Y58.011 E0.01679
G1 X156.162 Y44.943 E0.58065
G1 X155.628 Y44.943 E0.01679
G1 X169.230 Y58.545 E0.60440
G1 X169.230 Y59.080 E0.01679
G1 X155.093 Y44.943 E0.62814
G1 X154.559 Y44.943 E0.01679
G1 X169.230 Y59.614 E0.65188
G1 X169.230 Y60.148 E0.01679
G1 X154.024 Y44.943 E0.67563
G1 X153.490 Y44.943 E0.01679
G1 X169.230 Y60.683 E0.69937
G1 X169.230 Y61.217 E0.01679
G1 X152.956 Y44.943 E0.72311
G1 X152.421 Y44.943 E0.01679
G1 X169.230 Y61.751 E0.74686
G1 X169.230 Y62.286 E0.01679
G1 X151.887 Y44.943 E0.77060
G1 X151.353 Y44.943 E0.01679
G1 X169.230 Y62.820 E0.79434
G1 X169.230 Y63.354 E0.01679
G1 X150.818 Y44.943 E0.81809
G1 X150.284 Y44.943 E0.01679
G1 X169.230 Y63.889 E0.84183
G1 X169.230 Y64.423 E0.01679
G1 X149.750 Y44.943 E0.86557
G1 X149.215 Y44.943 E0.01679
G1 X169.230 Y64.958 E0.88932
G1 X169.230 Y65.492 E0.01679
G1 X148.681 Y44.943 E0.91306
G1 X148.146 Y44.943 E0.01679
G1 X169.230 Y66.026 E0.93680
G1 X169.230 Y66.561 E0.01679
G1 X147.612 Y44.943 E0.96054
G1 X147.078 Y44.943 E0.01679
G1 X169.230 Y67.095 E0.98429
G1 X169.230 Y67.629 E0.01679
G1 X146.543 Y44.943 E1.00803
G1 X146.009 Y44.943 E0.01679
G1 X169.230 Y68.164 E1.03177
G1 X169.230 Y68.698 E0.01679
G1 X145.475 Y44.943 E1.05552
G1 X144.940 Y44.943 E0.01679
G1 X169.230 Y69.232 E1.07926
G1 X169.230 Y69.767 E0.01679
G1 X144.406 Y44.943 E1.10300
G1 X143.872 Y44.943 E0.01679
G1 X169.230 Y70.301 E1.12675
G1 X169.230 Y70.836 E0.01679
G1 X143.337 Y44.943 E1.15049
G1 X142.803 Y44.943 E0.01679
G1 X169.230 Y71.370 E1.17423
G1 X169.230 Y71.904 E0.01679
G1 X142.268 Y44.943 E1.19798
G1 X141.734 Y44.943 E0.01679
G1 X169.230 Y72.439 E1.22172
G1 X169.230 Y72.973 E0.01679
G1 X141.200 Y44.943 E1.24546
G1 X140.665 Y44.943 E0.01679
G1 X169.230 Y73.507 E1.26921
G1 X169.230 Y74.042 E0.01679
G1 X140.131 Y44.943 E1.29295
G1 X139.597 Y44.943 E0.01679
G1 X169.230 Y74.576 E1.31669
G1 X169.230 Y75.110 E0.01679
G1 X139.062 Y44.943 E1.34044
G1 X138.528 Y44.943 E0.01679
G1 X169.230 Y75.645 E1.36418
G1 X169.230 Y76.179 E0.01679
G1 X137.994 Y44.943 E1.38792
G1 X137.459 Y44.943 E0.01679
G1 X169.230 Y76.714 E1.41167
G1 X169.230 Y77.248 E0.01679
G1 X136.925 Y44.943 E1.43541
G1 X136.390 Y44.943 E0.01679
G1 X169.230 Y77.782 E1.45915
G1 X169.230 Y78.317 E0.01679
G1 X135.856 Y44.943 E1.48289
G1 X135.322 Y44.943 E0.01679
G1 X169.230 Y78.851 E1.50664
G1 X169.230 Y79.385 E0.01679
G1 X134.787 Y44.943 E1.53038
G1 X134.253 Y44.943 E0.01679
G1 X169.230 Y79.920 E1.55412
G1 X169.230 Y80.454 E0.01679
G1 X133.719 Y44.943 E1.57787
G1 X133.184 Y44.943 E0.01679
G1 X169.230 Y80.988 E1.60161
G1 X169.230 Y81.523 E0.01679
G1 X132.650 Y44.943 E1.62535
G1 X132.116 Y44.943 E0.01679
G1 X169.230 Y82.057 E1.64910
G1 X169.230 Y82.592 E0.01679
G1 X131.581 Y44.943 E1.67284
G1 X131.047 Y44.943 E0.01679
G1 X169.230 Y83.126 E1.69658
G1 X169.230 Y83.660 E0.01679
G1 X130.512 Y44.943 E1.72033
G1 X129.978 Y44.943 E0.01679
G1 X169.230 Y84.195 E1.74407
G1 X169.230 Y84.729 E0.01679
G1 X129.444 Y44.943 E1.76781
G1 X128.909 Y44.943 E0.01679
G1 X169.230 Y85.263 E1.79156
G1 X169.230 Y85.798 E0.01679
G1 X128.375 Y44.943 E1.81530
G1 X127.841 Y44.943 E0.01679
G1 X169.230 Y86.332 E1.83904
G1 X169.230 Y86.866 E0.01679
G1 X127.306 Y44.943 E1.86279
G1 X126.772 Y44.943 E0.01679
G1 X169.230 Y87.401 E1.88653
G1 X169.230 Y87.935 E0.01679
G1 X126.238 Y44.943 E1.91027
G1 X125.703 Y44.943 E0.01679
G1 X169.230 Y88.470 E1.93402
G1 X169.230 Y89.004 E0.01679
G1 X125.169 Y44.943 E1.95776
G1 X124.634 Y44.943 E0.01679
G1 X169.230 Y89.538 E1.98150
G1 X169.230 Y90.073 E0.01679
G1 X124.100 Y44.943 E2.00524
G1 X123.566 Y44.943 E0.01679
G1 X169.230 Y90.607 E2.02899
G1 X169.230 Y91.141 E0.01679
G1 X123.031 Y44.943 E2.05273
G1 X122.497 Y44.943 E0.01679
G1 X169.230 Y91.676 E2.07647
G1 X169.230 Y92.210 E0.01679
G1 X121.963 Y44.943 E2.10022
G1 X121.428 Y44.943 E0.01679
G1 X169.230 Y92.744 E2.12396
G1 X169.230 Y93.279 E0.01679
G1 X120.894 Y44.943 E2.14770
G1 X120.360 Y44.943 E0.01679
G1 X169.230 Y93.813 E2.17145
G1 X169.230 Y94.348 E0.01679
G1 X119.825 Y44.943 E2.19519
G1 X119.291 Y44.943 E0.01679
G1 X169.230 Y94.882 E2.21893
G1 X169.230 Y95.416 E0.01679
G1 X118.756 Y44.943 E2.24268
G1 X118.222 Y44.943 E0.01679
G1 X169.230 Y95.951 E2.26642
G1 X169.230 Y96.485 E0.01679
G1 X117.688 Y44.943 E2.29016
G1 X117.153 Y44.943 E0.01679
G1 X169.230 Y97.019 E2.31391
G1 X169.230 Y97.554 E0.01679
G1 X116.619 Y44.943 E2.33765
G1 X116.085 Y44.943 E0.01679
G1 X169.230 Y98.088 E2.36139
G1 X169.230 Y98.622 E0.01679
G1 X115.550 Y44.943 E2.38514
G1 X115.016 Y44.943 E0.01679
G1 X169.230 Y99.157 E2.40888
G1 X169.230 Y99.691 E0.01679
G1 X114.482 Y44.943 E2.43262
G1 X113.947 Y44.943 E0.01679
G1 X169.230 Y100.226 E2.45637
G1 X169.230 Y100.760 E0.01679
G1 X113.413 Y44.943 E2.48011
G1 X112.878 Y44.943 E0.01679
G1 X169.230 Y101.294 E2.50385
G1 X169.230 Y101.829 E0.01679
G1 X112.344 Y44.943 E2.52759
G1 X111.810 Y44.943 E0.01679
G1 X169.230 Y102.363 E2.55134
G1 X169.230 Y102.897 E0.01679
G1 X111.275 Y44.943 E2.57508
G1 X110.741 Y44.943 E0.01679
G1 X169.230 Y103.432 E2.59882
G1 X169.230 Y103.966 E0.01679
G1 X110.207 Y44.943 E2.62257
G1 X109.672 Y44.943 E0.01679
G1 X169.230 Y104.501 E2.64631
G1 X169.230 Y105.035 E0.01679
G1 X109.138 Y44.943 E2.67005
G1 X108.604 Y44.943 E0.01679
G1 X169.230 Y105.569 E2.69380
G1 X169.230 Y106.104 E0.01679
G1 X108.069 Y44.943 E2.71754
G1 X107.535 Y44.943 E0.01679
G1 X169.230 Y106.638 E2.74128
G1 X169.230 Y107.172 E0.01679
G1 X107.000 Y44.943 E2.76503
G1 X106.466 Y44.943 E0.01679
G1 X169.230 Y107.707 E2.78877
G1 X169.230 Y108.241 E0.01679
G1 X105.932 Y44.943 E2.81251
G1 X105.397 Y44.943 E0.01679
G1 X169.230 Y108.775 E2.83626
G1 X169.230 Y109.310 E0.01679
G1 X104.863 Y44.943 E2.86000
G1 X104.329 Y44.943 E0.01679
G1 X169.230 Y109.844 E2.88374
G1 X169.230 Y110.379 E0.01679
G1 X103.794 Y44.943 E2.90749
G1 X103.260 Y44.943 E0.01679
G1 X169.230 Y110.913 E2.93123
G1 X169.230 Y111.447 E0.01679
G1 X102.726 Y44.943 E2.95497
G1 X102.191 Y44.943 E0.01679
G1 X169.230 Y111.982 E2.97872
G1 X169.230 Y112.516 E0.01679
G1 X101.657 Y44.943 E3.00246
G1 X101.122 Y44.943 E0.01679
G1 X169.230 Y113.050 E3.02620
G1 X169.230 Y113.585 E0.01679
G1 X100.588 Y44.943 E3.04994
G1 X100.054 Y44.943 E0.01679
G1 X169.230 Y114.119 E3.07369
G1 X169.230 Y114.653 E0.01679
G1 X99.519 Y44.943 E3.09743
G1 X98.985 Y44.943 E0.01679
G1 X169.230 Y115.188 E3.12117
G1 X169.230 Y115.722 E0.01679
G1 X98.451 Y44.943 E3.14492
G1 X97.916 Y44.943 E0.01679
G1 X169.230 Y116.257 E3.16866
G1 X169.230 Y116.791 E0.01679
G1 X97.382 Y44.943 E3.19240
G1 X96.848 Y44.943 E0.01679
G1 X169.230 Y117.325 E3.21615
G1 X169.230 Y117.860 E0.01679
G1 X96.313 Y44.943 E3.23989
G1 X95.779 Y44.943 E0.01679
G1 X169.230 Y118.394 E3.26363
G1 X169.230 Y118.928 E0.01679
G1 X95.244 Y44.943 E3.28738
G1 X94.710 Y44.943 E0.01679
G1 X169.230 Y119.463 E3.31112
G1 X169.230 Y119.997 E0.01679
G1 X94.176 Y44.943 E3.33486
G1 X93.641 Y44.943 E0.01679
G1 X169.230 Y120.531 E3.35861
G1 X169.230 Y121.066 E0.01679
G1 X93.107 Y44.943 E3.38235
G1 X92.573 Y44.943 E0.01679
G1 X169.230 Y121.600 E3.40609
G1 X169.230 Y122.135 E0.01679
G1 X92.038 Y44.943 E3.42984
G1 X91.504 Y44.943 E0.01679
G1 X169.230 Y122.669 E3.45358
G1 X169.230 Y123.203 E0.01679
G1 X90.970 Y44.943 E3.47732
G1 X90.435 Y44.943 E0.01679
G1 X169.230 Y123.738 E3.50107
G1 X169.230 Y124.272 E0.01679
G1 X89.901 Y44.943 E3.52481
G1 X89.366 Y44.943 E0.01679
G1 X169.230 Y124.806 E3.54855
G1 X169.230 Y125.341 E0.01679
G1 X88.832 Y44.943 E3.57229
G1 X88.298 Y44.943 E0.01679
G1 X169.230 Y125.875 E3.59604
G1 X169.230 Y126.409 E0.01679
G1 X87.763 Y44.943 E3.61978
G1 X87.229 Y44.943 E0.01679
G1 X169.230 Y126.944 E3.64352
G1 X169.230 Y127.478 E0.01679
G1 X86.695 Y44.943 E3.66727
G1 X86.160 Y44.943 E0.01679
G1 X169.230 Y128.013 E3.69101
G1 X169.230 Y128.547 E0.01679
G1 X85.626 Y44.943 E3.71475
G1 X85.092 Y44.943 E0.01679
G1 X169.230 Y129.081 E3.73850
G1 X169.230 Y129.616 E0.01679
G1 X84.557 Y44.943 E3.76224
G1 X84.023 Y44.943 E0.01679
G1 X169.230 Y130.150 E3.78598
G1 X169.230 Y130.684 E0.01679
G1 X83.488 Y44.943 E3.80973
G1 X82.954 Y44.943 E0.01679
G1 X169.230 Y131.219 E3.83347
G1 X169.230 Y131.753 E0.01679
G1 X82.420 Y44.943 E3.85721
G1 X81.885 Y44.943 E0.01679
G1 X169.230 Y132.287 E3.88096
G1 X169.230 Y132.822 E0.01679
G1 X81.351 Y44.943 E3.90470
G1 X80.817 Y44.943 E0.01679
G1 X169.230 Y133.356 E3.92844
G1 X169.230 Y133.891 E0.01679
G1 X80.282 Y44.943 E3.95219
G1 X79.748 Y44.943 E0.01679
G1 X169.230 Y134.425 E3.97593
G1 X169.230 Y134.959 E0.01679
G1 X79.214 Y44.943 E3.99967
G1 X78.679 Y44.943 E0.01679
G1 X169.230 Y135.494 E4.02342
G1 X169.230 Y136.028 E0.01679
G1 X78.145 Y44.943 E4.04716
G1 X77.610 Y44.943 E0.01679
G1 X169.230 Y136.562 E4.07090
G1 X169.230 Y137.097 E0.01679
G1 X77.076 Y44.943 E4.09464
G1 X76.542 Y44.943 E0.01679
G1 X169.230 Y137.631 E4.11839
G1 X169.230 Y138.165 E0.01679
G1 X76.007 Y44.943 E4.14213
G1 X75.473 Y44.943 E0.01679
G1 X169.230 Y138.700 E4.16587
G1 X169.230 Y139.234 E0.01679
G1 X74.939 Y44.943 E4.18962
G1 X74.404 Y44.943 E0.01679
G1 X169.230 Y139.769 E4.21336
G1 X169.230 Y140.303 E0.01679
G1 X73.870 Y44.943 E4.23710
G1 X73.336 Y44.943 E0.01679
G1 X169.230 Y140.837 E4.26085
G1 X169.230 Y141.372 E0.01679
G1 X72.801 Y44.943 E4.28459
G1 X72.267 Y44.943 E0.01679
G1 X169.230 Y141.906 E4.30834
G1 X169.230 Y142.440 E0.01679
G1 X71.732 Y44.943 E4.33208
G1 X71.198 Y44.943 E0.01679
G1 X169.230 Y142.975 E4.35583
G1 X169.230 Y143.509 E0.01679
G1 X70.664 Y44.943 E4.37957
G1 X70.288 Y44.943 E0.01181
G1 X70.208 Y45.022 E0.00352
G1 X169.230 Y144.044 E4.39979
G1 X169.230 Y144.578 E0.01679
G1 X69.941 Y45.289 E4.41167
G1 X69.674 Y45.556 E0.01187
G1 X169.230 Y145.112 E4.42354
G1 X169.230 Y145.647 E0.01679
G1 X69.407 Y45.823 E4.43541
G1 X69.140 Y46.091 E0.01187
G1 X169.230 Y146.181 E4.44728
G1 X169.230 Y146.715 E0.01679
G1 X68.872 Y46.358 E4.45915
G1 X68.605 Y46.625 E0.01187
G1 X169.230 Y147.250 E4.47102
G1 X169.230 Y147.784 E0.01679
G1 X68.338 Y46.892 E4.48290
G1 X68.071 Y47.159 E0.01187
G1 X169.230 Y148.318 E4.49477
G1 X169.230 Y148.853 E0.01679
G1 X67.804 Y47.426 E4.50664
G1 X67.537 Y47.694 E0.01187
G1 X169.230 Y149.387 E4.51851
G1 X169.230 Y149.922 E0.01679
G1 X67.269 Y47.961 E4.53038
G1 X67.002 Y48.228 E0.01187
